Najongs/Meca500_3D_Pose_Estimation/synchronized_robot_camera_data_2.csv
image_path,image_timestamp,robot_timestamp,time_difference_s,timestamp,j1,j2,j3,j4,j5,j6,x,y,z,rx,ry,rz,datetime
/home/najo/NAS/DIP/datasets/meca_insertion/vla_dataset2_hand/right/zed_49429257_left_1747200810.937.jpg,1747200810.937,1747200810.975,0.037999868392944336,1747200810.975,23.51,37.61,-6.64,28.22,54.74,-49.52,185.06,109.98,148.82,-156.16,-2.27,123.1,2025-05-14 14:33:30.975
/home/najo/NAS/DIP/datasets/meca_insertion/vla_dataset2_hand/right/zed_49429257_right_1747200810.937.jpg,1747200810.937,1747200810.975,0.037999868392944336,1747200810.975,23.51,37.61,-6.64,28.22,54.74,-49.52,185.06,109.98,148.82,-156.16,-2.27,123.1,2025-05-14 14:33:30.975
/home/najo/NAS/DIP/datasets/meca_insertion/vla_dataset2_hand/top/zed_49045152_right_1747200811.009.jpg,1747200811.009,1747200811.005,0.003999948501586914,1747200811.005,23.491080959172454,37.582972798817785,-6.73189248401952,28.195675518936007,54.85081152484707,-49.48216191834491,185.09513536153688,109.93135103787202,149.10919105264966,-156.1491891195271,-2.27,123.09729727988176,2025-05-14 14:33:31.005
/home/najo/NAS/DIP/datasets/meca_insertion/vla_dataset2_hand/top/zed_49045152_left_1747200811.009.jpg,1747200811.009,1747200811.005,0.003999948501586914,1747200811.005,23.491080959172454,37.582972798817785,-6.73189248401952,28.195675518936007,54.85081152484707,-49.48216191834491,185.09513536153688,109.93135103787202,149.10919105264966,-156.1491891195271,-2.27,123.09729727988176,2025-05-14 14:33:31.005
/home/najo/NAS/DIP/datasets/meca_insertion/vla_dataset2_hand/left/zed_44377151_left_1747200811.060.jpg,1747200811.06,1747200811.055,0.004999876022338867,1747200811.055,23.459549475049837,37.53792782149976,-6.885045406900818,28.155135039349783,55.03549593185099,-49.41909895009967,185.15369383205032,109.85027007869957,149.59117230995255,-156.1311711285999,-2.27,123.09279278214996,2025-05-14 14:33:31.055
/home/najo/NAS/DIP/datasets/meca_insertion/vla_dataset2_hand/left/zed_44377151_right_1747200811.060.jpg,1747200811.06,1747200811.055,0.004999876022338867,1747200811.055,23.459549475049837,37.53792782149976,-6.885045406900818,28.155135039349783,55.03549593185099,-49.41909895009967,185.15369383205032,109.85027007869957,149.59117230995255,-156.1311711285999,-2.27,123.09279278214996,2025-05-14 14:33:31.055
/home/najo/NAS/DIP/datasets/meca_insertion/vla_dataset2_hand/front/zed_41182735_right_1747200811.253.jpg,1747200811.253,1747200811.256,0.003000020980834961,1747200811.256,23.391139248528745,37.45113924852875,-7.199873381620643,28.071139248528745,55.418734133091895,-49.28670887279312,185.27329112720687,109.68784812132186,150.58848089633318,-156.0955696242644,-2.28,123.08556962426438,2025-05-14 14:33:31.256
/home/najo/NAS/DIP/datasets/meca_insertion/vla_dataset2_hand/front/zed_41182735_left_1747200811.253.jpg,1747200811.253,1747200811.256,0.003000020980834961,1747200811.256,23.391139248528745,37.45113924852875,-7.199873381620643,28.071139248528745,55.418734133091895,-49.28670887279312,185.27329112720687,109.68784812132186,150.58848089633318,-156.0955696242644,-2.28,123.08556962426438,2025-05-14 14:33:31.256
/home/najo/NAS/DIP/datasets/meca_insertion/vla_dataset2_hand/left/zed_44377151_right_1747200811.348.jpg,1747200811.348,1747200811.344,0.003999948501586914,1747200811.344,23.38,37.44,-7.25,28.06,55.48,-49.27,185.29,109.66,150.75,-156.09,-2.28,123.08,2025-05-14 14:33:31.344
/home/najo/NAS/DIP/datasets/meca_insertion/vla_dataset2_hand/left/zed_44377151_left_1747200811.348.jpg,1747200811.348,1747200811.344,0.003999948501586914,1747200811.344,23.38,37.44,-7.25,28.06,55.48,-49.27,185.29,109.66,150.75,-156.09,-2.28,123.08,2025-05-14 14:33:31.344
/home/najo/NAS/DIP/datasets/meca_insertion/vla_dataset2_hand/top/zed_49045152_left_1747200811.362.jpg,1747200811.362,1747200811.364,0.002000093460083008,1747200811.364,23.36560001373291,37.420800018310544,-7.317199935913086,28.04240001678467,55.56159992218017,-49.24120002746582,185.31399997711185,109.62160003662107,150.96599979400634,-156.0820000076294,-2.281599998474121,123.07840000152588,2025-05-14 14:33:31.364
/home/najo/NAS/DIP/datasets/meca_insertion/vla_dataset2_hand/top/zed_49045152_right_1747200811.362.jpg,1747200811.362,1747200811.364,0.002000093460083008,1747200811.364,23.36560001373291,37.420800018310544,-7.317199935913086,28.04240001678467,55.56159992218017,-49.24120002746582,185.31399997711185,109.62160003662107,150.96599979400634,-156.0820000076294,-2.281599998474121,123.07840000152588,2025-05-14 14:33:31.364
/home/najo/NAS/DIP/datasets/meca_insertion/vla_dataset2_hand/right/zed_49429257_left_1747200811.389.jpg,1747200811.389,1747200811.384,0.004999876022338867,1747200811.384,23.35120002746582,37.40160003662109,-7.384399871826172,28.02480003356933,55.64319984436035,-49.21240005493164,185.3379999542236,109.58320007324218,151.1819995880127,-156.07400001525878,-2.283199996948242,123.07680000305176,2025-05-14 14:33:31.384
/home/najo/NAS/DIP/datasets/meca_insertion/vla_dataset2_hand/right/zed_49429257_right_1747200811.389.jpg,1747200811.389,1747200811.384,0.004999876022338867,1747200811.384,23.35120002746582,37.40160003662109,-7.384399871826172,28.02480003356933,55.64319984436035,-49.21240005493164,185.3379999542236,109.58320007324218,151.1819995880127,-156.07400001525878,-2.283199996948242,123.07680000305176,2025-05-14 14:33:31.384
/home/najo/NAS/DIP/datasets/meca_insertion/vla_dataset2_hand/left/zed_44377151_right_1747200811.595.jpg,1747200811.595,1747200811.599,0.003999948501586914,1747200811.599,23.245081971057544,37.26262295658632,-7.872131130241057,27.895081971057543,56.23704915918351,-49.00262295658632,185.5073770434137,109.30770492764384,152.7488524051944,-156.01754098552877,-2.29,123.07,2025-05-14 14:33:31.599
/home/najo/NAS/DIP/datasets/meca_insertion/vla_dataset2_hand/left/zed_44377151_left_1747200811.595.jpg,1747200811.595,1747200811.599,0.003999948501586914,1747200811.599,23.245081971057544,37.26262295658632,-7.872131130241057,27.895081971057543,56.23704915918351,-49.00262295658632,185.5073770434137,109.30770492764384,152.7488524051944,-156.01754098552877,-2.29,123.07,2025-05-14 14:33:31.599
/home/najo/NAS/DIP/datasets/meca_insertion/vla_dataset2_hand/top/zed_49045152_left_1747200811.647.jpg,1747200811.647,1747200811.649,0.0019998550415039062,1747200811.649,23.23688525615345,37.250327884230174,-7.909016347309485,27.886885256153448,56.28213109115604,-48.99032788423017,185.51967211576985,109.2872131403836,152.86360641385173,-156.01344262807672,-2.29,123.07,2025-05-14 14:33:31.649
/home/najo/NAS/DIP/datasets/meca_insertion/vla_dataset2_hand/top/zed_49045152_right_1747200811.647.jpg,1747200811.647,1747200811.649,0.0019998550415039062,1747200811.649,23.23688525615345,37.250327884230174,-7.909016347309485,27.886885256153448,56.28213109115604,-48.99032788423017,185.51967211576985,109.2872131403836,152.86360641385173,-156.01344262807672,-2.29,123.07,2025-05-14 14:33:31.649
/home/najo/NAS/DIP/datasets/meca_insertion/vla_dataset2_hand/right/zed_49429257_left_1747200811.682.jpg,1747200811.682,1747200811.679,0.003000020980834961,1747200811.679,23.23196722721099,37.24295084081649,-7.931147477550542,27.88196722721099,56.30918025033955,-48.982950840816486,185.52704915918352,109.27491806802747,152.93245881904613,-156.01098361360548,-2.29,123.07,2025-05-14 14:33:31.679
/home/najo/NAS/DIP/datasets/meca_insertion/vla_dataset2_hand/right/zed_49429257_right_1747200811.682.jpg,1747200811.682,1747200811.679,0.003000020980834961,1747200811.679,23.23196722721099,37.24295084081649,-7.931147477550542,27.88196722721099,56.30918025033955,-48.982950840816486,185.52704915918352,109.27491806802747,152.93245881904613,-156.01098361360548,-2.29,123.07,2025-05-14 14:33:31.679
/home/najo/NAS/DIP/datasets/meca_insertion/vla_dataset2_hand/front/zed_41182735_right_1747200811.712.jpg,1747200811.712,1747200811.711,0.0009999275207519531,1747200811.711,23.21596493576297,37.22245616970371,-8.003157789066634,27.862456169703712,56.39719285330367,-48.95368425455557,185.55105259635556,109.2331579563778,153.16350843143695,-156.00298246788148,-2.29,123.06824561697036,2025-05-14 14:33:31.711
/home/najo/NAS/DIP/datasets/meca_insertion/vla_dataset2_hand/front/zed_41182735_left_1747200811.712.jpg,1747200811.712,1747200811.711,0.0009999275207519531,1747200811.711,23.21596493576297,37.22245616970371,-8.003157789066634,27.862456169703712,56.39719285330367,-48.95368425455557,185.55105259635556,109.2331579563778,153.16350843143695,-156.00298246788148,-2.29,123.06824561697036,2025-05-14 14:33:31.711
/home/najo/NAS/DIP/datasets/meca_insertion/vla_dataset2_hand/left/zed_44377151_left_1747200811.911.jpg,1747200811.911,1747200811.911,0.0,1747200811.911,23.11,37.09,-8.48,27.73,56.98,-48.75,185.71,108.95,154.7,-155.95,-2.3,123.05,2025-05-14 14:33:31.911
/home/najo/NAS/DIP/datasets/meca_insertion/vla_dataset2_hand/left/zed_44377151_right_1747200811.911.jpg,1747200811.911,1747200811.911,0.0,1747200811.911,23.11,37.09,-8.48,27.73,56.98,-48.75,185.71,108.95,154.7,-155.95,-2.3,123.05,2025-05-14 14:33:31.911
/home/najo/NAS/DIP/datasets/meca_insertion/vla_dataset2_hand/front/zed_41182735_right_1747200811.975.jpg,1747200811.975,1747200811.971,0.003999948501586914,1747200811.971,23.08563454430591,37.05954318038239,-8.589644550623397,27.70258886234415,57.114010006317486,-48.70431477057358,185.7404568196176,108.88299499684126,155.0502534256025,-155.9408629541147,-2.3,123.04695431803825,2025-05-14 14:33:31.971
/home/najo/NAS/DIP/datasets/meca_insertion/vla_dataset2_hand/front/zed_41182735_left_1747200811.975.jpg,1747200811.975,1747200811.971,0.003999948501586914,1747200811.971,23.08563454430591,37.05954318038239,-8.589644550623397,27.70258886234415,57.114010006317486,-48.70431477057358,185.7404568196176,108.88299499684126,155.0502534256025,-155.9408629541147,-2.3,123.04695431803825,2025-05-14 14:33:31.971
/home/najo/NAS/DIP/datasets/meca_insertion/vla_dataset2_hand/top/zed_49045152_right_1747200812.002.jpg,1747200812.002,1747200812.001,0.0010001659393310547,1747200812.001,23.073451816458867,37.04431477057359,-8.644466825935098,27.688883293516227,57.18101500947623,-48.68147215586038,185.75568522942643,108.84949249526188,155.22538013840378,-155.93629443117206,-2.3,123.04543147705736,2025-05-14 14:33:32.001
/home/najo/NAS/DIP/datasets/meca_insertion/vla_dataset2_hand/top/zed_49045152_left_1747200812.002.jpg,1747200812.002,1747200812.001,0.0010001659393310547,1747200812.001,23.073451816458867,37.04431477057359,-8.644466825935098,27.688883293516227,57.18101500947623,-48.68147215586038,185.75568522942643,108.84949249526188,155.22538013840378,-155.93629443117206,-2.3,123.04543147705736,2025-05-14 14:33:32.001
/home/najo/NAS/DIP/datasets/meca_insertion/vla_dataset2_hand/right/zed_49429257_right_1747200812.027.jpg,1747200812.027,1747200812.031,0.003999948501586914,1747200812.031,23.061269088611823,37.02908636076478,-8.699289101246796,27.6751777246883,57.248020012634974,-48.65862954114717,185.77091363923523,108.81598999368252,155.40050685120502,-155.93172590822942,-2.3,123.04390863607648,2025-05-14 14:33:32.031
/home/najo/NAS/DIP/datasets/meca_insertion/vla_dataset2_hand/right/zed_49429257_left_1747200812.027.jpg,1747200812.027,1747200812.031,0.003999948501586914,1747200812.031,23.061269088611823,37.02908636076478,-8.699289101246796,27.6751777246883,57.248020012634974,-48.65862954114717,185.77091363923523,108.81598999368252,155.40050685120502,-155.93172590822942,-2.3,123.04390863607648,2025-05-14 14:33:32.031
/home/najo/NAS/DIP/datasets/meca_insertion/vla_dataset2_hand/left/zed_44377151_left_1747200812.241.jpg,1747200812.241,1747200812.238,0.003000020980834961,1747200812.238,22.99,36.93819277419911,-9.025421677402676,27.588192774199108,57.64542167740267,-48.52638554839822,185.8618072258009,108.6163855483982,156.44807225800892,-155.9081927741991,-2.3,123.04,2025-05-14 14:33:32.238
/home/najo/NAS/DIP/datasets/meca_insertion/vla_dataset2_hand/left/zed_44377151_right_1747200812.241.jpg,1747200812.241,1747200812.238,0.003000020980834961,1747200812.238,22.99,36.93819277419911,-9.025421677402676,27.588192774199108,57.64542167740267,-48.52638554839822,185.8618072258009,108.6163855483982,156.44807225800892,-155.9081927741991,-2.3,123.04,2025-05-14 14:33:32.238
/home/najo/NAS/DIP/datasets/meca_insertion/vla_dataset2_hand/front/zed_41182735_right_1747200812.293.jpg,1747200812.293,1747200812.288,0.004999876022338867,1747200812.288,22.99,36.93518071683506,-9.034457849494798,27.585180716835065,57.6544578494948,-48.52036143367013,185.86481928316493,108.61036143367014,156.47819283164932,-155.90518071683508,-2.3,123.04,2025-05-14 14:33:32.288
/home/najo/NAS/DIP/datasets/meca_insertion/vla_dataset2_hand/front/zed_41182735_left_1747200812.293.jpg,1747200812.293,1747200812.288,0.004999876022338867,1747200812.288,22.99,36.93518071683506,-9.034457849494798,27.585180716835065,57.6544578494948,-48.52036143367013,185.86481928316493,108.61036143367014,156.47819283164932,-155.90518071683508,-2.3,123.04,2025-05-14 14:33:32.288
/home/najo/NAS/DIP/datasets/meca_insertion/vla_dataset2_hand/right/zed_49429257_right_1747200812.349.jpg,1747200812.349,1747200812.348,0.0009999275207519531,1747200812.348,22.99,36.931566265233286,-9.045301204300149,27.58156626523328,57.66530120430015,-48.51313253046656,185.8684337347667,108.60313253046655,156.51433734766715,-155.9015662652333,-2.3,123.04,2025-05-14 14:33:32.348
/home/najo/NAS/DIP/datasets/meca_insertion/vla_dataset2_hand/right/zed_49429257_left_1747200812.349.jpg,1747200812.349,1747200812.348,0.0009999275207519531,1747200812.348,22.99,36.931566265233286,-9.045301204300149,27.58156626523328,57.66530120430015,-48.51313253046656,185.8684337347667,108.60313253046655,156.51433734766715,-155.9015662652333,-2.3,123.04,2025-05-14 14:33:32.348
/home/najo/NAS/DIP/datasets/meca_insertion/vla_dataset2_hand/top/zed_49045152_right_1747200812.366.jpg,1747200812.366,1747200812.368,0.002000093460083008,1747200812.368,22.99,36.93036144803269,-9.048915655901933,27.580361448032686,57.668915655901934,-48.510722896065374,185.8696385519673,108.60072289606538,156.5263855196731,-155.9003614480327,-2.3,123.04,2025-05-14 14:33:32.368
/home/najo/NAS/DIP/datasets/meca_insertion/vla_dataset2_hand/top/zed_49045152_left_1747200812.366.jpg,1747200812.366,1747200812.368,0.002000093460083008,1747200812.368,22.99,36.93036144803269,-9.048915655901933,27.580361448032686,57.668915655901934,-48.510722896065374,185.8696385519673,108.60072289606538,156.5263855196731,-155.9003614480327,-2.3,123.04,2025-05-14 14:33:32.368
/home/najo/NAS/DIP/datasets/meca_insertion/vla_dataset2_hand/right/zed_49429257_right_1747200812.631.jpg,1747200812.631,1747200812.628,0.003000020980834961,1747200812.628,22.846551726972876,36.74655172697288,-9.700689638162762,27.40655172697287,58.46413791118989,-48.24310345394574,186.03344827302712,108.1762069078915,158.61551718751542,-155.85,-2.3,123.02,2025-05-14 14:33:32.628
/home/najo/NAS/DIP/datasets/meca_insertion/vla_dataset2_hand/right/zed_49429257_left_1747200812.631.jpg,1747200812.631,1747200812.628,0.003000020980834961,1747200812.628,22.846551726972876,36.74655172697288,-9.700689638162762,27.40655172697287,58.46413791118989,-48.24310345394574,186.03344827302712,108.1762069078915,158.61551718751542,-155.85,-2.3,123.02,2025-05-14 14:33:32.628
/home/najo/NAS/DIP/datasets/meca_insertion/vla_dataset2_hand/front/zed_41182735_right_1747200812.706.jpg,1747200812.706,1747200812.708,0.0019998550415039062,1747200812.708,22.84103449012947,36.74103449012947,-9.733793059223183,27.40103449012947,58.502758569093714,-48.23206898025894,186.0389655098705,108.15413796051789,158.7203446875401,-155.85,-2.3,123.02,2025-05-14 14:33:32.708
/home/najo/NAS/DIP/datasets/meca_insertion/vla_dataset2_hand/front/zed_41182735_left_1747200812.706.jpg,1747200812.706,1747200812.708,0.0019998550415039062,1747200812.708,22.84103449012947,36.74103449012947,-9.733793059223183,27.40103449012947,58.502758569093714,-48.23206898025894,186.0389655098705,108.15413796051789,158.7203446875401,-155.85,-2.3,123.02,2025-05-14 14:33:32.708
/home/najo/NAS/DIP/datasets/meca_insertion/vla_dataset2_hand/top/zed_49045152_right_1747200812.723.jpg,1747200812.723,1747200812.723,0.0,1747200812.723,22.84,36.74,-9.74,27.4,58.51,-48.23,186.04,108.15,158.74,-155.85,-2.3,123.02,2025-05-14 14:33:32.723
/home/najo/NAS/DIP/datasets/meca_insertion/vla_dataset2_hand/top/zed_49045152_left_1747200812.723.jpg,1747200812.723,1747200812.723,0.0,1747200812.723,22.84,36.74,-9.74,27.4,58.51,-48.23,186.04,108.15,158.74,-155.85,-2.3,123.02,2025-05-14 14:33:32.723
/home/najo/NAS/DIP/datasets/meca_insertion/vla_dataset2_hand/left/zed_44377151_right_1747200812.735.jpg,1747200812.735,1747200812.733,0.0019998550415039062,1747200812.733,22.831964292556652,36.73017857979147,-9.774821398921157,27.390178579791467,58.5528571063645,-48.21482144149591,186.04803570744332,108.12678573405258,158.8524999042068,-155.84732143085222,-2.300892856382593,123.0191071436174,2025-05-14 14:33:32.733
/home/najo/NAS/DIP/datasets/meca_insertion/vla_dataset2_hand/left/zed_44377151_left_1747200812.735.jpg,1747200812.735,1747200812.733,0.0019998550415039062,1747200812.733,22.831964292556652,36.73017857979147,-9.774821398921157,27.390178579791467,58.5528571063645,-48.21482144149591,186.04803570744332,108.12678573405258,158.8524999042068,-155.84732143085222,-2.300892856382593,123.0191071436174,2025-05-14 14:33:32.733
/home/najo/NAS/DIP/datasets/meca_insertion/vla_dataset2_hand/right/zed_49429257_right_1747200812.938.jpg,1747200812.938,1747200812.935,0.003000020980834961,1747200812.935,22.72037039653428,36.59296299566785,-10.263333215595756,27.26037039653428,59.15296281906148,-48.008148193934986,186.1596296034657,107.80111118960282,160.429629250253,-155.81259259913358,-2.31,123.01,2025-05-14 14:33:32.935
/home/najo/NAS/DIP/datasets/meca_insertion/vla_dataset2_hand/right/zed_49429257_left_1747200812.938.jpg,1747200812.938,1747200812.935,0.003000020980834961,1747200812.935,22.72037039653428,36.59296299566785,-10.263333215595756,27.26037039653428,59.15296281906148,-48.008148193934986,186.1596296034657,107.80111118960282,160.429629250253,-155.81259259913358,-2.31,123.01,2025-05-14 14:33:32.935
/home/najo/NAS/DIP/datasets/meca_insertion/vla_dataset2_hand/front/zed_41182735_right_1747200812.984.jpg,1747200812.984,1747200812.98,0.003999948501586914,1747200812.98,22.70530201567803,36.57328859382575,-10.332147640375004,27.24395973444318,59.236845624696976,-47.98060403135606,186.17402684370447,107.75456376579923,160.65046976482958,-155.80865771876515,-2.31,123.00932885938258,2025-05-14 14:33:32.980
/home/najo/NAS/DIP/datasets/meca_insertion/vla_dataset2_hand/front/zed_41182735_left_1747200812.984.jpg,1747200812.984,1747200812.98,0.003999948501586914,1747200812.98,22.70530201567803,36.57328859382575,-10.332147640375004,27.24395973444318,59.236845624696976,-47.98060403135606,186.17402684370447,107.75456376579923,160.65046976482958,-155.80865771876515,-2.31,123.00932885938258,2025-05-14 14:33:32.980
/home/najo/NAS/DIP/datasets/meca_insertion/vla_dataset2_hand/top/zed_49045152_right_1747200813.041.jpg,1747200813.041,1747200813.04,0.0009999275207519531,1747200813.04,22.677114109746206,36.53302015678029,-10.46503348262504,27.207718141102266,59.39791937287883,-47.92422821949241,186.1981879059318,107.66194636059468,161.07328835380693,-155.80060403135604,-2.31,123.00530201567804,2025-05-14 14:33:33.040
/home/najo/NAS/DIP/datasets/meca_insertion/vla_dataset2_hand/top/zed_49045152_left_1747200813.041.jpg,1747200813.041,1747200813.04,0.0009999275207519531,1747200813.04,22.677114109746206,36.53302015678029,-10.46503348262504,27.207718141102266,59.39791937287883,-47.92422821949241,186.1981879059318,107.66194636059468,161.07328835380693,-155.80060403135604,-2.31,123.00530201567804,2025-05-14 14:33:33.040
/home/najo/NAS/DIP/datasets/meca_insertion/vla_dataset2_hand/left/zed_44377151_left_1747200813.069.jpg,1747200813.069,1747200813.07,0.0009999275207519531,1747200813.07,22.66302015678029,36.512885938257554,-10.531476403750055,27.189597344431803,59.47845624696976,-47.89604031356058,186.21026843704544,107.6156376579924,161.28469764829563,-155.7965771876515,-2.31,123.00328859382576,2025-05-14 14:33:33.070
/home/najo/NAS/DIP/datasets/meca_insertion/vla_dataset2_hand/left/zed_44377151_right_1747200813.069.jpg,1747200813.069,1747200813.07,0.0009999275207519531,1747200813.07,22.66302015678029,36.512885938257554,-10.531476403750055,27.189597344431803,59.47845624696976,-47.89604031356058,186.21026843704544,107.6156376579924,161.28469764829563,-155.7965771876515,-2.31,123.00328859382576,2025-05-14 14:33:33.070
/home/najo/NAS/DIP/datasets/meca_insertion/vla_dataset2_hand/right/zed_49429257_right_1747200813.312.jpg,1747200813.312,1747200813.311,0.0009999275207519531,1747200813.311,22.589090888073287,36.40909088807329,-10.899091003670202,27.089090888073287,59.93000011559691,-47.738181776146575,186.27545455596336,107.35727266421986,162.46818212293732,-155.77,-2.31,123.0,2025-05-14 14:33:33.311
/home/najo/NAS/DIP/datasets/meca_insertion/vla_dataset2_hand/right/zed_49429257_left_1747200813.312.jpg,1747200813.312,1747200813.311,0.0009999275207519531,1747200813.311,22.589090888073287,36.40909088807329,-10.899091003670202,27.089090888073287,59.93000011559691,-47.738181776146575,186.27545455596336,107.35727266421986,162.46818212293732,-155.77,-2.31,123.0,2025-05-14 14:33:33.311
/home/najo/NAS/DIP/datasets/meca_insertion/vla_dataset2_hand/left/zed_44377151_left_1747200813.348.jpg,1747200813.348,1747200813.351,0.003000020980834961,1747200813.351,22.58424240672774,36.40424240672774,-10.920909169725167,27.08424240672774,59.95666676299742,-47.72848481345548,186.27787879663612,107.34272722018322,162.53848510244777,-155.77,-2.31,123.0,2025-05-14 14:33:33.351
/home/najo/NAS/DIP/datasets/meca_insertion/vla_dataset2_hand/left/zed_44377151_right_1747200813.348.jpg,1747200813.348,1747200813.351,0.003000020980834961,1747200813.351,22.58424240672774,36.40424240672774,-10.920909169725167,27.08424240672774,59.95666676299742,-47.72848481345548,186.27787879663612,107.34272722018322,162.53848510244777,-155.77,-2.31,123.0,2025-05-14 14:33:33.351
/home/najo/NAS/DIP/datasets/meca_insertion/vla_dataset2_hand/front/zed_41182735_left_1747200813.365.jpg,1747200813.365,1747200813.361,0.003999948501586914,1747200813.361,22.583030286391352,36.40303028639135,-10.92636371123891,27.083030286391352,59.96333342484756,-47.72606057278271,186.2784848568043,107.33909085917406,162.55606084732537,-155.77,-2.31,123.0,2025-05-14 14:33:33.361
/home/najo/NAS/DIP/datasets/meca_insertion/vla_dataset2_hand/front/zed_41182735_right_1747200813.365.jpg,1747200813.365,1747200813.361,0.003999948501586914,1747200813.361,22.583030286391352,36.40303028639135,-10.92636371123891,27.083030286391352,59.96333342484756,-47.72606057278271,186.2784848568043,107.33909085917406,162.55606084732537,-155.77,-2.31,123.0,2025-05-14 14:33:33.361
/home/najo/NAS/DIP/datasets/meca_insertion/vla_dataset2_hand/top/zed_49045152_right_1747200813.374.jpg,1747200813.374,1747200813.371,0.003000020980834961,1747200813.371,22.58181816605497,36.401818166054966,-10.93181825275265,27.08181816605497,59.97000008669768,-47.72363633210993,186.2790909169725,107.33545449816488,162.57363659220297,-155.77,-2.31,123.0,2025-05-14 14:33:33.371
/home/najo/NAS/DIP/datasets/meca_insertion/vla_dataset2_hand/top/zed_49045152_left_1747200813.374.jpg,1747200813.374,1747200813.371,0.003000020980834961,1747200813.371,22.58181816605497,36.401818166054966,-10.93181825275265,27.08181816605497,59.97000008669768,-47.72363633210993,186.2790909169725,107.33545449816488,162.57363659220297,-155.77,-2.31,123.0,2025-05-14 14:33:33.371
/home/najo/NAS/DIP/datasets/meca_insertion/vla_dataset2_hand/front/zed_41182735_left_1747200813.590.jpg,1747200813.59,1747200813.587,0.003000020980834961,1747200813.587,22.4735164921538,36.2680219895384,-11.407912041846409,26.9480219895384,60.554395549692615,-47.5270329843076,186.3509890052308,106.9895604712306,164.11373612553922,-155.7445054973846,-2.3045054973845995,122.99,2025-05-14 14:33:33.587
/home/najo/NAS/DIP/datasets/meca_insertion/vla_dataset2_hand/front/zed_41182735_right_1747200813.590.jpg,1747200813.59,1747200813.587,0.003000020980834961,1747200813.587,22.4735164921538,36.2680219895384,-11.407912041846409,26.9480219895384,60.554395549692615,-47.5270329843076,186.3509890052308,106.9895604712306,164.11373612553922,-155.7445054973846,-2.3045054973845995,122.99,2025-05-14 14:33:33.587
/home/najo/NAS/DIP/datasets/meca_insertion/vla_dataset2_hand/top/zed_49045152_left_1747200813.631.jpg,1747200813.631,1747200813.627,0.003999948501586914,1747200813.627,22.466923049715536,36.259230732954045,-11.443077068183811,26.939230732954048,60.59615401846828,-47.51384609943107,186.355384633523,106.96538451562364,164.21923120455145,-155.74230768323852,-2.3023076832385114,122.99,2025-05-14 14:33:33.627
/home/najo/NAS/DIP/datasets/meca_insertion/vla_dataset2_hand/top/zed_49045152_right_1747200813.631.jpg,1747200813.631,1747200813.627,0.003999948501586914,1747200813.627,22.466923049715536,36.259230732954045,-11.443077068183811,26.939230732954048,60.59615401846828,-47.51384609943107,186.355384633523,106.96538451562364,164.21923120455145,-155.74230768323852,-2.3023076832385114,122.99,2025-05-14 14:33:33.627
/home/najo/NAS/DIP/datasets/meca_insertion/vla_dataset2_hand/right/zed_49429257_right_1747200813.679.jpg,1747200813.679,1747200813.679,0.0,1747200813.679,22.45300001668928,36.24100002145765,-11.51299992132198,26.922000019073455,60.67999990463271,-47.48600003337855,186.36399999046327,106.91500005960457,164.43599974727667,-155.73800000476837,-2.3,122.98900000238416,2025-05-14 14:33:33.679
/home/najo/NAS/DIP/datasets/meca_insertion/vla_dataset2_hand/right/zed_49429257_left_1747200813.679.jpg,1747200813.679,1747200813.679,0.0,1747200813.679,22.45300001668928,36.24100002145765,-11.51299992132198,26.922000019073455,60.67999990463271,-47.48600003337855,186.36399999046327,106.91500005960457,164.43599974727667,-155.73800000476837,-2.3,122.98900000238416,2025-05-14 14:33:33.679
/home/najo/NAS/DIP/datasets/meca_insertion/vla_dataset2_hand/left/zed_44377151_left_1747200813.713.jpg,1747200813.713,1747200813.709,0.003999948501586914,1747200813.709,22.43199989986434,36.21399987125415,-11.612000472068113,26.897999885559248,60.80000057220377,-47.44399979972868,186.3760000572204,106.83999964237265,164.75400151634,-155.73199997138985,-2.3,122.9859999856949,2025-05-14 14:33:33.709
/home/najo/NAS/DIP/datasets/meca_insertion/vla_dataset2_hand/left/zed_44377151_right_1747200813.713.jpg,1747200813.713,1747200813.709,0.003999948501586914,1747200813.709,22.43199989986434,36.21399987125415,-11.612000472068113,26.897999885559248,60.80000057220377,-47.44399979972868,186.3760000572204,106.83999964237265,164.75400151634,-155.73199997138985,-2.3,122.9859999856949,2025-05-14 14:33:33.709
/home/najo/NAS/DIP/datasets/meca_insertion/vla_dataset2_hand/top/zed_49045152_right_1747200813.908.jpg,1747200813.908,1747200813.903,0.004999876022338867,1747200813.903,22.338203580846,36.096407161692,-12.030778514923998,26.786407161692,61.304371353232,-47.266407161692,186.43,106.53101790423,166.094131963926,-155.718203580846,-2.3,122.978203580846,2025-05-14 14:33:33.903
/home/najo/NAS/DIP/datasets/meca_insertion/vla_dataset2_hand/top/zed_49045152_left_1747200813.908.jpg,1747200813.908,1747200813.903,0.004999876022338867,1747200813.903,22.338203580846,36.096407161692,-12.030778514923998,26.786407161692,61.304371353232,-47.266407161692,186.43,106.53101790423,166.094131963926,-155.718203580846,-2.3,122.978203580846,2025-05-14 14:33:33.903
/home/najo/NAS/DIP/datasets/meca_insertion/vla_dataset2_hand/front/zed_41182735_left_1747200813.976.jpg,1747200813.976,1747200813.973,0.003000020980834961,1747200813.973,22.334011969465298,36.0880239389306,-12.0559281832082,26.7780239389306,61.3379042442776,-47.2580239389306,186.43,106.5100598473265,166.1737725801593,-155.7140119694653,-2.3,122.9740119694653,2025-05-14 14:33:33.973
/home/najo/NAS/DIP/datasets/meca_insertion/vla_dataset2_hand/front/zed_41182735_right_1747200813.976.jpg,1747200813.976,1747200813.973,0.003000020980834961,1747200813.973,22.334011969465298,36.0880239389306,-12.0559281832082,26.7780239389306,61.3379042442776,-47.2580239389306,186.43,106.5100598473265,166.1737725801593,-155.7140119694653,-2.3,122.9740119694653,2025-05-14 14:33:33.973
/home/najo/NAS/DIP/datasets/meca_insertion/vla_dataset2_hand/left/zed_44377151_right_1747200814.034.jpg,1747200814.034,1747200814.033,0.0009999275207519531,1747200814.033,22.330419159710413,36.08083831942083,-12.077485041737514,26.77083831942083,61.36664672231668,-47.25083831942083,186.43,106.49209579855209,166.24203596550214,-155.71041915971043,-2.3,122.97041915971042,2025-05-14 14:33:34.033
/home/najo/NAS/DIP/datasets/meca_insertion/vla_dataset2_hand/left/zed_44377151_left_1747200814.034.jpg,1747200814.034,1747200814.033,0.0009999275207519531,1747200814.033,22.330419159710413,36.08083831942083,-12.077485041737514,26.77083831942083,61.36664672231668,-47.25083831942083,186.43,106.49209579855209,166.24203596550214,-155.71041915971043,-2.3,122.97041915971042,2025-05-14 14:33:34.033
/home/najo/NAS/DIP/datasets/meca_insertion/vla_dataset2_hand/right/zed_49429257_right_1747200814.040.jpg,1747200814.04,1747200814.04,0.0,1747200814.04,22.33,36.08,-12.08,26.77,61.37,-47.25,186.43,106.49,166.25,-155.71,-2.3,122.97,2025-05-14 14:33:34.040
/home/najo/NAS/DIP/datasets/meca_insertion/vla_dataset2_hand/right/zed_49429257_left_1747200814.040.jpg,1747200814.04,1747200814.04,0.0,1747200814.04,22.33,36.08,-12.08,26.77,61.37,-47.25,186.43,106.49,166.25,-155.71,-2.3,122.97,2025-05-14 14:33:34.040
/home/najo/NAS/DIP/datasets/meca_insertion/vla_dataset2_hand/top/zed_49045152_left_1747200814.227.jpg,1747200814.227,1747200814.227,0.0,1747200814.227,22.226938781865385,35.94693878186539,-12.542244872538449,26.646938781865387,61.93877548160576,-47.05040817279808,186.47326530453364,106.13081634559616,167.75673461761534,-155.7,-2.3,122.97,2025-05-14 14:33:34.227
/home/najo/NAS/DIP/datasets/meca_insertion/vla_dataset2_hand/top/zed_49045152_right_1747200814.227.jpg,1747200814.227,1747200814.227,0.0,1747200814.227,22.226938781865385,35.94693878186539,-12.542244872538449,26.646938781865387,61.93877548160576,-47.05040817279808,186.47326530453364,106.13081634559616,167.75673461761534,-155.7,-2.3,122.97,2025-05-14 14:33:34.227
/home/najo/NAS/DIP/datasets/meca_insertion/vla_dataset2_hand/left/zed_44377151_left_1747200814.266.jpg,1747200814.266,1747200814.267,0.0009999275207519531,1747200814.267,22.22040817279808,35.94040817279808,-12.568367308807671,26.64040817279808,61.96816322240864,-47.04061225919712,186.47489795680048,106.11122451839424,167.83510192642302,-155.7,-2.3,122.97,2025-05-14 14:33:34.267
/home/najo/NAS/DIP/datasets/meca_insertion/vla_dataset2_hand/left/zed_44377151_right_1747200814.266.jpg,1747200814.266,1747200814.267,0.0009999275207519531,1747200814.267,22.22040817279808,35.94040817279808,-12.568367308807671,26.64040817279808,61.96816322240864,-47.04061225919712,186.47489795680048,106.11122451839424,167.83510192642302,-155.7,-2.3,122.97,2025-05-14 14:33:34.267
/home/najo/NAS/DIP/datasets/meca_insertion/vla_dataset2_hand/right/zed_49429257_left_1747200814.309.jpg,1747200814.309,1747200814.307,0.002000093460083008,1747200814.307,22.213877563730776,35.933877563730775,-12.594489745076896,26.633877563730778,61.99755096321151,-47.030816345596165,186.4765306090673,106.09163269119232,167.9134692352307,-155.7,-2.3,122.97,2025-05-14 14:33:34.307
/home/najo/NAS/DIP/datasets/meca_insertion/vla_dataset2_hand/right/zed_49429257_right_1747200814.309.jpg,1747200814.309,1747200814.307,0.002000093460083008,1747200814.307,22.213877563730776,35.933877563730775,-12.594489745076896,26.633877563730778,61.99755096321151,-47.030816345596165,186.4765306090673,106.09163269119232,167.9134692352307,-155.7,-2.3,122.97,2025-05-14 14:33:34.307
/home/najo/NAS/DIP/datasets/meca_insertion/vla_dataset2_hand/front/zed_41182735_left_1747200814.352.jpg,1747200814.352,1747200814.347,0.005000114440917969,1747200814.347,22.207346954663468,35.92734695466347,-12.620612181346122,26.62734695466347,62.02693870401439,-47.0210204319952,186.4781632613341,106.0720408639904,167.99183654403836,-155.7,-2.3,122.97,2025-05-14 14:33:34.347
/home/najo/NAS/DIP/datasets/meca_insertion/vla_dataset2_hand/front/zed_41182735_right_1747200814.352.jpg,1747200814.352,1747200814.347,0.005000114440917969,1747200814.347,22.207346954663468,35.92734695466347,-12.620612181346122,26.62734695466347,62.02693870401439,-47.0210204319952,186.4781632613341,106.0720408639904,167.99183654403836,-155.7,-2.3,122.97,2025-05-14 14:33:34.347
/home/najo/NAS/DIP/datasets/meca_insertion/vla_dataset2_hand/left/zed_44377151_left_1747200814.560.jpg,1747200814.56,1747200814.564,0.003999948501586914,1747200814.564,22.088524606609536,35.76852460660953,-13.169726704692025,26.484699475479378,62.703551835822175,-46.79087434434922,186.51,105.63174868869844,169.7591801140761,-155.68,-2.29,122.96,2025-05-14 14:33:34.564
/home/najo/NAS/DIP/datasets/meca_insertion/vla_dataset2_hand/left/zed_44377151_right_1747200814.560.jpg,1747200814.56,1747200814.564,0.003999948501586914,1747200814.564,22.088524606609536,35.76852460660953,-13.169726704692025,26.484699475479378,62.703551835822175,-46.79087434434922,186.51,105.63174868869844,169.7591801140761,-155.68,-2.29,122.96,2025-05-14 14:33:34.564
/home/najo/NAS/DIP/datasets/meca_insertion/vla_dataset2_hand/front/zed_41182735_right_1747200814.677.jpg,1747200814.677,1747200814.677,0.0,1747200814.677,22.07,35.75,-13.25,26.46,62.79,-46.76,186.51,105.57,170.0,-155.68,-2.29,122.96,2025-05-14 14:33:34.677
/home/najo/NAS/DIP/datasets/meca_insertion/vla_dataset2_hand/front/zed_41182735_left_1747200814.677.jpg,1747200814.677,1747200814.677,0.0,1747200814.677,22.07,35.75,-13.25,26.46,62.79,-46.76,186.51,105.57,170.0,-155.68,-2.29,122.96,2025-05-14 14:33:34.677
/home/najo/NAS/DIP/datasets/meca_insertion/vla_dataset2_hand/right/zed_49429257_left_1747200814.684.jpg,1747200814.684,1747200814.687,0.003000020980834961,1747200814.687,22.063023259682293,35.73992248620776,-13.284883701588534,26.450697679576397,62.83263563527488,-46.74527132599595,186.51077519336863,105.54209303872916,170.11162784508332,-155.67922480663137,-2.289224806631366,122.95922480663135,2025-05-14 14:33:34.687
/home/najo/NAS/DIP/datasets/meca_insertion/vla_dataset2_hand/right/zed_49429257_right_1747200814.684.jpg,1747200814.684,1747200814.687,0.003000020980834961,1747200814.687,22.063023259682293,35.73992248620776,-13.284883701588534,26.450697679576397,62.83263563527488,-46.74527132599595,186.51077519336863,105.54209303872916,170.11162784508332,-155.67922480663137,-2.289224806631366,122.95922480663135,2025-05-14 14:33:34.687
/home/najo/NAS/DIP/datasets/meca_insertion/vla_dataset2_hand/top/zed_49045152_left_1747200814.692.jpg,1747200814.692,1747200814.687,0.004999876022338867,1747200814.687,22.063023259682293,35.73992248620776,-13.284883701588534,26.450697679576397,62.83263563527488,-46.74527132599595,186.51077519336863,105.54209303872916,170.11162784508332,-155.67922480663137,-2.289224806631366,122.95922480663135,2025-05-14 14:33:34.687
/home/najo/NAS/DIP/datasets/meca_insertion/vla_dataset2_hand/top/zed_49045152_right_1747200814.692.jpg,1747200814.692,1747200814.687,0.004999876022338867,1747200814.687,22.063023259682293,35.73992248620776,-13.284883701588534,26.450697679576397,62.83263563527488,-46.74527132599595,186.51077519336863,105.54209303872916,170.11162784508332,-155.67922480663137,-2.289224806631366,122.95922480663135,2025-05-14 14:33:34.687
/home/najo/NAS/DIP/datasets/meca_insertion/vla_dataset2_hand/front/zed_41182735_right_1747200814.906.jpg,1747200814.906,1747200814.906,0.0,1747200814.906,21.95948719202728,35.59948719202728,-13.77179482790452,26.31948719202728,63.43230763587725,-46.53923078804092,186.52,105.14333337408866,171.68615369567263,-155.67,-2.28,122.95,2025-05-14 14:33:34.906
/home/najo/NAS/DIP/datasets/meca_insertion/vla_dataset2_hand/front/zed_41182735_left_1747200814.906.jpg,1747200814.906,1747200814.906,0.0,1747200814.906,21.95948719202728,35.59948719202728,-13.77179482790452,26.31948719202728,63.43230763587725,-46.53923078804092,186.52,105.14333337408866,171.68615369567263,-155.67,-2.28,122.95,2025-05-14 14:33:34.906
/home/najo/NAS/DIP/datasets/meca_insertion/vla_dataset2_hand/left/zed_44377151_right_1747200815.011.jpg,1747200815.011,1747200815.011,0.0,1747200815.011,21.932857159076075,35.570476212101426,-13.874126906636542,26.291269861092974,63.56126974756047,-46.49571431815215,186.52,105.05222228529584,172.02634896486737,-155.67,-2.2792063510084524,122.95,2025-05-14 14:33:35.011
/home/najo/NAS/DIP/datasets/meca_insertion/vla_dataset2_hand/left/zed_44377151_left_1747200815.011.jpg,1747200815.011,1747200815.011,0.0,1747200815.011,21.932857159076075,35.570476212101426,-13.874126906636542,26.291269861092974,63.56126974756047,-46.49571431815215,186.52,105.05222228529584,172.02634896486737,-155.67,-2.2792063510084524,122.95,2025-05-14 14:33:35.011
/home/najo/NAS/DIP/datasets/meca_insertion/vla_dataset2_hand/right/zed_49429257_right_1747200815.018.jpg,1747200815.018,1747200815.021,0.003000020980834961,1747200815.021,21.925714318152146,35.56095242420286,-13.908253813273085,26.282539722185955,63.60253949512094,-46.48142863630429,186.52,105.02444457059168,172.13269792973472,-155.67,-2.278412702016905,122.95,2025-05-14 14:33:35.021
/home/najo/NAS/DIP/datasets/meca_insertion/vla_dataset2_hand/right/zed_49429257_left_1747200815.018.jpg,1747200815.018,1747200815.021,0.003000020980834961,1747200815.021,21.925714318152146,35.56095242420286,-13.908253813273085,26.282539722185955,63.60253949512094,-46.48142863630429,186.52,105.02444457059168,172.13269792973472,-155.67,-2.278412702016905,122.95,2025-05-14 14:33:35.021
/home/najo/NAS/DIP/datasets/meca_insertion/vla_dataset2_hand/top/zed_49045152_left_1747200815.041.jpg,1747200815.041,1747200815.041,0.0,1747200815.041,21.91142863630429,35.54190484840572,-13.976507626546171,26.26507944437191,63.68507899024189,-46.452857272608576,186.52,104.96888914118335,172.34539585946945,-155.67,-2.27682540403381,122.95,2025-05-14 14:33:35.041
/home/najo/NAS/DIP/datasets/meca_insertion/vla_dataset2_hand/top/zed_49045152_right_1747200815.041.jpg,1747200815.041,1747200815.041,0.0,1747200815.041,21.91142863630429,35.54190484840572,-13.976507626546171,26.26507944437191,63.68507899024189,-46.452857272608576,186.52,104.96888914118335,172.34539585946945,-155.67,-2.27682540403381,122.95,2025-05-14 14:33:35.041
/home/najo/NAS/DIP/datasets/meca_insertion/vla_dataset2_hand/right/zed_49429257_right_1747200815.283.jpg,1747200815.283,1747200815.278,0.004999876022338867,1747200815.278,21.80082565034702,35.40082565034702,-14.491284573438412,26.13082565034702,64.3104589230914,-46.24165130069404,186.51,104.53788977621456,173.96844089514173,-155.67,-2.27,122.94,2025-05-14 14:33:35.278
/home/najo/NAS/DIP/datasets/meca_insertion/vla_dataset2_hand/right/zed_49429257_left_1747200815.283.jpg,1747200815.283,1747200815.278,0.004999876022338867,1747200815.278,21.80082565034702,35.40082565034702,-14.491284573438412,26.13082565034702,64.3104589230914,-46.24165130069404,186.51,104.53788977621456,173.96844089514173,-155.67,-2.27,122.94,2025-05-14 14:33:35.278
/home/najo/NAS/DIP/datasets/meca_insertion/vla_dataset2_hand/front/zed_41182735_left_1747200815.337.jpg,1747200815.337,1747200815.337,0.0,1747200815.337,21.79,35.39,-14.54,26.12,64.37,-46.22,186.51,104.5,174.12,-155.67,-2.27,122.94,2025-05-14 14:33:35.337
/home/najo/NAS/DIP/datasets/meca_insertion/vla_dataset2_hand/front/zed_41182735_right_1747200815.337.jpg,1747200815.337,1747200815.337,0.0,1747200815.337,21.79,35.39,-14.54,26.12,64.37,-46.22,186.51,104.5,174.12,-155.67,-2.27,122.94,2025-05-14 14:33:35.337
/home/najo/NAS/DIP/datasets/meca_insertion/vla_dataset2_hand/top/zed_49045152_left_1747200815.379.jpg,1747200815.379,1747200815.377,0.0019998550415039062,1747200815.377,21.76704910632277,35.35721300903253,-14.64819707019265,26.09049170812928,64.50114796386988,-46.17409821264554,186.5034426018065,104.40491772619434,174.4675421042552,-155.67,-2.266721300903253,122.94,2025-05-14 14:33:35.377
/home/najo/NAS/DIP/datasets/meca_insertion/vla_dataset2_hand/top/zed_49045152_right_1747200815.379.jpg,1747200815.379,1747200815.377,0.0019998550415039062,1747200815.377,21.76704910632277,35.35721300903253,-14.64819707019265,26.09049170812928,64.50114796386988,-46.17409821264554,186.5034426018065,104.40491772619434,174.4675421042552,-155.67,-2.266721300903253,122.94,2025-05-14 14:33:35.377
/home/najo/NAS/DIP/datasets/meca_insertion/vla_dataset2_hand/left/zed_44377151_left_1747200815.398.jpg,1747200815.398,1747200815.397,0.0009999275207519531,1747200815.397,21.75557372788281,35.34081961126115,-14.702295282838191,26.07573765013504,64.56672155495538,-46.15114745576562,186.50016392225223,104.35737687265734,174.64131212063177,-155.67,-2.2650819611261155,122.94,2025-05-14 14:33:35.397
/home/najo/NAS/DIP/datasets/meca_insertion/vla_dataset2_hand/left/zed_44377151_right_1747200815.398.jpg,1747200815.398,1747200815.397,0.0009999275207519531,1747200815.397,21.75557372788281,35.34081961126115,-14.702295282838191,26.07573765013504,64.56672155495538,-46.15114745576562,186.50016392225223,104.35737687265734,174.64131212063177,-155.67,-2.2650819611261155,122.94,2025-05-14 14:33:35.397
/home/najo/NAS/DIP/datasets/meca_insertion/vla_dataset2_hand/right/zed_49429257_right_1747200815.588.jpg,1747200815.588,1747200815.589,0.0009999275207519531,1747200815.589,21.67724770822807,35.23724770822807,-15.06376145885966,25.977247708228067,65.00926604240352,-46.00174312468421,186.48,104.03623854114034,175.8022935436667,-155.67,-2.25,122.94,2025-05-14 14:33:35.589
/home/najo/NAS/DIP/datasets/meca_insertion/vla_dataset2_hand/right/zed_49429257_left_1747200815.588.jpg,1747200815.588,1747200815.589,0.0009999275207519531,1747200815.589,21.67724770822807,35.23724770822807,-15.06376145885966,25.977247708228067,65.00926604240352,-46.00174312468421,186.48,104.03623854114034,175.8022935436667,-155.67,-2.25,122.94,2025-05-14 14:33:35.589
/home/najo/NAS/DIP/datasets/meca_insertion/vla_dataset2_hand/front/zed_41182735_left_1747200815.642.jpg,1747200815.642,1747200815.639,0.003000020980834961,1747200815.639,21.67266055527485,35.23266055527485,-15.086697223625755,25.97266055527485,65.04137611307605,-45.98798166582454,186.48,104.01330277637425,175.88944944977789,-155.67,-2.25,122.94,2025-05-14 14:33:35.639
/home/najo/NAS/DIP/datasets/meca_insertion/vla_dataset2_hand/front/zed_41182735_right_1747200815.642.jpg,1747200815.642,1747200815.639,0.003000020980834961,1747200815.639,21.67266055527485,35.23266055527485,-15.086697223625755,25.97266055527485,65.04137611307605,-45.98798166582454,186.48,104.01330277637425,175.88944944977789,-155.67,-2.25,122.94,2025-05-14 14:33:35.639
/home/najo/NAS/DIP/datasets/meca_insertion/vla_dataset2_hand/top/zed_49045152_left_1747200815.682.jpg,1747200815.682,1747200815.678,0.003999948501586914,1747200815.678,21.66360000610352,35.22200000762939,-15.12879997253418,25.962000007629392,65.09519996643067,-45.96800001144409,186.4776000022888,103.97440002441408,176.03199991226197,-155.67079999923706,-2.24920000076294,122.94,2025-05-14 14:33:35.678
/home/najo/NAS/DIP/datasets/meca_insertion/vla_dataset2_hand/top/zed_49045152_right_1747200815.682.jpg,1747200815.682,1747200815.678,0.003999948501586914,1747200815.678,21.66360000610352,35.22200000762939,-15.12879997253418,25.962000007629392,65.09519996643067,-45.96800001144409,186.4776000022888,103.97440002441408,176.03199991226197,-155.67079999923706,-2.24920000076294,122.94,2025-05-14 14:33:35.678
/home/najo/NAS/DIP/datasets/meca_insertion/vla_dataset2_hand/left/zed_44377151_right_1747200815.701.jpg,1747200815.701,1747200815.698,0.003000020980834961,1747200815.698,21.650800018310548,35.20600002288818,-15.18639991760254,25.94600002288818,65.16559989929199,-45.94400003433227,186.47280000686644,103.9232000732422,176.21599973678588,-155.67239999771118,-2.2476000022888183,122.94,2025-05-14 14:33:35.698
/home/najo/NAS/DIP/datasets/meca_insertion/vla_dataset2_hand/left/zed_44377151_left_1747200815.701.jpg,1747200815.701,1747200815.698,0.003000020980834961,1747200815.698,21.650800018310548,35.20600002288818,-15.18639991760254,25.94600002288818,65.16559989929199,-45.94400003433227,186.47280000686644,103.9232000732422,176.21599973678588,-155.67239999771118,-2.2476000022888183,122.94,2025-05-14 14:33:35.698
/home/najo/NAS/DIP/datasets/meca_insertion/vla_dataset2_hand/front/zed_41182735_right_1747200815.919.jpg,1747200815.919,1747200815.923,0.004000186920166016,1747200815.923,21.557363999205936,35.081045998808904,-15.628619337435994,25.826485332274583,65.70125533823006,-45.76472799841187,186.43368199960292,103.53313799642672,177.60673667923933,-155.68,-2.24,122.94,2025-05-14 14:33:35.923
/home/najo/NAS/DIP/datasets/meca_insertion/vla_dataset2_hand/front/zed_41182735_left_1747200815.919.jpg,1747200815.919,1747200815.923,0.004000186920166016,1747200815.923,21.557363999205936,35.081045998808904,-15.628619337435994,25.826485332274583,65.70125533823006,-45.76472799841187,186.43368199960292,103.53313799642672,177.60673667923933,-155.68,-2.24,122.94,2025-05-14 14:33:35.923
/home/najo/NAS/DIP/datasets/meca_insertion/vla_dataset2_hand/left/zed_44377151_left_1747200815.972.jpg,1747200815.972,1747200815.973,0.0010001659393310547,1747200815.973,21.544811714228995,35.062217571343496,-15.693472809816855,25.809748952305327,65.77866109558786,-45.73962342845799,186.42740585711448,103.47665271403048,177.80548119137424,-155.68,-2.24,122.94,2025-05-14 14:33:35.973
/home/najo/NAS/DIP/datasets/meca_insertion/vla_dataset2_hand/left/zed_44377151_right_1747200815.972.jpg,1747200815.972,1747200815.973,0.0010001659393310547,1747200815.973,21.544811714228995,35.062217571343496,-15.693472809816855,25.809748952305327,65.77866109558786,-45.73962342845799,186.42740585711448,103.47665271403048,177.80548119137424,-155.68,-2.24,122.94,2025-05-14 14:33:35.973
/home/najo/NAS/DIP/datasets/meca_insertion/vla_dataset2_hand/right/zed_49429257_right_1747200815.999.jpg,1747200815.999,1747200816.003,0.003999948501586914,1747200816.003,21.53728034324283,35.050920514864245,-15.732384893245374,25.79970712432377,65.82510455000255,-45.72456068648566,186.4236401716214,103.44276154459274,177.92472789865516,-155.68,-2.24,122.94,2025-05-14 14:33:36.003
/home/najo/NAS/DIP/datasets/meca_insertion/vla_dataset2_hand/right/zed_49429257_left_1747200815.999.jpg,1747200815.999,1747200816.003,0.003999948501586914,1747200816.003,21.53728034324283,35.050920514864245,-15.732384893245374,25.79970712432377,65.82510455000255,-45.72456068648566,186.4236401716214,103.44276154459274,177.92472789865516,-155.68,-2.24,122.94,2025-05-14 14:33:36.003
/home/najo/NAS/DIP/datasets/meca_insertion/vla_dataset2_hand/top/zed_49045152_right_1747200816.018.jpg,1747200816.018,1747200816.013,0.004999876022338867,1747200816.013,21.53476988624744,35.047154829371166,-15.745355587721546,25.796359848329924,65.84058570147411,-45.71953977249488,186.4223849431237,103.43146448811348,177.96447680108216,-155.68,-2.24,122.94,2025-05-14 14:33:36.013
/home/najo/NAS/DIP/datasets/meca_insertion/vla_dataset2_hand/top/zed_49045152_left_1747200816.018.jpg,1747200816.018,1747200816.013,0.004999876022338867,1747200816.013,21.53476988624744,35.047154829371166,-15.745355587721546,25.796359848329924,65.84058570147411,-45.71953977249488,186.4223849431237,103.43146448811348,177.96447680108216,-155.68,-2.24,122.94,2025-05-14 14:33:36.013
/home/najo/NAS/DIP/datasets/meca_insertion/vla_dataset2_hand/front/zed_41182735_left_1747200816.198.jpg,1747200816.198,1747200816.193,0.004999876022338867,1747200816.193,21.44269227065987,34.93692302754649,-16.133461674247147,25.69269227065987,66.31653864670065,-45.55115378443311,186.37423075688665,103.07230756886622,179.21923123830834,-155.69,-2.224230756886623,122.94,2025-05-14 14:33:36.193
/home/najo/NAS/DIP/datasets/meca_insertion/vla_dataset2_hand/front/zed_41182735_right_1747200816.198.jpg,1747200816.198,1747200816.193,0.004999876022338867,1747200816.193,21.44269227065987,34.93692302754649,-16.133461674247147,25.69269227065987,66.31653864670065,-45.55115378443311,186.37423075688665,103.07230756886622,179.21923123830834,-155.69,-2.224230756886623,122.94,2025-05-14 14:33:36.193
/home/najo/NAS/DIP/datasets/meca_insertion/vla_dataset2_hand/left/zed_44377151_left_1747200816.242.jpg,1747200816.242,1747200816.247,0.004999876022338867,1747200816.247,21.42555555948014,34.91407407930686,-16.202962942685936,25.674074079306852,66.40666664311915,-45.521111118960285,186.36703703965344,103.009259277574,179.4503703082311,-155.69074074008665,-2.219259259913357,122.94,2025-05-14 14:33:36.247
/home/najo/NAS/DIP/datasets/meca_insertion/vla_dataset2_hand/left/zed_44377151_right_1747200816.242.jpg,1747200816.242,1747200816.247,0.004999876022338867,1747200816.247,21.42555555948014,34.91407407930686,-16.202962942685936,25.674074079306852,66.40666664311915,-45.521111118960285,186.36703703965344,103.009259277574,179.4503703082311,-155.69074074008665,-2.219259259913357,122.94,2025-05-14 14:33:36.247
/home/najo/NAS/DIP/datasets/meca_insertion/vla_dataset2_hand/right/zed_49429257_left_1747200816.286.jpg,1747200816.286,1747200816.287,0.0009999275207519531,1747200816.287,21.40777779740071,34.89037039653428,-16.294814713429677,25.65037039653428,66.51333321559575,-45.48555559480141,186.35518519826715,102.92629638786995,179.73185154115546,-155.69370370043322,-2.2162962995667845,122.94,2025-05-14 14:33:36.287
/home/najo/NAS/DIP/datasets/meca_insertion/vla_dataset2_hand/right/zed_49429257_right_1747200816.286.jpg,1747200816.286,1747200816.287,0.0009999275207519531,1747200816.287,21.40777779740071,34.89037039653428,-16.294814713429677,25.65037039653428,66.51333321559575,-45.48555559480141,186.35518519826715,102.92629638786995,179.73185154115546,-155.69370370043322,-2.2162962995667845,122.94,2025-05-14 14:33:36.287
/home/najo/NAS/DIP/datasets/meca_insertion/vla_dataset2_hand/top/zed_49045152_left_1747200816.325.jpg,1747200816.325,1747200816.327,0.0019998550415039062,1747200816.327,21.390000035321275,34.8666667137617,-16.386666484173418,25.6266667137617,66.61999978807235,-45.45000007064255,186.3433333568809,102.84333349816596,180.01333277407986,-155.69666666077978,-2.2133333392202124,122.94,2025-05-14 14:33:36.327
/home/najo/NAS/DIP/datasets/meca_insertion/vla_dataset2_hand/top/zed_49045152_right_1747200816.325.jpg,1747200816.325,1747200816.327,0.0019998550415039062,1747200816.327,21.390000035321275,34.8666667137617,-16.386666484173418,25.6266667137617,66.61999978807235,-45.45000007064255,186.3433333568809,102.84333349816596,180.01333277407986,-155.69666666077978,-2.2133333392202124,122.94,2025-05-14 14:33:36.327
/home/najo/NAS/DIP/datasets/meca_insertion/vla_dataset2_hand/front/zed_41182735_left_1747200816.552.jpg,1747200816.552,1747200816.556,0.003999948501586914,1747200816.556,21.30139535915278,34.755193812203714,-16.79302320423609,25.52519381220371,67.11162784508332,-45.28279071830556,186.27759690610185,102.46317834271298,181.2914727066064,-155.71,-2.203798453050928,122.94,2025-05-14 14:33:36.556
/home/najo/NAS/DIP/datasets/meca_insertion/vla_dataset2_hand/front/zed_41182735_right_1747200816.552.jpg,1747200816.552,1747200816.556,0.003999948501586914,1747200816.556,21.30139535915278,34.755193812203714,-16.79302320423609,25.52519381220371,67.11162784508332,-45.28279071830556,186.27759690610185,102.46317834271298,181.2914727066064,-155.71,-2.203798453050928,122.94,2025-05-14 14:33:36.556
/home/najo/NAS/DIP/datasets/meca_insertion/vla_dataset2_hand/left/zed_44377151_right_1747200816.573.jpg,1747200816.573,1747200816.576,0.003000020980834961,1747200816.576,21.296744198940974,34.748992265254635,-16.81627900529511,25.51899226525464,67.13953480635413,-45.27348839788196,186.2744961326273,102.44147292839122,181.364340883258,-155.71,-2.2022480663136594,122.94,2025-05-14 14:33:36.576
/home/najo/NAS/DIP/datasets/meca_insertion/vla_dataset2_hand/left/zed_44377151_left_1747200816.573.jpg,1747200816.573,1747200816.576,0.003000020980834961,1747200816.576,21.296744198940974,34.748992265254635,-16.81627900529511,25.51899226525464,67.13953480635413,-45.27348839788196,186.2744961326273,102.44147292839122,181.364340883258,-155.71,-2.2022480663136594,122.94,2025-05-14 14:33:36.576
/home/najo/NAS/DIP/datasets/meca_insertion/vla_dataset2_hand/right/zed_49429257_left_1747200816.621.jpg,1747200816.621,1747200816.625,0.003999948501586914,1747200816.625,21.27823530511735,34.72431374015647,-16.90294112697192,25.494313740156468,67.24470582185458,-45.23843139271514,186.2601960875978,102.35901965550852,181.638627293318,-155.71196078248045,-2.1980392175195584,122.94,2025-05-14 14:33:36.625
/home/najo/NAS/DIP/datasets/meca_insertion/vla_dataset2_hand/right/zed_49429257_right_1747200816.621.jpg,1747200816.621,1747200816.625,0.003999948501586914,1747200816.625,21.27823530511735,34.72431374015647,-16.90294112697192,25.494313740156468,67.24470582185458,-45.23843139271514,186.2601960875978,102.35901965550852,181.638627293318,-155.71196078248045,-2.1980392175195584,122.94,2025-05-14 14:33:36.625
/home/najo/NAS/DIP/datasets/meca_insertion/vla_dataset2_hand/top/zed_49045152_right_1747200816.673.jpg,1747200816.673,1747200816.675,0.0019998550415039062,1747200816.675,21.24882356791073,34.68509809054763,-17.035293944401722,25.45509809054764,67.406470376491,-45.184509874503,186.23568630659227,102.23156879427982,182.0601955266129,-155.71686273868156,-2.193137261318455,122.94,2025-05-14 14:33:36.675
/home/najo/NAS/DIP/datasets/meca_insertion/vla_dataset2_hand/top/zed_49045152_left_1747200816.673.jpg,1747200816.673,1747200816.675,0.0019998550415039062,1747200816.675,21.24882356791073,34.68509809054763,-17.035293944401722,25.45509809054764,67.406470376491,-45.184509874503,186.23568630659227,102.23156879427982,182.0601955266129,-155.71686273868156,-2.193137261318455,122.94,2025-05-14 14:33:36.675
/home/najo/NAS/DIP/datasets/meca_insertion/vla_dataset2_hand/front/zed_41182735_left_1747200816.830.jpg,1747200816.83,1747200816.827,0.003000020980834961,1747200816.827,21.18849624356674,34.60849624356674,-17.30751878216631,25.38699248713348,67.74052629503284,-45.06699248713348,186.17849624356677,101.97097746140044,182.928571372232,-155.73,-2.188496243566738,122.94,2025-05-14 14:33:36.827
/home/najo/NAS/DIP/datasets/meca_insertion/vla_dataset2_hand/front/zed_41182735_right_1747200816.830.jpg,1747200816.83,1747200816.827,0.003000020980834961,1747200816.827,21.18849624356674,34.60849624356674,-17.30751878216631,25.38699248713348,67.74052629503284,-45.06699248713348,186.17849624356677,101.97097746140044,182.928571372232,-155.73,-2.188496243566738,122.94,2025-05-14 14:33:36.827
/home/najo/NAS/DIP/datasets/meca_insertion/vla_dataset2_hand/top/zed_49045152_right_1747200816.923.jpg,1747200816.923,1747200816.927,0.003999948501586914,1747200816.927,21.18097744347424,34.60097744347424,-17.345112782628807,25.37195488694848,67.79315789568032,-45.05195488694847,186.1709774434742,101.92586466084543,183.07142857398944,-155.73,-2.1809774434742395,122.94,2025-05-14 14:33:36.927
/home/najo/NAS/DIP/datasets/meca_insertion/vla_dataset2_hand/top/zed_49045152_left_1747200816.923.jpg,1747200816.923,1747200816.927,0.003999948501586914,1747200816.927,21.18097744347424,34.60097744347424,-17.345112782628807,25.37195488694848,67.79315789568032,-45.05195488694847,186.1709774434742,101.92586466084543,183.07142857398944,-155.73,-2.1809774434742395,122.94,2025-05-14 14:33:36.927
/home/najo/NAS/DIP/datasets/meca_insertion/vla_dataset2_hand/right/zed_49429257_right_1747200816.940.jpg,1747200816.94,1747200816.94,0.0,1747200816.94,21.18,34.6,-17.35,25.37,67.8,-45.05,186.17,101.92,183.09,-155.73,-2.18,122.94,2025-05-14 14:33:36.940
/home/najo/NAS/DIP/datasets/meca_insertion/vla_dataset2_hand/right/zed_49429257_left_1747200816.940.jpg,1747200816.94,1747200816.94,0.0,1747200816.94,21.18,34.6,-17.35,25.37,67.8,-45.05,186.17,101.92,183.09,-155.73,-2.18,122.94,2025-05-14 14:33:36.940
/home/najo/NAS/DIP/datasets/meca_insertion/vla_dataset2_hand/left/zed_44377151_left_1747200816.947.jpg,1747200816.947,1747200816.95,0.003000020980834961,1747200816.95,21.17333333333333,34.590833333333336,-17.383333333333333,25.361666666666668,67.84,-45.03583333333333,186.16333333333333,101.88833333333334,183.19333333333333,-155.73166666666663,-2.1791666666666667,122.94,2025-05-14 14:33:36.950
/home/najo/NAS/DIP/datasets/meca_insertion/vla_dataset2_hand/left/zed_44377151_right_1747200816.947.jpg,1747200816.947,1747200816.95,0.003000020980834961,1747200816.95,21.17333333333333,34.590833333333336,-17.383333333333333,25.361666666666668,67.84,-45.03583333333333,186.16333333333333,101.88833333333334,183.19333333333333,-155.73166666666663,-2.1791666666666667,122.94,2025-05-14 14:33:36.950
/home/najo/NAS/DIP/datasets/meca_insertion/vla_dataset2_hand/left/zed_44377151_right_1747200817.173.jpg,1747200817.173,1747200817.173,0.0,1747200817.173,21.06,34.43,-17.93,25.22,68.5,-44.81,186.05,101.36,184.89,-155.76,-2.16,122.94,2025-05-14 14:33:37.173
/home/najo/NAS/DIP/datasets/meca_insertion/vla_dataset2_hand/left/zed_44377151_left_1747200817.173.jpg,1747200817.173,1747200817.173,0.0,1747200817.173,21.06,34.43,-17.93,25.22,68.5,-44.81,186.05,101.36,184.89,-155.76,-2.16,122.94,2025-05-14 14:33:37.173
/home/najo/NAS/DIP/datasets/meca_insertion/vla_dataset2_hand/right/zed_49429257_right_1747200817.267.jpg,1747200817.267,1747200817.266,0.0009999275207519531,1747200817.266,21.06,34.43,-17.93,25.22,68.5,-44.81,186.05,101.36,184.89,-155.76,-2.16,122.94,2025-05-14 14:33:37.266
/home/najo/NAS/DIP/datasets/meca_insertion/vla_dataset2_hand/right/zed_49429257_left_1747200817.267.jpg,1747200817.267,1747200817.266,0.0009999275207519531,1747200817.266,21.06,34.43,-17.93,25.22,68.5,-44.81,186.05,101.36,184.89,-155.76,-2.16,122.94,2025-05-14 14:33:37.266
/home/najo/NAS/DIP/datasets/meca_insertion/vla_dataset2_hand/front/zed_41182735_left_1747200817.282.jpg,1747200817.282,1747200817.286,0.003999948501586914,1747200817.286,21.04448276499931,34.41103449055471,-17.99724135166965,25.20103449055471,68.58275858667034,-44.780689667220926,186.032758627777,101.29275864833036,185.10379301556503,-155.76344827444458,-2.1565517255554028,122.9417241372223,2025-05-14 14:33:37.286
/home/najo/NAS/DIP/datasets/meca_insertion/vla_dataset2_hand/front/zed_41182735_right_1747200817.282.jpg,1747200817.282,1747200817.286,0.003999948501586914,1747200817.286,21.04448276499931,34.41103449055471,-17.99724135166965,25.20103449055471,68.58275858667034,-44.780689667220926,186.032758627777,101.29275864833036,185.10379301556503,-155.76344827444458,-2.1565517255554028,122.9417241372223,2025-05-14 14:33:37.286
/home/najo/NAS/DIP/datasets/meca_insertion/vla_dataset2_hand/top/zed_49045152_left_1747200817.291.jpg,1747200817.291,1747200817.286,0.004999876022338867,1747200817.286,21.04448276499931,34.41103449055471,-17.99724135166965,25.20103449055471,68.58275858667034,-44.780689667220926,186.032758627777,101.29275864833036,185.10379301556503,-155.76344827444458,-2.1565517255554028,122.9417241372223,2025-05-14 14:33:37.286
/home/najo/NAS/DIP/datasets/meca_insertion/vla_dataset2_hand/top/zed_49045152_right_1747200817.291.jpg,1747200817.291,1747200817.286,0.004999876022338867,1747200817.286,21.04448276499931,34.41103449055471,-17.99724135166965,25.20103449055471,68.58275858667034,-44.780689667220926,186.032758627777,101.29275864833036,185.10379301556503,-155.76344827444458,-2.1565517255554028,122.9417241372223,2025-05-14 14:33:37.286
/home/najo/NAS/DIP/datasets/meca_insertion/vla_dataset2_hand/right/zed_49429257_right_1747200817.540.jpg,1747200817.54,1747200817.543,0.003000020980834961,1747200817.543,20.9153658706783,34.25170733834788,-18.565853581947646,25.051707338347875,69.27682917893893,-44.5407317413566,185.89170733834789,100.72414641805236,186.9048778105038,-155.79365853233045,-2.1363414676695758,122.95,2025-05-14 14:33:37.543
/home/najo/NAS/DIP/datasets/meca_insertion/vla_dataset2_hand/right/zed_49429257_left_1747200817.540.jpg,1747200817.54,1747200817.543,0.003000020980834961,1747200817.543,20.9153658706783,34.25170733834788,-18.565853581947646,25.051707338347875,69.27682917893893,-44.5407317413566,185.89170733834789,100.72414641805236,186.9048778105038,-155.79365853233045,-2.1363414676695758,122.95,2025-05-14 14:33:37.543
/home/najo/NAS/DIP/datasets/meca_insertion/vla_dataset2_hand/front/zed_41182735_right_1747200817.601.jpg,1747200817.601,1747200817.603,0.0019998550415039062,1747200817.603,20.9007317413566,34.23341467669575,-18.63170716389529,25.033414676695752,69.35365835787785,-44.5114634827132,185.87341467669577,100.6582928361047,187.1097556210076,-155.79731706466086,-2.13268293533915,122.95,2025-05-14 14:33:37.603
/home/najo/NAS/DIP/datasets/meca_insertion/vla_dataset2_hand/front/zed_41182735_left_1747200817.601.jpg,1747200817.601,1747200817.603,0.0019998550415039062,1747200817.603,20.9007317413566,34.23341467669575,-18.63170716389529,25.033414676695752,69.35365835787785,-44.5114634827132,185.87341467669577,100.6582928361047,187.1097556210076,-155.79731706466086,-2.13268293533915,122.95,2025-05-14 14:33:37.603
/home/najo/NAS/DIP/datasets/meca_insertion/vla_dataset2_hand/top/zed_49045152_left_1747200817.647.jpg,1747200817.647,1747200817.647,0.0,1747200817.647,20.89,34.22,-18.68,25.02,69.41,-44.49,185.86,100.61,187.26,-155.8,-2.13,122.95,2025-05-14 14:33:37.647
/home/najo/NAS/DIP/datasets/meca_insertion/vla_dataset2_hand/top/zed_49045152_right_1747200817.647.jpg,1747200817.647,1747200817.647,0.0,1747200817.647,20.89,34.22,-18.68,25.02,69.41,-44.49,185.86,100.61,187.26,-155.8,-2.13,122.95,2025-05-14 14:33:37.647
/home/najo/NAS/DIP/datasets/meca_insertion/vla_dataset2_hand/left/zed_44377151_left_1747200817.670.jpg,1747200817.67,1747200817.667,0.003000020980834961,1747200817.667,20.87727272727273,34.20363636363636,-18.74,25.003636363636364,69.48454545454545,-44.46636363636364,185.84181818181816,100.54818181818182,187.4490909090909,-155.80363636363637,-2.1263636363636365,122.95,2025-05-14 14:33:37.667
/home/najo/NAS/DIP/datasets/meca_insertion/vla_dataset2_hand/left/zed_44377151_right_1747200817.670.jpg,1747200817.67,1747200817.667,0.003000020980834961,1747200817.667,20.87727272727273,34.20363636363636,-18.74,25.003636363636364,69.48454545454545,-44.46636363636364,185.84181818181816,100.54818181818182,187.4490909090909,-155.80363636363637,-2.1263636363636365,122.95,2025-05-14 14:33:37.667
/home/najo/NAS/DIP/datasets/meca_insertion/vla_dataset2_hand/right/zed_49429257_left_1747200817.866.jpg,1747200817.866,1747200817.867,0.0010001659393310547,1747200817.867,20.78,34.08,-19.19,24.88,70.04,-44.28,185.71,100.09,188.87,-155.84,-2.11,122.96,2025-05-14 14:33:37.867
/home/najo/NAS/DIP/datasets/meca_insertion/vla_dataset2_hand/right/zed_49429257_right_1747200817.866.jpg,1747200817.866,1747200817.867,0.0010001659393310547,1747200817.867,20.78,34.08,-19.19,24.88,70.04,-44.28,185.71,100.09,188.87,-155.84,-2.11,122.96,2025-05-14 14:33:37.867
/home/najo/NAS/DIP/datasets/meca_insertion/vla_dataset2_hand/left/zed_44377151_left_1747200817.917.jpg,1747200817.917,1747200817.917,0.0,1747200817.917,20.78,34.08,-19.19,24.88,70.04,-44.28,185.71,100.09,188.87,-155.84,-2.11,122.96,2025-05-14 14:33:37.917
/home/najo/NAS/DIP/datasets/meca_insertion/vla_dataset2_hand/left/zed_44377151_right_1747200817.917.jpg,1747200817.917,1747200817.917,0.0,1747200817.917,20.78,34.08,-19.19,24.88,70.04,-44.28,185.71,100.09,188.87,-155.84,-2.11,122.96,2025-05-14 14:33:37.917
/home/najo/NAS/DIP/datasets/meca_insertion/vla_dataset2_hand/front/zed_41182735_left_1747200817.958.jpg,1747200817.958,1747200817.957,0.0009999275207519531,1747200817.957,20.78,34.08,-19.19,24.88,70.04,-44.28,185.71,100.09,188.87,-155.84,-2.11,122.96,2025-05-14 14:33:37.957
/home/najo/NAS/DIP/datasets/meca_insertion/vla_dataset2_hand/front/zed_41182735_right_1747200817.958.jpg,1747200817.958,1747200817.957,0.0009999275207519531,1747200817.957,20.78,34.08,-19.19,24.88,70.04,-44.28,185.71,100.09,188.87,-155.84,-2.11,122.96,2025-05-14 14:33:37.957
/home/najo/NAS/DIP/datasets/meca_insertion/vla_dataset2_hand/top/zed_49045152_left_1747200818.003.jpg,1747200818.003,1747200818.006,0.003000020980834961,1747200818.006,20.753770512306897,34.04393445442198,-19.317868752503884,24.84721314038362,70.194098240197,-44.22754102461379,185.6706557684604,99.95557387557284,189.27327837328147,-155.84983605788491,-2.103442628076724,122.96,2025-05-14 14:33:38.006
/home/najo/NAS/DIP/datasets/meca_insertion/vla_dataset2_hand/top/zed_49045152_right_1747200818.003.jpg,1747200818.003,1747200818.006,0.003000020980834961,1747200818.006,20.753770512306897,34.04393445442198,-19.317868752503884,24.84721314038362,70.194098240197,-44.22754102461379,185.6706557684604,99.95557387557284,189.27327837328147,-155.84983605788491,-2.103442628076724,122.96,2025-05-14 14:33:38.006
/home/najo/NAS/DIP/datasets/meca_insertion/vla_dataset2_hand/right/zed_49429257_left_1747200818.206.jpg,1747200818.206,1747200818.206,0.0,1747200818.206,20.648484849579518,33.90848484957952,-19.796818176892177,24.718484849579514,70.77833332731265,-44.02696969915903,185.51696969915903,99.4531818231078,190.7712121058868,-155.88075757521025,-2.0792424247897583,122.97,2025-05-14 14:33:38.206
/home/najo/NAS/DIP/datasets/meca_insertion/vla_dataset2_hand/right/zed_49429257_right_1747200818.206.jpg,1747200818.206,1747200818.206,0.0,1747200818.206,20.648484849579518,33.90848484957952,-19.796818176892177,24.718484849579514,70.77833332731265,-44.02696969915903,185.51696969915903,99.4531818231078,190.7712121058868,-155.88075757521025,-2.0792424247897583,122.97,2025-05-14 14:33:38.206
/home/najo/NAS/DIP/datasets/meca_insertion/vla_dataset2_hand/left/zed_44377151_right_1747200818.281.jpg,1747200818.281,1747200818.276,0.004999876022338867,1747200818.276,20.63787879663613,33.89787879663613,-19.84454541513741,24.70787879663613,70.83666661850128,-44.00575759327226,185.49575759327223,99.40545458486258,190.91969684709417,-155.88606060168192,-2.073939398318065,122.97,2025-05-14 14:33:38.276
/home/najo/NAS/DIP/datasets/meca_insertion/vla_dataset2_hand/left/zed_44377151_left_1747200818.281.jpg,1747200818.281,1747200818.276,0.004999876022338867,1747200818.276,20.63787879663613,33.89787879663613,-19.84454541513741,24.70787879663613,70.83666661850128,-44.00575759327226,185.49575759327223,99.40545458486258,190.91969684709417,-155.88606060168192,-2.073939398318065,122.97,2025-05-14 14:33:38.276
/home/najo/NAS/DIP/datasets/meca_insertion/vla_dataset2_hand/top/zed_49045152_right_1747200818.305.jpg,1747200818.305,1747200818.306,0.0009999275207519531,1747200818.306,20.63333334537468,33.89333334537468,-19.864999945813945,24.70333334537468,70.86166660043926,-43.99666669074936,185.48666669074936,99.38500005418604,190.9833331647545,-155.88833332731264,-2.071666672687339,122.97,2025-05-14 14:33:38.306
/home/najo/NAS/DIP/datasets/meca_insertion/vla_dataset2_hand/top/zed_49045152_left_1747200818.305.jpg,1747200818.305,1747200818.306,0.0009999275207519531,1747200818.306,20.63333334537468,33.89333334537468,-19.864999945813945,24.70333334537468,70.86166660043926,-43.99666669074936,185.48666669074936,99.38500005418604,190.9833331647545,-155.88833332731264,-2.071666672687339,122.97,2025-05-14 14:33:38.306
/home/najo/NAS/DIP/datasets/meca_insertion/vla_dataset2_hand/front/zed_41182735_right_1747200818.328.jpg,1747200818.328,1747200818.328,0.0,1747200818.328,20.63,33.89,-19.88,24.7,70.88,-43.99,185.48,99.37,191.03,-155.89,-2.07,122.97,2025-05-14 14:33:38.328
/home/najo/NAS/DIP/datasets/meca_insertion/vla_dataset2_hand/front/zed_41182735_left_1747200818.328.jpg,1747200818.328,1747200818.328,0.0,1747200818.328,20.63,33.89,-19.88,24.7,70.88,-43.99,185.48,99.37,191.03,-155.89,-2.07,122.97,2025-05-14 14:33:38.328
/home/najo/NAS/DIP/datasets/meca_insertion/vla_dataset2_hand/right/zed_49429257_right_1747200818.494.jpg,1747200818.494,1747200818.493,0.0009999275207519531,1747200818.493,20.53333333333333,33.765,-20.315,24.58333333333333,71.4075,-43.810833333333335,185.33083333333332,98.90083333333334,192.3975,-155.92416666666665,-2.0458333333333334,122.98,2025-05-14 14:33:38.493
/home/najo/NAS/DIP/datasets/meca_insertion/vla_dataset2_hand/right/zed_49429257_left_1747200818.494.jpg,1747200818.494,1747200818.493,0.0009999275207519531,1747200818.493,20.53333333333333,33.765,-20.315,24.58333333333333,71.4075,-43.810833333333335,185.33083333333332,98.90083333333334,192.3975,-155.92416666666665,-2.0458333333333334,122.98,2025-05-14 14:33:38.493
/home/najo/NAS/DIP/datasets/meca_insertion/vla_dataset2_hand/front/zed_41182735_right_1747200818.575.jpg,1747200818.575,1747200818.573,0.002000093460083008,1747200818.573,20.506045202534512,33.724350289335014,-20.44033895839395,24.55435028933501,71.55485872692594,-43.76152543400252,185.282090405069,98.76796612840656,192.79327675944785,-155.932259884266,-2.038870057867003,122.9805649710665,2025-05-14 14:33:38.573
/home/najo/NAS/DIP/datasets/meca_insertion/vla_dataset2_hand/front/zed_41182735_left_1747200818.575.jpg,1747200818.575,1747200818.573,0.002000093460083008,1747200818.573,20.506045202534512,33.724350289335014,-20.44033895839395,24.55435028933501,71.55485872692594,-43.76152543400252,185.282090405069,98.76796612840656,192.79327675944785,-155.932259884266,-2.038870057867003,122.9805649710665,2025-05-14 14:33:38.573
/home/najo/NAS/DIP/datasets/meca_insertion/vla_dataset2_hand/left/zed_44377151_right_1747200818.623.jpg,1747200818.623,1747200818.623,0.0,1747200818.623,20.48627121520706,33.696101736010085,-20.54203375036369,24.526101736010087,71.67915236155562,-43.71915260401513,185.2425424304141,98.65779677043936,193.10966055668703,-155.94355930559598,-2.0332203472020174,122.983389826399,2025-05-14 14:33:38.623
/home/najo/NAS/DIP/datasets/meca_insertion/vla_dataset2_hand/left/zed_44377151_left_1747200818.623.jpg,1747200818.623,1747200818.623,0.0,1747200818.623,20.48627121520706,33.696101736010085,-20.54203375036369,24.526101736010087,71.67915236155562,-43.71915260401513,185.2425424304141,98.65779677043936,193.10966055668703,-155.94355930559598,-2.0332203472020174,122.983389826399,2025-05-14 14:33:38.623
/home/najo/NAS/DIP/datasets/meca_insertion/vla_dataset2_hand/top/zed_49045152_left_1747200818.630.jpg,1747200818.63,1747200818.633,0.0029997825622558594,1747200818.633,20.48231641774157,33.6904520253451,-20.56237270875764,24.5204520253451,71.70401108848155,-43.710678038017655,185.23463283548315,98.6357628988459,193.1729373161349,-155.94581918986196,-2.0320904050690203,122.98395479746549,2025-05-14 14:33:38.633
/home/najo/NAS/DIP/datasets/meca_insertion/vla_dataset2_hand/top/zed_49045152_right_1747200818.630.jpg,1747200818.63,1747200818.633,0.0029997825622558594,1747200818.633,20.48231641774157,33.6904520253451,-20.56237270875764,24.5204520253451,71.70401108848155,-43.710678038017655,185.23463283548315,98.6357628988459,193.1729373161349,-155.94581918986196,-2.0320904050690203,122.98395479746549,2025-05-14 14:33:38.633
/home/najo/NAS/DIP/datasets/meca_insertion/vla_dataset2_hand/right/zed_49429257_left_1747200818.817.jpg,1747200818.817,1747200818.82,0.003000020980834961,1747200818.82,20.42378379945776,33.613783799457764,-20.844864802168964,24.44378379945776,72.05108100271121,-43.59297299909626,185.12297299909628,98.32972979765027,194.0554052068684,-155.97540540018073,-2.0145945998192527,122.99,2025-05-14 14:33:38.820
/home/najo/NAS/DIP/datasets/meca_insertion/vla_dataset2_hand/right/zed_49429257_right_1747200818.817.jpg,1747200818.817,1747200818.82,0.003000020980834961,1747200818.82,20.42378379945776,33.613783799457764,-20.844864802168964,24.44378379945776,72.05108100271121,-43.59297299909626,185.12297299909628,98.32972979765027,194.0554052068684,-155.97540540018073,-2.0145945998192527,122.99,2025-05-14 14:33:38.820
/home/najo/NAS/DIP/datasets/meca_insertion/vla_dataset2_hand/left/zed_44377151_left_1747200818.859.jpg,1747200818.859,1747200818.86,0.0009999275207519531,1747200818.86,20.41567569918664,33.60567569918664,-20.877297203253445,24.43567569918664,72.09162150406681,-43.5794594986444,185.1094594986444,98.29459469647544,194.15810781030257,-155.9781081002711,-2.0118918997288797,122.99,2025-05-14 14:33:38.860
/home/najo/NAS/DIP/datasets/meca_insertion/vla_dataset2_hand/left/zed_44377151_right_1747200818.859.jpg,1747200818.859,1747200818.86,0.0009999275207519531,1747200818.86,20.41567569918664,33.60567569918664,-20.877297203253445,24.43567569918664,72.09162150406681,-43.5794594986444,185.1094594986444,98.29459469647544,194.15810781030257,-155.9781081002711,-2.0118918997288797,122.99,2025-05-14 14:33:38.860
/home/najo/NAS/DIP/datasets/meca_insertion/vla_dataset2_hand/top/zed_49045152_left_1747200818.907.jpg,1747200818.907,1747200818.908,0.0009999275207519531,1747200818.908,20.401071436174064,33.58750001064369,-20.9428571063645,24.41750001064369,72.17357138295563,-43.55035715958294,185.08214287234813,98.22178575533994,194.36749988291945,-155.98357142553036,-2.0082142872348125,122.99178571276518,2025-05-14 14:33:38.908
/home/najo/NAS/DIP/datasets/meca_insertion/vla_dataset2_hand/top/zed_49045152_right_1747200818.907.jpg,1747200818.907,1747200818.908,0.0009999275207519531,1747200818.908,20.401071436174064,33.58750001064369,-20.9428571063645,24.41750001064369,72.17357138295563,-43.55035715958294,185.08214287234813,98.22178575533994,194.36749988291945,-155.98357142553036,-2.0082142872348125,122.99178571276518,2025-05-14 14:33:38.908
/home/najo/NAS/DIP/datasets/meca_insertion/vla_dataset2_hand/front/zed_41182735_right_1747200818.966.jpg,1747200818.966,1747200818.968,0.0019998550415039062,1747200818.968,20.37428574469625,33.55000004257475,-21.071428425458,24.38000004257475,72.3342855318225,-43.49142863833176,185.0285714893925,98.07714302135976,194.77999953167773,-155.9942857021215,-2.00285714893925,122.99714285106074,2025-05-14 14:33:38.968
/home/najo/NAS/DIP/datasets/meca_insertion/vla_dataset2_hand/front/zed_41182735_left_1747200818.966.jpg,1747200818.966,1747200818.968,0.0019998550415039062,1747200818.968,20.37428574469625,33.55000004257475,-21.071428425458,24.38000004257475,72.3342855318225,-43.49142863833176,185.0285714893925,98.07714302135976,194.77999953167773,-155.9942857021215,-2.00285714893925,122.99714285106074,2025-05-14 14:33:38.968
/home/najo/NAS/DIP/datasets/meca_insertion/vla_dataset2_hand/left/zed_44377151_left_1747200819.192.jpg,1747200819.192,1747200819.193,0.0010001659393310547,1747200819.193,20.37741938758716,33.55741938758716,-21.04032244965137,24.38741938758716,72.29870952459326,-43.50903231264526,185.03903231264525,98.11548401287769,194.6867738114832,-155.9883870749419,-2.005806462529052,122.99419353747096,2025-05-14 14:33:39.193
/home/najo/NAS/DIP/datasets/meca_insertion/vla_dataset2_hand/left/zed_44377151_right_1747200819.192.jpg,1747200819.192,1747200819.193,0.0010001659393310547,1747200819.193,20.37741938758716,33.55741938758716,-21.04032244965137,24.38741938758716,72.29870952459326,-43.50903231264526,185.03903231264525,98.11548401287769,194.6867738114832,-155.9883870749419,-2.005806462529052,122.99419353747096,2025-05-14 14:33:39.193
/home/najo/NAS/DIP/datasets/meca_insertion/vla_dataset2_hand/right/zed_49429257_right_1747200819.230.jpg,1747200819.23,1747200819.233,0.003000020980834961,1747200819.233,20.385161317116765,33.56516131711677,-21.009354731532937,24.395161317116763,72.26258052012176,-43.52193552852794,185.05193552852796,98.14903237417263,194.5964513003044,-155.9832257885888,-2.008387105705588,122.9916128942944,2025-05-14 14:33:39.233
/home/najo/NAS/DIP/datasets/meca_insertion/vla_dataset2_hand/right/zed_49429257_left_1747200819.230.jpg,1747200819.23,1747200819.233,0.003000020980834961,1747200819.233,20.385161317116765,33.56516131711677,-21.009354731532937,24.395161317116763,72.26258052012176,-43.52193552852794,185.05193552852796,98.14903237417263,194.5964513003044,-155.9832257885888,-2.008387105705588,122.9916128942944,2025-05-14 14:33:39.233
/home/najo/NAS/DIP/datasets/meca_insertion/vla_dataset2_hand/top/zed_49045152_right_1747200819.240.jpg,1747200819.24,1747200819.243,0.003000020980834961,1747200819.243,20.38709679949917,33.56709679949917,-21.00161280200333,24.397096799499167,72.25354826900389,-43.52516133249861,185.0551613324986,98.1574194644964,194.5738706725097,-155.98193546700054,-2.009032266499722,122.99096773350028,2025-05-14 14:33:39.243
/home/najo/NAS/DIP/datasets/meca_insertion/vla_dataset2_hand/top/zed_49045152_left_1747200819.240.jpg,1747200819.24,1747200819.243,0.003000020980834961,1747200819.243,20.38709679949917,33.56709679949917,-21.00161280200333,24.397096799499167,72.25354826900389,-43.52516133249861,185.0551613324986,98.1574194644964,194.5738706725097,-155.98193546700054,-2.009032266499722,122.99096773350028,2025-05-14 14:33:39.243
/home/najo/NAS/DIP/datasets/meca_insertion/vla_dataset2_hand/front/zed_41182735_right_1747200819.264.jpg,1747200819.264,1747200819.268,0.003999948501586914,1747200819.268,20.39676690394968,33.57827066038294,-20.958421114901505,24.40902253859957,72.2009023327352,-43.542781929682725,185.0720300514661,98.20383451974838,194.44375958827123,-155.97699248713346,-2.0107518782166305,122.98924812178336,2025-05-14 14:33:39.268
/home/najo/NAS/DIP/datasets/meca_insertion/vla_dataset2_hand/front/zed_41182735_left_1747200819.264.jpg,1747200819.264,1747200819.268,0.003999948501586914,1747200819.268,20.39676690394968,33.57827066038294,-20.958421114901505,24.40902253859957,72.2009023327352,-43.542781929682725,185.0720300514661,98.20383451974838,194.44375958827123,-155.97699248713346,-2.0107518782166305,122.98924812178336,2025-05-14 14:33:39.268
/home/najo/NAS/DIP/datasets/meca_insertion/vla_dataset2_hand/right/zed_49429257_left_1747200819.541.jpg,1747200819.541,1747200819.536,0.004999876022338867,1747200819.536,20.52046511047656,33.73162790052951,-20.37465118793491,24.57162790052951,71.4853488675113,-43.78860464084722,185.2862790607413,98.82883718222396,192.6616279836988,-155.9253488397882,-2.0311627900529508,122.9776744198941,2025-05-14 14:33:39.536
/home/najo/NAS/DIP/datasets/meca_insertion/vla_dataset2_hand/right/zed_49429257_right_1747200819.541.jpg,1747200819.541,1747200819.536,0.004999876022338867,1747200819.536,20.52046511047656,33.73162790052951,-20.37465118793491,24.57162790052951,71.4853488675113,-43.78860464084722,185.2862790607413,98.82883718222396,192.6616279836988,-155.9253488397882,-2.0311627900529508,122.9776744198941,2025-05-14 14:33:39.536
/home/najo/NAS/DIP/datasets/meca_insertion/vla_dataset2_hand/front/zed_41182735_left_1747200819.548.jpg,1747200819.548,1747200819.546,0.002000093460083008,1747200819.546,20.52569766571484,33.73744185079427,-20.35197678190236,24.577441850794266,71.45802330126695,-43.79790696127083,185.294418591112,98.85325577333592,192.59244197554824,-155.9230232596823,-2.0317441850794267,122.97651162984116,2025-05-14 14:33:39.546
/home/najo/NAS/DIP/datasets/meca_insertion/vla_dataset2_hand/front/zed_41182735_right_1747200819.548.jpg,1747200819.548,1747200819.546,0.002000093460083008,1747200819.546,20.52569766571484,33.73744185079427,-20.35197678190236,24.577441850794266,71.45802330126695,-43.79790696127083,185.294418591112,98.85325577333592,192.59244197554824,-155.9230232596823,-2.0317441850794267,122.97651162984116,2025-05-14 14:33:39.546
/home/najo/NAS/DIP/datasets/meca_insertion/vla_dataset2_hand/left/zed_44377151_left_1747200819.574.jpg,1747200819.574,1747200819.576,0.002000093460083008,1747200819.576,20.541395331429683,33.75488370158853,-20.28395356380472,24.59488370158853,71.37604660253389,-43.825813922541656,185.31883718222397,98.92651154667185,192.38488395109647,-155.91604651936458,-2.033488370158853,122.9730232596823,2025-05-14 14:33:39.576
/home/najo/NAS/DIP/datasets/meca_insertion/vla_dataset2_hand/left/zed_44377151_right_1747200819.574.jpg,1747200819.574,1747200819.576,0.002000093460083008,1747200819.576,20.541395331429683,33.75488370158853,-20.28395356380472,24.59488370158853,71.37604660253389,-43.825813922541656,185.31883718222397,98.92651154667185,192.38488395109647,-155.91604651936458,-2.033488370158853,122.9730232596823,2025-05-14 14:33:39.576
/home/najo/NAS/DIP/datasets/meca_insertion/vla_dataset2_hand/top/zed_49045152_left_1747200819.612.jpg,1747200819.612,1747200819.616,0.003999948501586914,1747200819.616,20.5623255523828,33.778139502647555,-20.193255939674533,24.618139502647555,71.26674433755649,-43.86302320423609,185.35139530370657,99.02418591111974,192.1081399184941,-155.90674419894097,-2.0358139502647554,122.96837209947049,2025-05-14 14:33:39.616
/home/najo/NAS/DIP/datasets/meca_insertion/vla_dataset2_hand/top/zed_49045152_right_1747200819.612.jpg,1747200819.612,1747200819.616,0.003999948501586914,1747200819.616,20.5623255523828,33.778139502647555,-20.193255939674533,24.618139502647555,71.26674433755649,-43.86302320423609,185.35139530370657,99.02418591111974,192.1081399184941,-155.90674419894097,-2.0358139502647554,122.96837209947049,2025-05-14 14:33:39.616
/home/najo/NAS/DIP/datasets/meca_insertion/vla_dataset2_hand/front/zed_41182735_left_1747200819.805.jpg,1747200819.805,1747200819.809,0.003999948501586914,1747200819.809,20.64,33.87,-19.84423076658559,24.711923077804805,70.84230768878078,-44.00384615560961,185.4719230778048,99.3957692334144,191.0426922997568,-155.87,-2.05,122.96,2025-05-14 14:33:39.809
/home/najo/NAS/DIP/datasets/meca_insertion/vla_dataset2_hand/front/zed_41182735_right_1747200819.805.jpg,1747200819.805,1747200819.809,0.003999948501586914,1747200819.809,20.64,33.87,-19.84423076658559,24.711923077804805,70.84230768878078,-44.00384615560961,185.4719230778048,99.3957692334144,191.0426922997568,-155.87,-2.05,122.96,2025-05-14 14:33:39.809
/home/najo/NAS/DIP/datasets/meca_insertion/vla_dataset2_hand/right/zed_49429257_right_1747200819.863.jpg,1747200819.863,1747200819.859,0.003999948501586914,1747200819.859,20.64,33.87,-19.82980768304956,24.71673077231681,70.82307691073275,-44.01346154463363,185.4767307723168,99.41019231695044,190.99942304914867,-155.87,-2.05,122.96,2025-05-14 14:33:39.859
/home/najo/NAS/DIP/datasets/meca_insertion/vla_dataset2_hand/right/zed_49429257_left_1747200819.863.jpg,1747200819.863,1747200819.859,0.003999948501586914,1747200819.859,20.64,33.87,-19.82980768304956,24.71673077231681,70.82307691073275,-44.01346154463363,185.4767307723168,99.41019231695044,190.99942304914867,-155.87,-2.05,122.96,2025-05-14 14:33:39.859
/home/najo/NAS/DIP/datasets/meca_insertion/vla_dataset2_hand/top/zed_49045152_right_1747200819.885.jpg,1747200819.885,1747200819.889,0.003999948501586914,1747200819.889,20.64,33.87,-19.821153832927944,24.719615389024018,70.81153844390393,-44.01923077804804,185.479615389024,99.41884616707206,190.97346149878385,-155.87,-2.05,122.96,2025-05-14 14:33:39.889
/home/najo/NAS/DIP/datasets/meca_insertion/vla_dataset2_hand/top/zed_49045152_left_1747200819.885.jpg,1747200819.885,1747200819.889,0.003999948501586914,1747200819.889,20.64,33.87,-19.821153832927944,24.719615389024018,70.81153844390393,-44.01923077804804,185.479615389024,99.41884616707206,190.97346149878385,-155.87,-2.05,122.96,2025-05-14 14:33:39.889
/home/najo/NAS/DIP/datasets/meca_insertion/vla_dataset2_hand/left/zed_44377151_right_1747200819.912.jpg,1747200819.912,1747200819.913,0.0010001659393310547,1747200819.913,20.65353396923507,33.88654151795397,-19.76135279998136,24.73503774359452,70.73781883074629,-44.04406038975124,185.4980452923134,99.48165474873755,190.7895470768657,-155.86548867692164,-2.0515037743594524,122.95849622564054,2025-05-14 14:33:39.913
/home/najo/NAS/DIP/datasets/meca_insertion/vla_dataset2_hand/left/zed_44377151_left_1747200819.912.jpg,1747200819.912,1747200819.913,0.0010001659393310547,1747200819.913,20.65353396923507,33.88654151795397,-19.76135279998136,24.73503774359452,70.73781883074629,-44.04406038975124,185.4980452923134,99.48165474873755,190.7895470768657,-155.86548867692164,-2.0515037743594524,122.95849622564054,2025-05-14 14:33:39.913
/home/najo/NAS/DIP/datasets/meca_insertion/vla_dataset2_hand/top/zed_49045152_right_1747200820.156.jpg,1747200820.156,1747200820.157,0.0010001659393310547,1747200820.157,20.77243902391747,34.024878047834946,-19.235365856495168,24.874878047834944,70.09292683257769,-44.26487804783494,185.65487804783496,100.02707316742232,189.1760975694855,-155.82,-2.07,122.94,2025-05-14 14:33:40.157
/home/najo/NAS/DIP/datasets/meca_insertion/vla_dataset2_hand/top/zed_49045152_left_1747200820.156.jpg,1747200820.156,1747200820.157,0.0010001659393310547,1747200820.157,20.77243902391747,34.024878047834946,-19.235365856495168,24.874878047834944,70.09292683257769,-44.26487804783494,185.65487804783496,100.02707316742232,189.1760975694855,-155.82,-2.07,122.94,2025-05-14 14:33:40.157
/home/najo/NAS/DIP/datasets/meca_insertion/vla_dataset2_hand/left/zed_44377151_left_1747200820.221.jpg,1747200820.221,1747200820.217,0.003999948501586914,1747200820.217,20.777317071752417,34.03463414350483,-19.2060975694855,24.884634143504837,70.05878049773308,-44.274634143504834,185.66463414350483,100.06121950226692,189.0882927084565,-155.82,-2.07,122.94,2025-05-14 14:33:40.217
/home/najo/NAS/DIP/datasets/meca_insertion/vla_dataset2_hand/left/zed_44377151_right_1747200820.221.jpg,1747200820.221,1747200820.217,0.003999948501586914,1747200820.217,20.777317071752417,34.03463414350483,-19.2060975694855,24.884634143504837,70.05878049773308,-44.274634143504834,185.66463414350483,100.06121950226692,189.0882927084565,-155.82,-2.07,122.94,2025-05-14 14:33:40.217
/home/najo/NAS/DIP/datasets/meca_insertion/vla_dataset2_hand/right/zed_49429257_left_1747200820.231.jpg,1747200820.231,1747200820.227,0.003999948501586914,1747200820.227,20.778130079724907,34.03626015944982,-19.20121952165056,24.88626015944981,70.05308944192565,-44.27626015944981,185.66626015944985,100.06691055807435,189.07365856495167,-155.82,-2.07,122.94,2025-05-14 14:33:40.227
/home/najo/NAS/DIP/datasets/meca_insertion/vla_dataset2_hand/right/zed_49429257_right_1747200820.231.jpg,1747200820.231,1747200820.227,0.003999948501586914,1747200820.227,20.778130079724907,34.03626015944982,-19.20121952165056,24.88626015944981,70.05308944192565,-44.27626015944981,185.66626015944985,100.06691055807435,189.07365856495167,-155.82,-2.07,122.94,2025-05-14 14:33:40.227
/home/najo/NAS/DIP/datasets/meca_insertion/vla_dataset2_hand/front/zed_41182735_left_1747200820.243.jpg,1747200820.243,1747200820.247,0.003999948501586914,1747200820.247,20.77975609566989,34.039512191339774,-19.19146342598067,24.88951219133978,70.04170733031079,-44.27951219133978,185.66951219133975,100.07829266968922,189.044390277942,-155.82,-2.07,122.94,2025-05-14 14:33:40.247
/home/najo/NAS/DIP/datasets/meca_insertion/vla_dataset2_hand/front/zed_41182735_right_1747200820.243.jpg,1747200820.243,1747200820.247,0.003999948501586914,1747200820.247,20.77975609566989,34.039512191339774,-19.19146342598067,24.88951219133978,70.04170733031079,-44.27951219133978,185.66951219133975,100.07829266968922,189.044390277942,-155.82,-2.07,122.94,2025-05-14 14:33:40.247
/home/najo/NAS/DIP/datasets/meca_insertion/vla_dataset2_hand/top/zed_49045152_right_1747200820.466.jpg,1747200820.466,1747200820.464,0.002000093460083008,1747200820.464,20.89165465997036,34.16956832496295,-18.687554030133377,25.021654659970363,69.42589937016301,-44.49330931994072,185.80956832496292,100.5903596348592,187.49474842540755,-155.78208633500742,-2.08,122.93,2025-05-14 14:33:40.464
/home/najo/NAS/DIP/datasets/meca_insertion/vla_dataset2_hand/top/zed_49045152_left_1747200820.466.jpg,1747200820.466,1747200820.464,0.002000093460083008,1747200820.464,20.89165465997036,34.16956832496295,-18.687554030133377,25.021654659970363,69.42589937016301,-44.49330931994072,185.80956832496292,100.5903596348592,187.49474842540755,-155.78208633500742,-2.08,122.93,2025-05-14 14:33:40.464
/home/najo/NAS/DIP/datasets/meca_insertion/vla_dataset2_hand/left/zed_44377151_right_1747200820.501.jpg,1747200820.501,1747200820.503,0.002000093460083008,1747200820.503,20.90439560209232,34.1854945026154,-18.628571439799934,25.03604395287694,69.35362638744607,-44.51879120418464,185.82549450261536,100.65142856020006,187.3140659686152,-155.77835164921538,-2.08054945026154,122.92945054973846,2025-05-14 14:33:40.503
/home/najo/NAS/DIP/datasets/meca_insertion/vla_dataset2_hand/left/zed_44377151_left_1747200820.501.jpg,1747200820.501,1747200820.503,0.002000093460083008,1747200820.503,20.90439560209232,34.1854945026154,-18.628571439799934,25.03604395287694,69.35362638744607,-44.51879120418464,185.82549450261536,100.65142856020006,187.3140659686152,-155.77835164921538,-2.08054945026154,122.92945054973846,2025-05-14 14:33:40.503
/home/najo/NAS/DIP/datasets/meca_insertion/vla_dataset2_hand/front/zed_41182735_left_1747200820.549.jpg,1747200820.549,1747200820.553,0.003999948501586914,1747200820.553,20.92637361255392,34.212967015692406,-18.521428638799627,25.066263717261645,69.22175832467646,-44.56274722510784,185.8529670156924,100.75857136120035,186.9843958116912,-155.77010989529228,-2.0832967015692403,122.92670329843077,2025-05-14 14:33:40.553
/home/najo/NAS/DIP/datasets/meca_insertion/vla_dataset2_hand/front/zed_41182735_right_1747200820.549.jpg,1747200820.549,1747200820.553,0.003999948501586914,1747200820.553,20.92637361255392,34.212967015692406,-18.521428638799627,25.066263717261645,69.22175832467646,-44.56274722510784,185.8529670156924,100.75857136120035,186.9843958116912,-155.77010989529228,-2.0832967015692403,122.92670329843077,2025-05-14 14:33:40.553
/home/najo/NAS/DIP/datasets/meca_insertion/vla_dataset2_hand/right/zed_49429257_right_1747200820.612.jpg,1747200820.612,1747200820.613,0.0009999275207519531,1747200820.613,20.95274722510785,34.245934031384806,-18.39285727759925,25.10252743452329,69.06351664935293,-44.61549445021569,185.8859340313848,100.88714272240074,186.58879162338232,-155.76021979058456,-2.0865934031384805,122.92340659686153,2025-05-14 14:33:40.613
/home/najo/NAS/DIP/datasets/meca_insertion/vla_dataset2_hand/right/zed_49429257_left_1747200820.612.jpg,1747200820.612,1747200820.613,0.0009999275207519531,1747200820.613,20.95274722510785,34.245934031384806,-18.39285727759925,25.10252743452329,69.06351664935293,-44.61549445021569,185.8859340313848,100.88714272240074,186.58879162338232,-155.76021979058456,-2.0865934031384805,122.92340659686153,2025-05-14 14:33:40.613
/home/najo/NAS/DIP/datasets/meca_insertion/vla_dataset2_hand/top/zed_49045152_left_1747200820.814.jpg,1747200820.814,1747200820.816,0.002000093460083008,1747200820.816,21.02567375214957,34.33567375214957,-18.054468115326927,25.19567375214957,68.64879436317736,-44.75134750429915,185.9656737521496,101.22553188467307,185.550567469906,-155.73716312392523,-2.1,122.92,2025-05-14 14:33:40.816
/home/najo/NAS/DIP/datasets/meca_insertion/vla_dataset2_hand/top/zed_49045152_right_1747200820.814.jpg,1747200820.814,1747200820.816,0.002000093460083008,1747200820.816,21.02567375214957,34.33567375214957,-18.054468115326927,25.19567375214957,68.64879436317736,-44.75134750429915,185.9656737521496,101.22553188467307,185.550567469906,-155.73716312392523,-2.1,122.92,2025-05-14 14:33:40.816
/home/najo/NAS/DIP/datasets/meca_insertion/vla_dataset2_hand/front/zed_41182735_left_1747200820.909.jpg,1747200820.909,1747200820.906,0.003000020980834961,1747200820.906,21.038439694486105,34.34843969448611,-17.99702137481252,25.208439694486103,68.57858168032641,-44.77687938897221,185.9784396944861,101.28297862518748,185.3718442771945,-155.73078015275695,-2.1,122.92,2025-05-14 14:33:40.906
/home/najo/NAS/DIP/datasets/meca_insertion/vla_dataset2_hand/front/zed_41182735_right_1747200820.909.jpg,1747200820.909,1747200820.906,0.003000020980834961,1747200820.906,21.038439694486105,34.34843969448611,-17.99702137481252,25.208439694486103,68.57858168032641,-44.77687938897221,185.9784396944861,101.28297862518748,185.3718442771945,-155.73078015275695,-2.1,122.92,2025-05-14 14:33:40.906
/home/najo/NAS/DIP/datasets/meca_insertion/vla_dataset2_hand/right/zed_49429257_left_1747200820.917.jpg,1747200820.917,1747200820.917,0.0,1747200820.917,21.04,34.35,-17.99,25.21,68.57,-44.78,185.98,101.29,185.35,-155.73,-2.1,122.92,2025-05-14 14:33:40.917
/home/najo/NAS/DIP/datasets/meca_insertion/vla_dataset2_hand/right/zed_49429257_right_1747200820.917.jpg,1747200820.917,1747200820.917,0.0,1747200820.917,21.04,34.35,-17.99,25.21,68.57,-44.78,185.98,101.29,185.35,-155.73,-2.1,122.92,2025-05-14 14:33:40.917
/home/najo/NAS/DIP/datasets/meca_insertion/vla_dataset2_hand/left/zed_44377151_left_1747200820.940.jpg,1747200820.94,1747200820.937,0.003000020980834961,1747200820.937,21.05463414350483,34.366260159449816,-17.92658537814572,25.2278861753948,68.49357725058586,-44.80764227106469,185.99300812755985,101.3517886059093,185.15487808660225,-155.72674796811003,-2.1016260159449813,122.91837398405502,2025-05-14 14:33:40.937
/home/najo/NAS/DIP/datasets/meca_insertion/vla_dataset2_hand/left/zed_44377151_right_1747200820.940.jpg,1747200820.94,1747200820.937,0.003000020980834961,1747200820.937,21.05463414350483,34.366260159449816,-17.92658537814572,25.2278861753948,68.49357725058586,-44.80764227106469,185.99300812755985,101.3517886059093,185.15487808660225,-155.72674796811003,-2.1016260159449813,122.91837398405502,2025-05-14 14:33:40.937
/home/najo/NAS/DIP/datasets/meca_insertion/vla_dataset2_hand/top/zed_49045152_right_1747200821.167.jpg,1747200821.167,1747200821.164,0.003000020980834961,1747200821.164,21.17366491826361,34.504712037767504,-17.401151848929988,25.365235597519447,67.85696337091443,-45.02785339627918,186.1031413585117,101.86780103156612,183.54136130778215,-155.6989528804961,-2.1105235597519445,122.91,2025-05-14 14:33:41.164
/home/najo/NAS/DIP/datasets/meca_insertion/vla_dataset2_hand/top/zed_49045152_left_1747200821.167.jpg,1747200821.167,1747200821.164,0.003000020980834961,1747200821.164,21.17366491826361,34.504712037767504,-17.401151848929988,25.365235597519447,67.85696337091443,-45.02785339627918,186.1031413585117,101.86780103156612,183.54136130778215,-155.6989528804961,-2.1105235597519445,122.91,2025-05-14 14:33:41.164
/home/najo/NAS/DIP/datasets/meca_insertion/vla_dataset2_hand/right/zed_49429257_right_1747200821.222.jpg,1747200821.222,1747200821.224,0.002000093460083008,1747200821.224,21.19565442784529,34.53298426437252,-17.28806294250991,25.396649182636136,67.718743596401,-45.074973773954206,186.12198950958168,101.97460722096284,183.18952915447528,-155.69267016347277,-2.1136649182636136,122.91,2025-05-14 14:33:41.224
/home/najo/NAS/DIP/datasets/meca_insertion/vla_dataset2_hand/right/zed_49429257_left_1747200821.222.jpg,1747200821.222,1747200821.224,0.002000093460083008,1747200821.224,21.19565442784529,34.53298426437252,-17.28806294250991,25.396649182636136,67.718743596401,-45.074973773954206,186.12198950958168,101.97460722096284,183.18952915447528,-155.69267016347277,-2.1136649182636136,122.91,2025-05-14 14:33:41.224
/home/najo/NAS/DIP/datasets/meca_insertion/vla_dataset2_hand/front/zed_41182735_right_1747200821.246.jpg,1747200821.246,1747200821.244,0.002000093460083008,1747200821.244,21.20298426437252,34.54240833990753,-17.250366640369887,25.40712037767503,67.67267033822986,-45.09068056651255,186.12827222660505,102.0102092840951,183.07225177003963,-155.69057592446498,-2.1147120377675037,122.91,2025-05-14 14:33:41.244
/home/najo/NAS/DIP/datasets/meca_insertion/vla_dataset2_hand/front/zed_41182735_left_1747200821.246.jpg,1747200821.246,1747200821.244,0.002000093460083008,1747200821.244,21.20298426437252,34.54240833990753,-17.250366640369887,25.40712037767503,67.67267033822986,-45.09068056651255,186.12827222660505,102.0102092840951,183.07225177003963,-155.69057592446498,-2.1147120377675037,122.91,2025-05-14 14:33:41.244
/home/najo/NAS/DIP/datasets/meca_insertion/vla_dataset2_hand/left/zed_44377151_right_1747200821.264.jpg,1747200821.264,1747200821.264,0.0,1747200821.264,21.210314100899748,34.55183241544254,-17.21267033822986,25.417591572713928,67.62659708005872,-45.106387359070894,186.1345549436284,102.04581134722736,182.954974385604,-155.68848168545722,-2.115759157271393,122.91,2025-05-14 14:33:41.264
/home/najo/NAS/DIP/datasets/meca_insertion/vla_dataset2_hand/left/zed_44377151_left_1747200821.264.jpg,1747200821.264,1747200821.264,0.0,1747200821.264,21.210314100899748,34.55183241544254,-17.21267033822986,25.417591572713928,67.62659708005872,-45.106387359070894,186.1345549436284,102.04581134722736,182.954974385604,-155.68848168545722,-2.115759157271393,122.91,2025-05-14 14:33:41.264
/home/najo/NAS/DIP/datasets/meca_insertion/vla_dataset2_hand/top/zed_49045152_right_1747200821.463.jpg,1747200821.463,1747200821.465,0.0019998550415039062,1747200821.465,21.281459851728098,34.6414598517281,-16.875620444815702,25.511459851728095,67.21416059308761,-45.2514598517281,186.1914598517281,102.3643795551843,181.91540148271903,-155.67,-2.12,122.9,2025-05-14 14:33:41.465
/home/najo/NAS/DIP/datasets/meca_insertion/vla_dataset2_hand/top/zed_49045152_left_1747200821.463.jpg,1747200821.463,1747200821.465,0.0019998550415039062,1747200821.465,21.281459851728098,34.6414598517281,-16.875620444815702,25.511459851728095,67.21416059308761,-45.2514598517281,186.1914598517281,102.3643795551843,181.91540148271903,-155.67,-2.12,122.9,2025-05-14 14:33:41.465
/home/najo/NAS/DIP/datasets/meca_insertion/vla_dataset2_hand/right/zed_49429257_left_1747200821.524.jpg,1747200821.524,1747200821.525,0.0010001659393310547,1747200821.525,21.2858394243152,34.6458394243152,-16.8624817270544,25.5158394243152,67.1966423027392,-45.2558394243152,186.1958394243152,102.3775182729456,181.87160575684803,-155.67,-2.12,122.9,2025-05-14 14:33:41.525
/home/najo/NAS/DIP/datasets/meca_insertion/vla_dataset2_hand/right/zed_49429257_right_1747200821.524.jpg,1747200821.524,1747200821.525,0.0010001659393310547,1747200821.525,21.2858394243152,34.6458394243152,-16.8624817270544,25.5158394243152,67.1966423027392,-45.2558394243152,186.1958394243152,102.3775182729456,181.87160575684803,-155.67,-2.12,122.9,2025-05-14 14:33:41.525
/home/najo/NAS/DIP/datasets/meca_insertion/vla_dataset2_hand/left/zed_44377151_right_1747200821.583.jpg,1747200821.583,1747200821.582,0.0009999275207519531,1747200821.582,21.29,34.65,-16.85,25.52,67.18,-45.26,186.2,102.39,181.83,-155.67,-2.12,122.9,2025-05-14 14:33:41.582
/home/najo/NAS/DIP/datasets/meca_insertion/vla_dataset2_hand/left/zed_44377151_left_1747200821.583.jpg,1747200821.583,1747200821.582,0.0009999275207519531,1747200821.582,21.29,34.65,-16.85,25.52,67.18,-45.26,186.2,102.39,181.83,-155.67,-2.12,122.9,2025-05-14 14:33:41.582
/home/najo/NAS/DIP/datasets/meca_insertion/vla_dataset2_hand/front/zed_41182735_right_1747200821.599.jpg,1747200821.599,1747200821.602,0.003000020980834961,1747200821.602,21.305841557981704,34.66980194747713,-16.772772404839188,25.53980194747713,67.08693084685748,-45.29168311596341,186.21188116848623,102.4632672056654,181.59237663027443,-155.66603961050455,-2.1219801947477133,122.9,2025-05-14 14:33:41.602
/home/najo/NAS/DIP/datasets/meca_insertion/vla_dataset2_hand/front/zed_41182735_left_1747200821.599.jpg,1747200821.599,1747200821.602,0.003000020980834961,1747200821.602,21.305841557981704,34.66980194747713,-16.772772404839188,25.53980194747713,67.08693084685748,-45.29168311596341,186.21188116848623,102.4632672056654,181.59237663027443,-155.66603961050455,-2.1219801947477133,122.9,2025-05-14 14:33:41.602
/home/najo/NAS/DIP/datasets/meca_insertion/vla_dataset2_hand/top/zed_49045152_right_1747200821.810.jpg,1747200821.81,1747200821.813,0.003000020980834961,1747200821.813,21.413550294355403,34.7953254415331,-16.264023675400693,25.675325441533104,66.47047338104528,-45.5053254415331,186.2817751471777,102.94420117742162,180.02029587902436,-155.64,-2.13,122.9,2025-05-14 14:33:41.813
