Najongs/Meca500_3D_Pose_Estimation/synchronized_robot_camera_data_2.csv
image_path,image_timestamp,robot_timestamp,time_difference_s,timestamp,j1,j2,j3,j4,j5,j6,x,y,z,rx,ry,rz,datetime
/home/najo/NAS/DIP/datasets/meca_insertion/vla_dataset3_hand2/top/zed_49045152_left_1747200969.279.jpg,1747200969.279,1747200969.301,0.02200007438659668,1747200969.301,23.49,37.51,-6.75,28.19,54.87,-49.47,185.09,109.91,149.4,-156.13,-2.22,123.07,2025-05-14 14:36:09.301
/home/najo/NAS/DIP/datasets/meca_insertion/vla_dataset3_hand2/top/zed_49045152_right_1747200969.279.jpg,1747200969.279,1747200969.301,0.02200007438659668,1747200969.301,23.49,37.51,-6.75,28.19,54.87,-49.47,185.09,109.91,149.4,-156.13,-2.22,123.07,2025-05-14 14:36:09.301
/home/najo/NAS/DIP/datasets/meca_insertion/vla_dataset3_hand2/front/zed_41182735_left_1747200969.301.jpg,1747200969.301,1747200969.301,0.0,1747200969.301,23.49,37.51,-6.75,28.19,54.87,-49.47,185.09,109.91,149.4,-156.13,-2.22,123.07,2025-05-14 14:36:09.301
/home/najo/NAS/DIP/datasets/meca_insertion/vla_dataset3_hand2/front/zed_41182735_right_1747200969.301.jpg,1747200969.301,1747200969.301,0.0,1747200969.301,23.49,37.51,-6.75,28.19,54.87,-49.47,185.09,109.91,149.4,-156.13,-2.22,123.07,2025-05-14 14:36:09.301
/home/najo/NAS/DIP/datasets/meca_insertion/vla_dataset3_hand2/right/zed_49429257_right_1747200969.340.jpg,1747200969.34,1747200969.341,0.0010001659393310547,1747200969.341,23.47252427588985,37.490582528766495,-6.825728137810668,28.168640781643145,54.96320386192082,-49.4389320460264,185.11912620685027,109.86922331040964,149.64077664329545,-156.12029126438324,-2.22,123.06805825287664,2025-05-14 14:36:09.341
/home/najo/NAS/DIP/datasets/meca_insertion/vla_dataset3_hand2/right/zed_49429257_left_1747200969.340.jpg,1747200969.34,1747200969.341,0.0010001659393310547,1747200969.341,23.47252427588985,37.490582528766495,-6.825728137810668,28.168640781643145,54.96320386192082,-49.4389320460264,185.11912620685027,109.86922331040964,149.64077664329545,-156.12029126438324,-2.22,123.06805825287664,2025-05-14 14:36:09.341
/home/najo/NAS/DIP/datasets/meca_insertion/vla_dataset3_hand2/left/zed_44377151_left_1747200969.580.jpg,1747200969.58,1747200969.577,0.003000020980834961,1747200969.577,23.387573987286235,37.39343198304831,-7.189704050855061,28.067573987286234,55.41213006356882,-49.2892899788104,185.2607100211896,109.67100597033456,150.80153816527894,-156.07585799576208,-2.224142004237922,123.06,2025-05-14 14:36:09.577
/home/najo/NAS/DIP/datasets/meca_insertion/vla_dataset3_hand2/left/zed_44377151_right_1747200969.580.jpg,1747200969.58,1747200969.577,0.003000020980834961,1747200969.577,23.387573987286235,37.39343198304831,-7.189704050855061,28.067573987286234,55.41213006356882,-49.2892899788104,185.2607100211896,109.67100597033456,150.80153816527894,-156.07585799576208,-2.224142004237922,123.06,2025-05-14 14:36:09.577
/home/najo/NAS/DIP/datasets/meca_insertion/vla_dataset3_hand2/front/zed_41182735_right_1747200969.694.jpg,1747200969.694,1747200969.696,0.002000093460083008,1747200969.696,23.356,37.35,-7.332,28.03,55.586,-49.228,185.316,109.59,151.26,-156.06199999999998,-2.23,123.058,2025-05-14 14:36:09.696
/home/najo/NAS/DIP/datasets/meca_insertion/vla_dataset3_hand2/front/zed_41182735_left_1747200969.694.jpg,1747200969.694,1747200969.696,0.002000093460083008,1747200969.696,23.356,37.35,-7.332,28.03,55.586,-49.228,185.316,109.59,151.26,-156.06199999999998,-2.23,123.058,2025-05-14 14:36:09.696
/home/najo/NAS/DIP/datasets/meca_insertion/vla_dataset3_hand2/right/zed_49429257_left_1747200969.705.jpg,1747200969.705,1747200969.706,0.0010001659393310547,1747200969.706,23.349,37.34,-7.368,28.02,55.629,-49.212,185.329,109.57,151.375,-156.058,-2.23,123.057,2025-05-14 14:36:09.706
/home/najo/NAS/DIP/datasets/meca_insertion/vla_dataset3_hand2/right/zed_49429257_right_1747200969.705.jpg,1747200969.705,1747200969.706,0.0010001659393310547,1747200969.706,23.349,37.34,-7.368,28.02,55.629,-49.212,185.329,109.57,151.375,-156.058,-2.23,123.057,2025-05-14 14:36:09.706
/home/najo/NAS/DIP/datasets/meca_insertion/vla_dataset3_hand2/top/zed_49045152_right_1747200969.711.jpg,1747200969.711,1747200969.706,0.004999876022338867,1747200969.706,23.349,37.34,-7.368,28.02,55.629,-49.212,185.329,109.57,151.375,-156.058,-2.23,123.057,2025-05-14 14:36:09.706
/home/najo/NAS/DIP/datasets/meca_insertion/vla_dataset3_hand2/top/zed_49045152_left_1747200969.711.jpg,1747200969.711,1747200969.706,0.004999876022338867,1747200969.706,23.349,37.34,-7.368,28.02,55.629,-49.212,185.329,109.57,151.375,-156.058,-2.23,123.057,2025-05-14 14:36:09.706
/home/najo/NAS/DIP/datasets/meca_insertion/vla_dataset3_hand2/left/zed_44377151_left_1747200969.915.jpg,1747200969.915,1747200969.916,0.0009999275207519531,1747200969.916,23.24681321099764,37.20461541283058,-7.859340550510635,27.892417614663515,56.22252733951299,-49.00582422016234,185.49978018350356,109.29483522932703,152.9390106423672,-156.0034066054988,-2.24,123.04780220183294,2025-05-14 14:36:09.916
/home/najo/NAS/DIP/datasets/meca_insertion/vla_dataset3_hand2/left/zed_44377151_right_1747200969.915.jpg,1747200969.915,1747200969.916,0.0009999275207519531,1747200969.916,23.24681321099764,37.20461541283058,-7.859340550510635,27.892417614663515,56.22252733951299,-49.00582422016234,185.49978018350356,109.29483522932703,152.9390106423672,-156.0034066054988,-2.24,123.04780220183294,2025-05-14 14:36:09.916
/home/najo/NAS/DIP/datasets/meca_insertion/vla_dataset3_hand2/right/zed_49429257_left_1747200969.971.jpg,1747200969.971,1747200969.966,0.004999876022338867,1747200969.966,23.230329646145226,37.18538458716942,-7.933516592346509,27.870439528193625,56.31318694620128,-48.97560435126624,185.52450553078216,109.25087905638723,153.17527507191852,-155.9951648230726,-2.24,123.0450549410242,2025-05-14 14:36:09.966
/home/najo/NAS/DIP/datasets/meca_insertion/vla_dataset3_hand2/right/zed_49429257_right_1747200969.971.jpg,1747200969.971,1747200969.966,0.004999876022338867,1747200969.966,23.230329646145226,37.18538458716942,-7.933516592346509,27.870439528193625,56.31318694620128,-48.97560435126624,185.52450553078216,109.25087905638723,153.17527507191852,-155.9951648230726,-2.24,123.0450549410242,2025-05-14 14:36:09.966
/home/najo/NAS/DIP/datasets/meca_insertion/vla_dataset3_hand2/front/zed_41182735_left_1747200970.018.jpg,1747200970.018,1747200970.016,0.0019998550415039062,1747200970.016,23.213846159892267,37.16615385320764,-8.007692280484802,27.84846154652302,56.40384612059253,-48.94538462646916,185.5492307601616,109.20692309304604,153.41153837487752,-155.9869230799461,-2.24,123.04230769331538,2025-05-14 14:36:10.016
/home/najo/NAS/DIP/datasets/meca_insertion/vla_dataset3_hand2/front/zed_41182735_right_1747200970.018.jpg,1747200970.018,1747200970.016,0.0019998550415039062,1747200970.016,23.213846159892267,37.16615385320764,-8.007692280484802,27.84846154652302,56.40384612059253,-48.94538462646916,185.5492307601616,109.20692309304604,153.41153837487752,-155.9869230799461,-2.24,123.04230769331538,2025-05-14 14:36:10.016
/home/najo/NAS/DIP/datasets/meca_insertion/vla_dataset3_hand2/top/zed_49045152_right_1747200970.043.jpg,1747200970.043,1747200970.046,0.003000020980834961,1747200970.046,23.20395606814049,37.15461541283057,-8.052197693367777,27.835274757520654,56.45824162522728,-48.92725279159091,185.56406589778925,109.18054951504132,153.55329635665294,-155.98197803407024,-2.24,123.04065934469008,2025-05-14 14:36:10.046
/home/najo/NAS/DIP/datasets/meca_insertion/vla_dataset3_hand2/top/zed_49045152_left_1747200970.043.jpg,1747200970.043,1747200970.046,0.003000020980834961,1747200970.046,23.20395606814049,37.15461541283057,-8.052197693367777,27.835274757520654,56.45824162522728,-48.92725279159091,185.56406589778925,109.18054951504132,153.55329635665294,-155.98197803407024,-2.24,123.04065934469008,2025-05-14 14:36:10.046
/home/najo/NAS/DIP/datasets/meca_insertion/vla_dataset3_hand2/front/zed_41182735_right_1747200970.255.jpg,1747200970.255,1747200970.259,0.003999948501586914,1747200970.259,23.11850391513056,37.04850391513056,-8.42811031826041,27.73850391513056,56.92173238191249,-48.76488185147848,185.6793701060868,108.95913380904376,154.7579530184333,-155.94212597878263,-2.2478740212173607,123.03212597878264,2025-05-14 14:36:10.259
/home/najo/NAS/DIP/datasets/meca_insertion/vla_dataset3_hand2/front/zed_41182735_left_1747200970.255.jpg,1747200970.255,1747200970.259,0.003999948501586914,1747200970.259,23.11850391513056,37.04850391513056,-8.42811031826041,27.73850391513056,56.92173238191249,-48.76488185147848,185.6793701060868,108.95913380904376,154.7579530184333,-155.94212597878263,-2.2478740212173607,123.03212597878264,2025-05-14 14:36:10.259
/home/najo/NAS/DIP/datasets/meca_insertion/vla_dataset3_hand2/right/zed_49429257_right_1747200970.307.jpg,1747200970.307,1747200970.306,0.0009999275207519531,1747200970.306,23.100270276539863,37.02702703538648,-8.50540537614731,27.718108115770946,57.01513509960745,-48.73162163346419,185.7029729646135,108.91297299038852,155.00486477151762,-155.93567567846216,-2.25,123.02891891961552,2025-05-14 14:36:10.306
/home/najo/NAS/DIP/datasets/meca_insertion/vla_dataset3_hand2/right/zed_49429257_left_1747200970.307.jpg,1747200970.307,1747200970.306,0.0009999275207519531,1747200970.306,23.100270276539863,37.02702703538648,-8.50540537614731,27.718108115770946,57.01513509960745,-48.73162163346419,185.7029729646135,108.91297299038852,155.00486477151762,-155.93567567846216,-2.25,123.02891891961552,2025-05-14 14:36:10.306
/home/najo/NAS/DIP/datasets/meca_insertion/vla_dataset3_hand2/left/zed_44377151_right_1747200970.371.jpg,1747200970.371,1747200970.376,0.004999876022338867,1747200970.376,23.06621624442938,36.98162165923917,-8.664324192662892,27.67648652096924,57.20810794823351,-48.66729735058883,185.74837834076084,108.81837845674828,155.51189147182922,-155.92054055307972,-2.25,123.02513513826992,2025-05-14 14:36:10.376
/home/najo/NAS/DIP/datasets/meca_insertion/vla_dataset3_hand2/left/zed_44377151_left_1747200970.371.jpg,1747200970.371,1747200970.376,0.004999876022338867,1747200970.376,23.06621624442938,36.98162165923917,-8.664324192662892,27.67648652096924,57.20810794823351,-48.66729735058883,185.74837834076084,108.81837845674828,155.51189147182922,-155.92054055307972,-2.25,123.02513513826992,2025-05-14 14:36:10.376
/home/najo/NAS/DIP/datasets/meca_insertion/vla_dataset3_hand2/top/zed_49045152_right_1747200970.394.jpg,1747200970.394,1747200970.396,0.0019998550415039062,1747200970.396,23.05648652096924,36.96864869462566,-8.709729568810202,27.664594636740187,57.26324304784096,-48.64891898405301,185.76135130537435,108.79135144713678,155.65675624334682,-155.91621623154188,-2.25,123.02405405788546,2025-05-14 14:36:10.396
/home/najo/NAS/DIP/datasets/meca_insertion/vla_dataset3_hand2/top/zed_49045152_left_1747200970.394.jpg,1747200970.394,1747200970.396,0.0019998550415039062,1747200970.396,23.05648652096924,36.96864869462566,-8.709729568810202,27.664594636740187,57.26324304784096,-48.64891898405301,185.76135130537435,108.79135144713678,155.65675624334682,-155.91621623154188,-2.25,123.02405405788546,2025-05-14 14:36:10.396
/home/najo/NAS/DIP/datasets/meca_insertion/vla_dataset3_hand2/right/zed_49429257_left_1747200970.587.jpg,1747200970.587,1747200970.582,0.004999876022338867,1747200970.582,22.98,36.87,-9.06,27.57,57.69,-48.5,185.86,108.57,156.78,-155.89,-2.25,123.02,2025-05-14 14:36:10.582
/home/najo/NAS/DIP/datasets/meca_insertion/vla_dataset3_hand2/right/zed_49429257_right_1747200970.587.jpg,1747200970.587,1747200970.582,0.004999876022338867,1747200970.582,22.98,36.87,-9.06,27.57,57.69,-48.5,185.86,108.57,156.78,-155.89,-2.25,123.02,2025-05-14 14:36:10.582
/home/najo/NAS/DIP/datasets/meca_insertion/vla_dataset3_hand2/top/zed_49045152_right_1747200970.657.jpg,1747200970.657,1747200970.662,0.004999876022338867,1747200970.662,22.98,36.87,-9.06,27.57,57.69,-48.5,185.86,108.57,156.78,-155.89,-2.25,123.02,2025-05-14 14:36:10.662
/home/najo/NAS/DIP/datasets/meca_insertion/vla_dataset3_hand2/top/zed_49045152_left_1747200970.657.jpg,1747200970.657,1747200970.662,0.004999876022338867,1747200970.662,22.98,36.87,-9.06,27.57,57.69,-48.5,185.86,108.57,156.78,-155.89,-2.25,123.02,2025-05-14 14:36:10.662
/home/najo/NAS/DIP/datasets/meca_insertion/vla_dataset3_hand2/left/zed_44377151_left_1747200970.709.jpg,1747200970.709,1747200970.712,0.0029997825622558594,1747200970.712,22.98,36.87,-9.06,27.57,57.69,-48.5,185.86,108.57,156.78,-155.89,-2.25,123.02,2025-05-14 14:36:10.712
/home/najo/NAS/DIP/datasets/meca_insertion/vla_dataset3_hand2/left/zed_44377151_right_1747200970.709.jpg,1747200970.709,1747200970.712,0.0029997825622558594,1747200970.712,22.98,36.87,-9.06,27.57,57.69,-48.5,185.86,108.57,156.78,-155.89,-2.25,123.02,2025-05-14 14:36:10.712
/home/najo/NAS/DIP/datasets/meca_insertion/vla_dataset3_hand2/front/zed_41182735_left_1747200970.714.jpg,1747200970.714,1747200970.714,0.0,1747200970.714,22.98,36.87,-9.06,27.57,57.69,-48.5,185.86,108.57,156.78,-155.89,-2.25,123.02,2025-05-14 14:36:10.714
/home/najo/NAS/DIP/datasets/meca_insertion/vla_dataset3_hand2/front/zed_41182735_right_1747200970.714.jpg,1747200970.714,1747200970.714,0.0,1747200970.714,22.98,36.87,-9.06,27.57,57.69,-48.5,185.86,108.57,156.78,-155.89,-2.25,123.02,2025-05-14 14:36:10.714
/home/najo/NAS/DIP/datasets/meca_insertion/vla_dataset3_hand2/top/zed_49045152_left_1747200970.961.jpg,1747200970.961,1747200970.963,0.002000093460083008,1747200970.963,22.845238099292835,36.694047624116045,-9.71142855318225,27.39464286170444,58.48619045388941,-48.23107143617406,186.0247619007072,108.1557142978785,158.8584523226655,-155.8288095248232,-2.26,123.0,2025-05-14 14:36:10.963
/home/najo/NAS/DIP/datasets/meca_insertion/vla_dataset3_hand2/top/zed_49045152_right_1747200970.961.jpg,1747200970.961,1747200970.963,0.002000093460083008,1747200970.963,22.845238099292835,36.694047624116045,-9.71142855318225,27.39464286170444,58.48619045388941,-48.23107143617406,186.0247619007072,108.1557142978785,158.8584523226655,-155.8288095248232,-2.26,123.0,2025-05-14 14:36:10.963
/home/najo/NAS/DIP/datasets/meca_insertion/vla_dataset3_hand2/left/zed_44377151_right_1747200970.985.jpg,1747200970.985,1747200970.983,0.0019998550415039062,1747200970.983,22.8357142978785,36.68214287234813,-9.754285659546747,27.38392858511331,58.53857136166825,-48.21321430852219,186.0342857021215,108.12714289363552,158.99535696799654,-155.82642857446965,-2.26,123.0,2025-05-14 14:36:10.983
/home/najo/NAS/DIP/datasets/meca_insertion/vla_dataset3_hand2/left/zed_44377151_left_1747200970.985.jpg,1747200970.985,1747200970.983,0.0019998550415039062,1747200970.983,22.8357142978785,36.68214287234813,-9.754285659546747,27.38392858511331,58.53857136166825,-48.21321430852219,186.0342857021215,108.12714289363552,158.99535696799654,-155.82642857446965,-2.26,123.0,2025-05-14 14:36:10.983
/home/najo/NAS/DIP/datasets/meca_insertion/vla_dataset3_hand2/front/zed_41182735_left_1747200971.027.jpg,1747200971.027,1747200971.023,0.003999948501586914,1747200971.023,22.81666669504984,36.65833336881229,-9.839999872275747,27.362500031931063,58.64333317722591,-48.17750005321844,186.05333330495017,108.0700000851495,159.26916625865863,-155.82166667376248,-2.26,123.0,2025-05-14 14:36:11.023
/home/najo/NAS/DIP/datasets/meca_insertion/vla_dataset3_hand2/front/zed_41182735_right_1747200971.027.jpg,1747200971.027,1747200971.023,0.003999948501586914,1747200971.023,22.81666669504984,36.65833336881229,-9.839999872275747,27.362500031931063,58.64333317722591,-48.17750005321844,186.05333330495017,108.0700000851495,159.26916625865863,-155.82166667376248,-2.26,123.0,2025-05-14 14:36:11.023
/home/najo/NAS/DIP/datasets/meca_insertion/vla_dataset3_hand2/right/zed_49429257_right_1747200971.039.jpg,1747200971.039,1747200971.043,0.003999948501586914,1747200971.043,22.8071428936355,36.64642861704438,-9.882856978640248,27.351785755339936,58.695714085004745,-48.159642925566565,186.0628571063645,108.0414286809065,159.40607090398967,-155.81928572340888,-2.26,123.0,2025-05-14 14:36:11.043
/home/najo/NAS/DIP/datasets/meca_insertion/vla_dataset3_hand2/right/zed_49429257_left_1747200971.039.jpg,1747200971.039,1747200971.043,0.003999948501586914,1747200971.043,22.8071428936355,36.64642861704438,-9.882856978640248,27.351785755339936,58.695714085004745,-48.159642925566565,186.0628571063645,108.0414286809065,159.40607090398967,-155.81928572340888,-2.26,123.0,2025-05-14 14:36:11.043
/home/najo/NAS/DIP/datasets/meca_insertion/vla_dataset3_hand2/left/zed_44377151_right_1747200971.271.jpg,1747200971.271,1747200971.271,0.0,1747200971.271,22.723103453945747,36.54310345394575,-10.261034457244143,27.253103453945748,59.1579310032984,-48.006206907891496,186.14344827302716,107.7858620888101,160.6099999177867,-155.7965517269729,-2.26,122.99,2025-05-14 14:36:11.271
/home/najo/NAS/DIP/datasets/meca_insertion/vla_dataset3_hand2/left/zed_44377151_left_1747200971.271.jpg,1747200971.271,1747200971.271,0.0,1747200971.271,22.723103453945747,36.54310345394575,-10.261034457244143,27.253103453945748,59.1579310032984,-48.006206907891496,186.14344827302716,107.7858620888101,160.6099999177867,-155.7965517269729,-2.26,122.99,2025-05-14 14:36:11.271
/home/najo/NAS/DIP/datasets/meca_insertion/vla_dataset3_hand2/right/zed_49429257_left_1747200971.366.jpg,1747200971.366,1747200971.366,0.0,1747200971.366,22.71,36.53,-10.32,27.24,59.23,-47.98,186.15,107.74,160.8,-155.79,-2.26,122.99,2025-05-14 14:36:11.366
/home/najo/NAS/DIP/datasets/meca_insertion/vla_dataset3_hand2/right/zed_49429257_right_1747200971.366.jpg,1747200971.366,1747200971.366,0.0,1747200971.366,22.71,36.53,-10.32,27.24,59.23,-47.98,186.15,107.74,160.8,-155.79,-2.26,122.99,2025-05-14 14:36:11.366
/home/najo/NAS/DIP/datasets/meca_insertion/vla_dataset3_hand2/front/zed_41182735_left_1747200971.384.jpg,1747200971.384,1747200971.386,0.0019998550415039062,1747200971.386,22.695714318152145,36.51253972218596,-10.381904621340706,27.222539722185957,59.304603005205465,-47.95460323227048,186.16269838386475,107.69714295445642,160.99682494990378,-155.7868254040338,-2.2615872979830947,122.9884127020169,2025-05-14 14:36:11.386
/home/najo/NAS/DIP/datasets/meca_insertion/vla_dataset3_hand2/front/zed_41182735_right_1747200971.384.jpg,1747200971.384,1747200971.386,0.0019998550415039062,1747200971.386,22.695714318152145,36.51253972218596,-10.381904621340706,27.222539722185957,59.304603005205465,-47.95460323227048,186.16269838386475,107.69714295445642,160.99682494990378,-155.7868254040338,-2.2615872979830947,122.9884127020169,2025-05-14 14:36:11.386
/home/najo/NAS/DIP/datasets/meca_insertion/vla_dataset3_hand2/top/zed_49045152_left_1747200971.402.jpg,1747200971.402,1747200971.406,0.003999948501586914,1747200971.406,22.68142863630429,36.49507944437191,-10.44380924268141,27.205079444371908,59.37920601041093,-47.92920646454096,186.17539676772952,107.65428590891288,161.19364989980755,-155.78365080806762,-2.26317459596619,122.9868254040338,2025-05-14 14:36:11.406
/home/najo/NAS/DIP/datasets/meca_insertion/vla_dataset3_hand2/top/zed_49045152_right_1747200971.402.jpg,1747200971.402,1747200971.406,0.003999948501586914,1747200971.406,22.68142863630429,36.49507944437191,-10.44380924268141,27.205079444371908,59.37920601041093,-47.92920646454096,186.17539676772952,107.65428590891288,161.19364989980755,-155.78365080806762,-2.26317459596619,122.9868254040338,2025-05-14 14:36:11.406
/home/najo/NAS/DIP/datasets/meca_insertion/vla_dataset3_hand2/left/zed_44377151_right_1747200971.639.jpg,1747200971.639,1747200971.642,0.003000020980834961,1747200971.642,22.58218750873115,36.36218750873115,-10.913437473806557,27.08218750873115,59.95124996507541,-47.73218750873115,186.2639062456344,107.33046877182788,162.6942186670541,-155.75609375436557,-2.27,122.98,2025-05-14 14:36:11.642
/home/najo/NAS/DIP/datasets/meca_insertion/vla_dataset3_hand2/left/zed_44377151_left_1747200971.639.jpg,1747200971.639,1747200971.642,0.003000020980834961,1747200971.642,22.58218750873115,36.36218750873115,-10.913437473806557,27.08218750873115,59.95124996507541,-47.73218750873115,186.2639062456344,107.33046877182788,162.6942186670541,-155.75609375436557,-2.27,122.98,2025-05-14 14:36:11.642
/home/najo/NAS/DIP/datasets/meca_insertion/vla_dataset3_hand2/right/zed_49429257_left_1747200971.712.jpg,1747200971.712,1747200971.712,0.0,1747200971.712,22.571250020954757,36.35125002095476,-10.946249937135736,27.071250020954757,59.99499991618098,-47.72125002095476,186.26937498952265,107.30312505238687,162.79812480092983,-155.75062501047736,-2.27,122.98,2025-05-14 14:36:11.712
/home/najo/NAS/DIP/datasets/meca_insertion/vla_dataset3_hand2/right/zed_49429257_right_1747200971.712.jpg,1747200971.712,1747200971.712,0.0,1747200971.712,22.571250020954757,36.35125002095476,-10.946249937135736,27.071250020954757,59.99499991618098,-47.72125002095476,186.26937498952265,107.30312505238687,162.79812480092983,-155.75062501047736,-2.27,122.98,2025-05-14 14:36:11.712
/home/najo/NAS/DIP/datasets/meca_insertion/vla_dataset3_hand2/front/zed_41182735_right_1747200971.730.jpg,1747200971.73,1747200971.73,0.0,1747200971.73,22.56343066722356,36.34124088963141,-10.980656886290069,27.061970815495457,60.03722621906651,-47.70686133444711,186.2743795551843,107.27810222407852,162.9078100657826,-155.7485401482719,-2.27,122.97927007413595,2025-05-14 14:36:11.730
/home/najo/NAS/DIP/datasets/meca_insertion/vla_dataset3_hand2/front/zed_41182735_left_1747200971.730.jpg,1747200971.73,1747200971.73,0.0,1747200971.73,22.56343066722356,36.34124088963141,-10.980656886290069,27.061970815495457,60.03722621906651,-47.70686133444711,186.2743795551843,107.27810222407852,162.9078100657826,-155.7485401482719,-2.27,122.97927007413595,2025-05-14 14:36:11.730
/home/najo/NAS/DIP/datasets/meca_insertion/vla_dataset3_hand2/top/zed_49045152_left_1747200971.742.jpg,1747200971.742,1747200971.74,0.002000093460083008,1747200971.74,22.556861334447117,36.33248177926282,-11.01131377258014,27.05394163099092,60.07445243813303,-47.69372266889423,186.2787591103686,107.25620444815704,163.00562013156522,-155.7470802965438,-2.27,122.9785401482719,2025-05-14 14:36:11.740
/home/najo/NAS/DIP/datasets/meca_insertion/vla_dataset3_hand2/top/zed_49045152_right_1747200971.742.jpg,1747200971.742,1747200971.74,0.002000093460083008,1747200971.74,22.556861334447117,36.33248177926282,-11.01131377258014,27.05394163099092,60.07445243813303,-47.69372266889423,186.2787591103686,107.25620444815704,163.00562013156522,-155.7470802965438,-2.27,122.9785401482719,2025-05-14 14:36:11.740
/home/najo/NAS/DIP/datasets/meca_insertion/vla_dataset3_hand2/left/zed_44377151_right_1747200971.931.jpg,1747200971.931,1747200971.927,0.003999948501586914,1747200971.927,22.46906250543272,36.21906250543272,-11.413749978269127,26.94906250543272,60.561041641313984,-47.521770842387866,186.33729166304485,106.96718751629815,164.29218742937468,-155.73,-2.27,122.97,2025-05-14 14:36:11.927
/home/najo/NAS/DIP/datasets/meca_insertion/vla_dataset3_hand2/left/zed_44377151_left_1747200971.931.jpg,1747200971.931,1747200971.927,0.003999948501586914,1747200971.927,22.46906250543272,36.21906250543272,-11.413749978269127,26.94906250543272,60.561041641313984,-47.521770842387866,186.33729166304485,106.96718751629815,164.29218742937468,-155.73,-2.27,122.97,2025-05-14 14:36:11.927
/home/najo/NAS/DIP/datasets/meca_insertion/vla_dataset3_hand2/right/zed_49429257_left_1747200971.975.jpg,1747200971.975,1747200971.977,0.002000093460083008,1747200971.977,22.46125000931323,36.21125000931323,-11.44499996274708,26.94125000931323,60.59749995653826,-47.50875001552205,186.3424999937912,106.94375002793969,164.39374987892802,-155.73,-2.27,122.97,2025-05-14 14:36:11.977
/home/najo/NAS/DIP/datasets/meca_insertion/vla_dataset3_hand2/right/zed_49429257_right_1747200971.975.jpg,1747200971.975,1747200971.977,0.002000093460083008,1747200971.977,22.46125000931323,36.21125000931323,-11.44499996274708,26.94125000931323,60.59749995653826,-47.50875001552205,186.3424999937912,106.94375002793969,164.39374987892802,-155.73,-2.27,122.97,2025-05-14 14:36:11.977
/home/najo/NAS/DIP/datasets/meca_insertion/vla_dataset3_hand2/top/zed_49045152_right_1747200972.029.jpg,1747200972.029,1747200972.027,0.002000093460083008,1747200972.027,22.45343751319374,36.20343751319375,-11.47624994722503,26.93343751319374,60.63395827176253,-47.49572918865624,186.3477083245375,106.92031253958122,164.49531232848133,-155.73,-2.27,122.97,2025-05-14 14:36:12.027
/home/najo/NAS/DIP/datasets/meca_insertion/vla_dataset3_hand2/top/zed_49045152_left_1747200972.029.jpg,1747200972.029,1747200972.027,0.002000093460083008,1747200972.027,22.45343751319374,36.20343751319375,-11.47624994722503,26.93343751319374,60.63395827176253,-47.49572918865624,186.3477083245375,106.92031253958122,164.49531232848133,-155.73,-2.27,122.97,2025-05-14 14:36:12.027
/home/najo/NAS/DIP/datasets/meca_insertion/vla_dataset3_hand2/front/zed_41182735_left_1747200972.049.jpg,1747200972.049,1747200972.049,0.0,1747200972.049,22.45,36.2,-11.49,26.93,60.65,-47.49,186.35,106.91,164.54,-155.73,-2.27,122.97,2025-05-14 14:36:12.049
/home/najo/NAS/DIP/datasets/meca_insertion/vla_dataset3_hand2/front/zed_41182735_right_1747200972.049.jpg,1747200972.049,1747200972.049,0.0,1747200972.049,22.45,36.2,-11.49,26.93,60.65,-47.49,186.35,106.91,164.54,-155.73,-2.27,122.97,2025-05-14 14:36:12.049
/home/najo/NAS/DIP/datasets/meca_insertion/vla_dataset3_hand2/left/zed_44377151_left_1747200972.264.jpg,1747200972.264,1747200972.263,0.0009999275207519531,1747200972.263,22.32,36.04,-12.09,26.77,61.38,-47.24,186.42,106.47,166.45,-155.7,-2.27,122.96,2025-05-14 14:36:12.263
/home/najo/NAS/DIP/datasets/meca_insertion/vla_dataset3_hand2/left/zed_44377151_right_1747200972.264.jpg,1747200972.264,1747200972.263,0.0009999275207519531,1747200972.263,22.32,36.04,-12.09,26.77,61.38,-47.24,186.42,106.47,166.45,-155.7,-2.27,122.96,2025-05-14 14:36:12.263
/home/najo/NAS/DIP/datasets/meca_insertion/vla_dataset3_hand2/front/zed_41182735_right_1747200972.303.jpg,1747200972.303,1747200972.303,0.0,1747200972.303,22.32,36.03736842270373,-12.09789473188881,26.76736842270373,61.39052630918509,-47.23736842270373,186.42,106.4621052681112,166.4763157729627,-155.7,-2.26736842270373,122.96,2025-05-14 14:36:12.303
/home/najo/NAS/DIP/datasets/meca_insertion/vla_dataset3_hand2/front/zed_41182735_left_1747200972.303.jpg,1747200972.303,1747200972.303,0.0,1747200972.303,22.32,36.03736842270373,-12.09789473188881,26.76736842270373,61.39052630918509,-47.23736842270373,186.42,106.4621052681112,166.4763157729627,-155.7,-2.26736842270373,122.96,2025-05-14 14:36:12.303
/home/najo/NAS/DIP/datasets/meca_insertion/vla_dataset3_hand2/top/zed_49045152_left_1747200972.357.jpg,1747200972.357,1747200972.353,0.004000186920166016,1747200972.353,22.32,36.034078951083394,-12.10776314674982,26.764078951083395,61.40368419566643,-47.23407895108339,186.42,106.45223685325018,166.5092104891661,-155.7,-2.264078951083393,122.96,2025-05-14 14:36:12.353
/home/najo/NAS/DIP/datasets/meca_insertion/vla_dataset3_hand2/top/zed_49045152_right_1747200972.357.jpg,1747200972.357,1747200972.353,0.004000186920166016,1747200972.353,22.32,36.034078951083394,-12.10776314674982,26.764078951083395,61.40368419566643,-47.23407895108339,186.42,106.45223685325018,166.5092104891661,-155.7,-2.264078951083393,122.96,2025-05-14 14:36:12.353
/home/najo/NAS/DIP/datasets/meca_insertion/vla_dataset3_hand2/right/zed_49429257_right_1747200972.404.jpg,1747200972.404,1747200972.403,0.0009999275207519531,1747200972.403,22.32,36.030789463777616,-12.117631608667145,26.76078946377762,61.41684214488953,-47.23078946377762,186.42,106.44236839133283,166.54210536222382,-155.7,-2.260789463777618,122.96,2025-05-14 14:36:12.403
/home/najo/NAS/DIP/datasets/meca_insertion/vla_dataset3_hand2/right/zed_49429257_left_1747200972.404.jpg,1747200972.404,1747200972.403,0.0009999275207519531,1747200972.403,22.32,36.030789463777616,-12.117631608667145,26.76078946377762,61.41684214488953,-47.23078946377762,186.42,106.44236839133283,166.54210536222382,-155.7,-2.260789463777618,122.96,2025-05-14 14:36:12.403
/home/najo/NAS/DIP/datasets/meca_insertion/vla_dataset3_hand2/left/zed_44377151_right_1747200972.644.jpg,1747200972.644,1747200972.646,0.0019998550415039062,1747200972.646,22.194705909006075,35.86882356050709,-12.6811763639757,26.608823560507087,62.10647045496962,-46.991176515010125,186.46588234849895,106.00823537851925,168.33294083442203,-155.68411765150103,-2.26,122.95,2025-05-14 14:36:12.646
/home/najo/NAS/DIP/datasets/meca_insertion/vla_dataset3_hand2/left/zed_44377151_left_1747200972.644.jpg,1747200972.644,1747200972.646,0.0019998550415039062,1747200972.646,22.194705909006075,35.86882356050709,-12.6811763639757,26.608823560507087,62.10647045496962,-46.991176515010125,186.46588234849895,106.00823537851925,168.33294083442203,-155.68411765150103,-2.26,122.95,2025-05-14 14:36:12.646
/home/najo/NAS/DIP/datasets/meca_insertion/vla_dataset3_hand2/front/zed_41182735_right_1747200972.710.jpg,1747200972.71,1747200972.706,0.003999948501586914,1747200972.706,22.178416263818303,35.849818974454685,-12.746334944726794,26.589818974454683,62.18791868090849,-46.96402710636384,186.46859728936363,105.95665150209128,168.54199128099847,-155.68140271063638,-2.26,122.95,2025-05-14 14:36:12.706
/home/najo/NAS/DIP/datasets/meca_insertion/vla_dataset3_hand2/front/zed_41182735_left_1747200972.710.jpg,1747200972.71,1747200972.706,0.003999948501586914,1747200972.706,22.178416263818303,35.849818974454685,-12.746334944726794,26.589818974454683,62.18791868090849,-46.96402710636384,186.46859728936363,105.95665150209128,168.54199128099847,-155.68140271063638,-2.26,122.95,2025-05-14 14:36:12.706
/home/najo/NAS/DIP/datasets/meca_insertion/vla_dataset3_hand2/right/zed_49429257_right_1747200972.729.jpg,1747200972.729,1747200972.726,0.003000020980834961,1747200972.726,22.17298640366539,35.84348413760962,-12.76805438533844,26.58348413760962,62.21506798167305,-46.95497733944232,186.46950226605577,105.9394569449404,168.61167448629416,-155.68049773394424,-2.26,122.95,2025-05-14 14:36:12.726
/home/najo/NAS/DIP/datasets/meca_insertion/vla_dataset3_hand2/right/zed_49429257_left_1747200972.729.jpg,1747200972.729,1747200972.726,0.003000020980834961,1747200972.726,22.17298640366539,35.84348413760962,-12.76805438533844,26.58348413760962,62.21506798167305,-46.95497733944232,186.46950226605577,105.9394569449404,168.61167448629416,-155.68049773394424,-2.26,122.95,2025-05-14 14:36:12.726
/home/najo/NAS/DIP/datasets/meca_insertion/vla_dataset3_hand2/top/zed_49045152_right_1747200972.747.jpg,1747200972.747,1747200972.747,0.0,1747200972.747,22.163069318383005,35.831089123635294,-12.815643505458835,26.57108912363529,62.27257418707583,-46.93514853939215,186.4719801947477,105.90227727353202,168.76287110061966,-155.67900990262615,-2.26,122.95,2025-05-14 14:36:12.747
/home/najo/NAS/DIP/datasets/meca_insertion/vla_dataset3_hand2/top/zed_49045152_left_1747200972.747.jpg,1747200972.747,1747200972.747,0.0,1747200972.747,22.163069318383005,35.831089123635294,-12.815643505458835,26.57108912363529,62.27257418707583,-46.93514853939215,186.4719801947477,105.90227727353202,168.76287110061966,-155.67900990262615,-2.26,122.95,2025-05-14 14:36:12.747
/home/najo/NAS/DIP/datasets/meca_insertion/vla_dataset3_hand2/front/zed_41182735_right_1747200973.024.jpg,1747200973.024,1747200973.019,0.004999876022338867,1747200973.019,22.04545453363215,35.685454533632154,-13.363636399103548,26.425454533632152,62.9381818654714,-46.70818180044823,186.5,105.46363633408038,170.50818193049457,-155.67,-2.26,122.94,2025-05-14 14:36:13.019
/home/najo/NAS/DIP/datasets/meca_insertion/vla_dataset3_hand2/front/zed_41182735_left_1747200973.024.jpg,1747200973.024,1747200973.019,0.004999876022338867,1747200973.019,22.04545453363215,35.685454533632154,-13.363636399103548,26.425454533632152,62.9381818654714,-46.70818180044823,186.5,105.46363633408038,170.50818193049457,-155.67,-2.26,122.94,2025-05-14 14:36:13.019
/home/najo/NAS/DIP/datasets/meca_insertion/vla_dataset3_hand2/right/zed_49429257_left_1747200973.050.jpg,1747200973.05,1747200973.049,0.0009999275207519531,1747200973.049,22.04,35.68,-13.38,26.42,62.96,-46.7,186.5,105.45,170.56,-155.67,-2.26,122.94,2025-05-14 14:36:13.049
/home/najo/NAS/DIP/datasets/meca_insertion/vla_dataset3_hand2/right/zed_49429257_right_1747200973.050.jpg,1747200973.05,1747200973.049,0.0009999275207519531,1747200973.049,22.04,35.68,-13.38,26.42,62.96,-46.7,186.5,105.45,170.56,-155.67,-2.26,122.94,2025-05-14 14:36:13.049
/home/najo/NAS/DIP/datasets/meca_insertion/vla_dataset3_hand2/top/zed_49045152_right_1747200973.085.jpg,1747200973.085,1747200973.089,0.003999948501586914,1747200973.089,22.01941177192444,35.65058824560634,-13.485882315817154,26.393529421045717,63.08941171933208,-46.65588236840952,186.50294117543936,105.36176473681904,170.89823517552702,-155.66705882456063,-2.2570588245606347,122.94,2025-05-14 14:36:13.089
/home/najo/NAS/DIP/datasets/meca_insertion/vla_dataset3_hand2/top/zed_49045152_left_1747200973.085.jpg,1747200973.085,1747200973.089,0.003999948501586914,1747200973.089,22.01941177192444,35.65058824560634,-13.485882315817154,26.393529421045717,63.08941171933208,-46.65588236840952,186.50294117543936,105.36176473681904,170.89823517552702,-155.66705882456063,-2.2570588245606347,122.94,2025-05-14 14:36:13.089
/home/najo/NAS/DIP/datasets/meca_insertion/vla_dataset3_hand2/left/zed_44377151_right_1747200973.094.jpg,1747200973.094,1747200973.099,0.004999876022338867,1747200973.099,22.01426471490555,35.643235307007934,-13.512352894771444,26.38691177630714,63.12176464916509,-46.6448529605119,186.5036764692992,105.3397059210238,170.9827939694088,-155.6663235307008,-2.256323530700793,122.94,2025-05-14 14:36:13.099
/home/najo/NAS/DIP/datasets/meca_insertion/vla_dataset3_hand2/left/zed_44377151_left_1747200973.094.jpg,1747200973.094,1747200973.099,0.004999876022338867,1747200973.099,22.01426471490555,35.643235307007934,-13.512352894771444,26.38691177630714,63.12176464916509,-46.6448529605119,186.5036764692992,105.3397059210238,170.9827939694088,-155.6663235307008,-2.256323530700793,122.94,2025-05-14 14:36:13.099
/home/najo/NAS/DIP/datasets/meca_insertion/vla_dataset3_hand2/front/zed_41182735_left_1747200973.282.jpg,1747200973.282,1747200973.285,0.003000020980834961,1747200973.285,21.93323528380544,35.53588234056652,-13.894411808017166,26.285882340566523,63.58382358097282,-46.48382351084979,186.51,105.02499996493847,172.19529425376825,-155.66,-2.25,122.94,2025-05-14 14:36:13.285
/home/najo/NAS/DIP/datasets/meca_insertion/vla_dataset3_hand2/front/zed_41182735_right_1747200973.282.jpg,1747200973.282,1747200973.285,0.003000020980834961,1747200973.285,21.93323528380544,35.53588234056652,-13.894411808017166,26.285882340566523,63.58382358097282,-46.48382351084979,186.51,105.02499996493847,172.19529425376825,-155.66,-2.25,122.94,2025-05-14 14:36:13.285
/home/najo/NAS/DIP/datasets/meca_insertion/vla_dataset3_hand2/right/zed_49429257_left_1747200973.350.jpg,1747200973.35,1747200973.351,0.0010001659393310547,1747200973.351,21.914285720773293,35.514285720773294,-13.97571425652018,26.26428572077329,63.68142853574688,-46.45142858115994,186.51,104.96000002270652,172.45285704878725,-155.66,-2.25,122.94,2025-05-14 14:36:13.351
/home/najo/NAS/DIP/datasets/meca_insertion/vla_dataset3_hand2/right/zed_49429257_right_1747200973.350.jpg,1747200973.35,1747200973.351,0.0010001659393310547,1747200973.351,21.914285720773293,35.514285720773294,-13.97571425652018,26.26428572077329,63.68142853574688,-46.45142858115994,186.51,104.96000002270652,172.45285704878725,-155.66,-2.25,122.94,2025-05-14 14:36:13.351
/home/najo/NAS/DIP/datasets/meca_insertion/vla_dataset3_hand2/top/zed_49045152_right_1747200973.390.jpg,1747200973.39,1747200973.391,0.0009999275207519531,1747200973.391,21.90666668180435,35.506666681804354,-14.009999931880415,26.25666668180435,63.72333325007607,-46.44000002270653,186.51,104.93333338631524,172.5633331138369,-155.66,-2.25,122.94,2025-05-14 14:36:13.391
/home/najo/NAS/DIP/datasets/meca_insertion/vla_dataset3_hand2/top/zed_49045152_left_1747200973.390.jpg,1747200973.39,1747200973.391,0.0009999275207519531,1747200973.391,21.90666668180435,35.506666681804354,-14.009999931880415,26.25666668180435,63.72333325007607,-46.44000002270653,186.51,104.93333338631524,172.5633331138369,-155.66,-2.25,122.94,2025-05-14 14:36:13.391
/home/najo/NAS/DIP/datasets/meca_insertion/vla_dataset3_hand2/left/zed_44377151_right_1747200973.400.jpg,1747200973.4,1747200973.401,0.0009999275207519531,1747200973.401,21.904761922062114,35.50476192206212,-14.018571350720478,26.25476192206212,63.73380942865836,-46.43714288309317,186.51,104.9266667272174,172.5909521300993,-155.66,-2.25,122.94,2025-05-14 14:36:13.401
/home/najo/NAS/DIP/datasets/meca_insertion/vla_dataset3_hand2/left/zed_44377151_left_1747200973.400.jpg,1747200973.4,1747200973.401,0.0009999275207519531,1747200973.401,21.904761922062114,35.50476192206212,-14.018571350720478,26.25476192206212,63.73380942865836,-46.43714288309317,186.51,104.9266667272174,172.5909521300993,-155.66,-2.25,122.94,2025-05-14 14:36:13.401
/home/najo/NAS/DIP/datasets/meca_insertion/vla_dataset3_hand2/front/zed_41182735_left_1747200973.614.jpg,1747200973.614,1747200973.616,0.0019998550415039062,1747200973.616,21.812802571274972,35.377070095033304,-14.455987143625114,26.1370700950333,64.27318457235013,-46.25560514254995,186.5,104.55547780885824,173.9794263833587,-155.66,-2.24,122.93,2025-05-14 14:36:13.616
/home/najo/NAS/DIP/datasets/meca_insertion/vla_dataset3_hand2/front/zed_41182735_right_1747200973.614.jpg,1747200973.614,1747200973.616,0.0019998550415039062,1747200973.616,21.812802571274972,35.377070095033304,-14.455987143625114,26.1370700950333,64.27318457235013,-46.25560514254995,186.5,104.55547780885824,173.9794263833587,-155.66,-2.24,122.93,2025-05-14 14:36:13.616
/home/najo/NAS/DIP/datasets/meca_insertion/vla_dataset3_hand2/right/zed_49429257_left_1747200973.687.jpg,1747200973.687,1747200973.683,0.003999948501586914,1747200973.683,21.8,35.36,-14.52,26.12,64.35,-46.23,186.5,104.5,174.18,-155.66,-2.24,122.93,2025-05-14 14:36:13.683
/home/najo/NAS/DIP/datasets/meca_insertion/vla_dataset3_hand2/right/zed_49429257_right_1747200973.687.jpg,1747200973.687,1747200973.683,0.003999948501586914,1747200973.683,21.8,35.36,-14.52,26.12,64.35,-46.23,186.5,104.5,174.18,-155.66,-2.24,122.93,2025-05-14 14:36:13.683
/home/najo/NAS/DIP/datasets/meca_insertion/vla_dataset3_hand2/top/zed_49045152_left_1747200973.718.jpg,1747200973.718,1747200973.713,0.004999876022338867,1747200973.713,21.78148149238311,35.33962964162142,-14.597777731990927,26.099629641621423,64.44444438884612,-46.1966666862896,186.49444444771493,104.43148152181752,174.4262961513046,-155.66,-2.2381481492383117,122.93,2025-05-14 14:36:13.713
/home/najo/NAS/DIP/datasets/meca_insertion/vla_dataset3_hand2/top/zed_49045152_right_1747200973.718.jpg,1747200973.718,1747200973.713,0.004999876022338867,1747200973.713,21.78148149238311,35.33962964162142,-14.597777731990927,26.099629641621423,64.44444438884612,-46.1966666862896,186.49444444771493,104.43148152181752,174.4262961513046,-155.66,-2.2381481492383117,122.93,2025-05-14 14:36:13.713
/home/najo/NAS/DIP/datasets/meca_insertion/vla_dataset3_hand2/left/zed_44377151_left_1747200973.752.jpg,1747200973.752,1747200973.753,0.0009999275207519531,1747200973.753,21.756790148893927,35.31246916378332,-14.7014813746455,26.072469163783325,64.57037024064095,-46.15222226800907,186.48703704466817,104.34012355090752,174.75469101971075,-155.66,-2.235679014889393,122.93,2025-05-14 14:36:13.753
/home/najo/NAS/DIP/datasets/meca_insertion/vla_dataset3_hand2/left/zed_44377151_right_1747200973.752.jpg,1747200973.752,1747200973.753,0.0009999275207519531,1747200973.753,21.756790148893927,35.31246916378332,-14.7014813746455,26.072469163783325,64.57037024064095,-46.15222226800907,186.48703704466817,104.34012355090752,174.75469101971075,-155.66,-2.235679014889393,122.93,2025-05-14 14:36:13.753
/home/najo/NAS/DIP/datasets/meca_insertion/vla_dataset3_hand2/front/zed_41182735_left_1747200973.915.jpg,1747200973.915,1747200973.915,0.0,1747200973.915,21.679411783955366,35.215686306592275,-15.042941080223178,25.982549045273817,64.98352929626782,-46.00882356791073,186.46313726131845,104.04078439713992,175.83941145671417,-155.66686273868154,-2.23,122.93,2025-05-14 14:36:13.915
/home/najo/NAS/DIP/datasets/meca_insertion/vla_dataset3_hand2/front/zed_41182735_right_1747200973.915.jpg,1747200973.915,1747200973.915,0.0,1747200973.915,21.679411783955366,35.215686306592275,-15.042941080223178,25.982549045273817,64.98352929626782,-46.00882356791073,186.46313726131845,104.04078439713992,175.83941145671417,-155.66686273868154,-2.23,122.93,2025-05-14 14:36:13.915
/home/najo/NAS/DIP/datasets/meca_insertion/vla_dataset3_hand2/top/zed_49045152_right_1747200973.966.jpg,1747200973.966,1747200973.967,0.0009999275207519531,1747200973.967,21.666330277637424,35.19633027763743,-15.10651375063159,25.96633027763742,65.06018347299417,-45.98266055527485,186.46,103.98532111054968,176.04321097425736,-155.67,-2.23,122.93,2025-05-14 14:36:13.967
/home/najo/NAS/DIP/datasets/meca_insertion/vla_dataset3_hand2/top/zed_49045152_left_1747200973.966.jpg,1747200973.966,1747200973.967,0.0009999275207519531,1747200973.967,21.666330277637424,35.19633027763743,-15.10651375063159,25.96633027763742,65.06018347299417,-45.98266055527485,186.46,103.98532111054968,176.04321097425736,-155.67,-2.23,122.93,2025-05-14 14:36:13.967
/home/najo/NAS/DIP/datasets/meca_insertion/vla_dataset3_hand2/right/zed_49429257_left_1747200974.021.jpg,1747200974.021,1747200974.017,0.003999948501586914,1747200974.017,21.657155971730983,35.18715597173099,-15.147798127210567,25.957155971730984,65.11064215547958,-45.96431194346197,186.46,103.94862388692394,176.17623840990072,-155.67,-2.23,122.93,2025-05-14 14:36:14.017
/home/najo/NAS/DIP/datasets/meca_insertion/vla_dataset3_hand2/right/zed_49429257_right_1747200974.021.jpg,1747200974.021,1747200974.017,0.003999948501586914,1747200974.017,21.657155971730983,35.18715597173099,-15.147798127210567,25.957155971730984,65.11064215547958,-45.96431194346197,186.46,103.94862388692394,176.17623840990072,-155.67,-2.23,122.93,2025-05-14 14:36:14.017
/home/najo/NAS/DIP/datasets/meca_insertion/vla_dataset3_hand2/left/zed_44377151_right_1747200974.056.jpg,1747200974.056,1747200974.056,0.0,1747200974.056,21.65,35.18,-15.18,25.95,65.15,-45.95,186.46,103.92,176.28,-155.67,-2.23,122.93,2025-05-14 14:36:14.056
/home/najo/NAS/DIP/datasets/meca_insertion/vla_dataset3_hand2/left/zed_44377151_left_1747200974.056.jpg,1747200974.056,1747200974.056,0.0,1747200974.056,21.65,35.18,-15.18,25.95,65.15,-45.95,186.46,103.92,176.28,-155.67,-2.23,122.93,2025-05-14 14:36:14.056
/home/najo/NAS/DIP/datasets/meca_insertion/vla_dataset3_hand2/front/zed_41182735_right_1747200974.196.jpg,1747200974.196,1747200974.201,0.004999876022338867,1747200974.201,21.564230779811467,35.071346169717195,-15.574615321131205,25.8413461697172,65.63326915141401,-45.78557694952866,186.4271153899057,103.56826928896304,177.52961518358214,-155.67,-2.22,122.93,2025-05-14 14:36:14.201
/home/najo/NAS/DIP/datasets/meca_insertion/vla_dataset3_hand2/front/zed_41182735_left_1747200974.196.jpg,1747200974.196,1747200974.201,0.004999876022338867,1747200974.201,21.564230779811467,35.071346169717195,-15.574615321131205,25.8413461697172,65.63326915141401,-45.78557694952866,186.4271153899057,103.56826928896304,177.52961518358214,-155.67,-2.22,122.93,2025-05-14 14:36:14.201
/home/najo/NAS/DIP/datasets/meca_insertion/vla_dataset3_hand2/top/zed_49045152_right_1747200974.251.jpg,1747200974.251,1747200974.251,0.0,1747200974.251,21.55461541283057,35.05692311924586,-15.632307523016545,25.826923119245865,65.70538440377068,-45.76153853207644,186.42230770641527,103.51538477056816,177.71230715621903,-155.67,-2.22,122.93,2025-05-14 14:36:14.251
/home/najo/NAS/DIP/datasets/meca_insertion/vla_dataset3_hand2/top/zed_49045152_left_1747200974.251.jpg,1747200974.251,1747200974.251,0.0,1747200974.251,21.55461541283057,35.05692311924586,-15.632307523016545,25.826923119245865,65.70538440377068,-45.76153853207644,186.42230770641527,103.51538477056816,177.71230715621903,-155.67,-2.22,122.93,2025-05-14 14:36:14.251
/home/najo/NAS/DIP/datasets/meca_insertion/vla_dataset3_hand2/right/zed_49429257_left_1747200974.294.jpg,1747200974.294,1747200974.295,0.0010001659393310547,1747200974.295,21.542523362820027,35.04065420352503,-15.693644867309878,25.810654203525036,65.78112150448985,-45.73691588493504,186.41626168141,103.4600934512801,177.9065420798146,-155.67186915929497,-2.218130840705007,122.93,2025-05-14 14:36:14.295
/home/najo/NAS/DIP/datasets/meca_insertion/vla_dataset3_hand2/right/zed_49429257_right_1747200974.294.jpg,1747200974.294,1747200974.295,0.0010001659393310547,1747200974.295,21.542523362820027,35.04065420352503,-15.693644867309878,25.810654203525036,65.78112150448985,-45.73691588493504,186.41626168141,103.4600934512801,177.9065420798146,-155.67186915929497,-2.218130840705007,122.93,2025-05-14 14:36:14.295
/home/najo/NAS/DIP/datasets/meca_insertion/vla_dataset3_hand2/left/zed_44377151_right_1747200974.350.jpg,1747200974.35,1747200974.345,0.004999876022338867,1747200974.345,21.523831769870096,35.017289712337615,-15.777757035584573,25.787289712337618,65.88392526571447,-45.70420559727267,186.40691588493505,103.38532707948038,178.17289727935116,-155.6765420575325,-2.213457942467524,122.93,2025-05-14 14:36:14.345
/home/najo/NAS/DIP/datasets/meca_insertion/vla_dataset3_hand2/left/zed_44377151_left_1747200974.350.jpg,1747200974.35,1747200974.345,0.004999876022338867,1747200974.345,21.523831769870096,35.017289712337615,-15.777757035584573,25.787289712337618,65.88392526571447,-45.70420559727267,186.40691588493505,103.38532707948038,178.17289727935116,-155.6765420575325,-2.213457942467524,122.93,2025-05-14 14:36:14.345
/home/najo/NAS/DIP/datasets/meca_insertion/vla_dataset3_hand2/front/zed_41182735_left_1747200974.530.jpg,1747200974.53,1747200974.531,0.0009999275207519531,1747200974.531,21.44529412424688,34.91529412424688,-16.131176440889046,25.69529412424688,66.31588231664217,-45.55294118637032,186.35764706212345,103.06117649698751,179.28823519842027,-155.68235293787657,-2.207647062123439,122.93,2025-05-14 14:36:14.531
/home/najo/NAS/DIP/datasets/meca_insertion/vla_dataset3_hand2/front/zed_41182735_right_1747200974.530.jpg,1747200974.53,1747200974.531,0.0009999275207519531,1747200974.531,21.44529412424688,34.91529412424688,-16.131176440889046,25.69529412424688,66.31588231664217,-45.55294118637032,186.35764706212345,103.06117649698751,179.28823519842027,-155.68235293787657,-2.207647062123439,122.93,2025-05-14 14:36:14.531
/home/najo/NAS/DIP/datasets/meca_insertion/vla_dataset3_hand2/top/zed_49045152_right_1747200974.581.jpg,1747200974.581,1747200974.581,0.0,1747200974.581,21.43941175150624,34.90941175150624,-16.157647118221902,25.68941175150624,66.34823536671567,-45.54411762725937,186.35470587575315,103.03764700602495,179.37352960315943,-155.68529412424687,-2.204705875753122,122.93,2025-05-14 14:36:14.581
/home/najo/NAS/DIP/datasets/meca_insertion/vla_dataset3_hand2/top/zed_49045152_left_1747200974.581.jpg,1747200974.581,1747200974.581,0.0,1747200974.581,21.43941175150624,34.90941175150624,-16.157647118221902,25.68941175150624,66.34823536671567,-45.54411762725937,186.35470587575315,103.03764700602495,179.37352960315943,-155.68529412424687,-2.204705875753122,122.93,2025-05-14 14:36:14.581
/home/najo/NAS/DIP/datasets/meca_insertion/vla_dataset3_hand2/right/zed_49429257_right_1747200974.626.jpg,1747200974.626,1747200974.621,0.004999876022338867,1747200974.621,21.43470587575312,34.90470587575312,-16.178823559110953,25.68470587575312,66.37411768335784,-45.537058813629685,186.35235293787656,103.01882350301248,179.44176480157972,-155.68764706212343,-2.202352937876561,122.93,2025-05-14 14:36:14.621
/home/najo/NAS/DIP/datasets/meca_insertion/vla_dataset3_hand2/right/zed_49429257_left_1747200974.626.jpg,1747200974.626,1747200974.621,0.004999876022338867,1747200974.621,21.43470587575312,34.90470587575312,-16.178823559110953,25.68470587575312,66.37411768335784,-45.537058813629685,186.35235293787656,103.01882350301248,179.44176480157972,-155.68764706212343,-2.202352937876561,122.93,2025-05-14 14:36:14.621
/home/najo/NAS/DIP/datasets/meca_insertion/vla_dataset3_hand2/left/zed_44377151_left_1747200974.679.jpg,1747200974.679,1747200974.681,0.002000093460083008,1747200974.681,21.41448276499931,34.879310353332414,-16.272413763336544,25.659310353332412,66.48793099833723,-45.49896552999862,186.3396551766662,102.93275864833036,179.73931025056572,-155.6917241372223,-2.198275862777701,122.93,2025-05-14 14:36:14.681
/home/najo/NAS/DIP/datasets/meca_insertion/vla_dataset3_hand2/left/zed_44377151_right_1747200974.679.jpg,1747200974.679,1747200974.681,0.002000093460083008,1747200974.681,21.41448276499931,34.879310353332414,-16.272413763336544,25.659310353332412,66.48793099833723,-45.49896552999862,186.3396551766662,102.93275864833036,179.73931025056572,-155.6917241372223,-2.198275862777701,122.93,2025-05-14 14:36:14.681
/home/najo/NAS/DIP/datasets/meca_insertion/vla_dataset3_hand2/front/zed_41182735_left_1747200974.886.jpg,1747200974.886,1747200974.887,0.0010001659393310547,1747200974.887,21.3,34.73,-16.8,25.52,67.13,-45.27,186.26,102.44,181.41,-155.71,-2.19,122.93,2025-05-14 14:36:14.887
/home/najo/NAS/DIP/datasets/meca_insertion/vla_dataset3_hand2/front/zed_41182735_right_1747200974.886.jpg,1747200974.886,1747200974.887,0.0010001659393310547,1747200974.887,21.3,34.73,-16.8,25.52,67.13,-45.27,186.26,102.44,181.41,-155.71,-2.19,122.93,2025-05-14 14:36:14.887
/home/najo/NAS/DIP/datasets/meca_insertion/vla_dataset3_hand2/left/zed_44377151_left_1747200974.947.jpg,1747200974.947,1747200974.947,0.0,1747200974.947,21.3,34.73,-16.8,25.52,67.13,-45.27,186.26,102.44,181.41,-155.71,-2.19,122.93,2025-05-14 14:36:14.947
/home/najo/NAS/DIP/datasets/meca_insertion/vla_dataset3_hand2/left/zed_44377151_right_1747200974.947.jpg,1747200974.947,1747200974.947,0.0,1747200974.947,21.3,34.73,-16.8,25.52,67.13,-45.27,186.26,102.44,181.41,-155.71,-2.19,122.93,2025-05-14 14:36:14.947
/home/najo/NAS/DIP/datasets/meca_insertion/vla_dataset3_hand2/right/zed_49429257_left_1747200975.000.jpg,1747200975.0,1747200975.003,0.003000020980834961,1747200975.003,21.292481204355354,34.720977445226424,-16.833834580400904,25.510977445226427,67.17135337604554,-45.25646616783964,186.25398496348427,102.40766917872804,181.51676689815395,-155.71075187956447,-2.188496240871071,122.93,2025-05-14 14:36:15.003
/home/najo/NAS/DIP/datasets/meca_insertion/vla_dataset3_hand2/right/zed_49429257_right_1747200975.000.jpg,1747200975.0,1747200975.003,0.003000020980834961,1747200975.003,21.292481204355354,34.720977445226424,-16.833834580400904,25.510977445226427,67.17135337604554,-45.25646616783964,186.25398496348427,102.40766917872804,181.51676689815395,-155.71075187956447,-2.188496240871071,122.93,2025-05-14 14:36:15.003
/home/najo/NAS/DIP/datasets/meca_insertion/vla_dataset3_hand2/top/zed_49045152_left_1747200975.018.jpg,1747200975.018,1747200975.013,0.004999876022338867,1747200975.013,21.28496240871071,34.71195489045285,-16.867669160801803,25.50195489045285,67.2127067520911,-45.242932335679285,186.24796992696852,102.37533835745606,181.62353379630792,-155.71150375912893,-2.186992481742142,122.93,2025-05-14 14:36:15.013
/home/najo/NAS/DIP/datasets/meca_insertion/vla_dataset3_hand2/top/zed_49045152_right_1747200975.018.jpg,1747200975.018,1747200975.013,0.004999876022338867,1747200975.013,21.28496240871071,34.71195489045285,-16.867669160801803,25.50195489045285,67.2127067520911,-45.242932335679285,186.24796992696852,102.37533835745606,181.62353379630792,-155.71150375912893,-2.186992481742142,122.93,2025-05-14 14:36:15.013
/home/najo/NAS/DIP/datasets/meca_insertion/vla_dataset3_hand2/right/zed_49429257_left_1747200975.248.jpg,1747200975.248,1747200975.246,0.0019998550415039062,1747200975.246,21.16,34.55837398405502,-17.434878047834946,25.34837398405502,67.90487804783496,-45.00837398405502,186.148373984055,101.83512195216504,183.4046341435048,-155.73,-2.1683739840550187,122.93,2025-05-14 14:36:15.246
/home/najo/NAS/DIP/datasets/meca_insertion/vla_dataset3_hand2/right/zed_49429257_right_1747200975.248.jpg,1747200975.248,1747200975.246,0.0019998550415039062,1747200975.246,21.16,34.55837398405502,-17.434878047834946,25.34837398405502,67.90487804783496,-45.00837398405502,186.148373984055,101.83512195216504,183.4046341435048,-155.73,-2.1683739840550187,122.93,2025-05-14 14:36:15.246
/home/najo/NAS/DIP/datasets/meca_insertion/vla_dataset3_hand2/front/zed_41182735_left_1747200975.307.jpg,1747200975.307,1747200975.306,0.0009999275207519531,1747200975.306,21.16,34.553495936220074,-17.449512191339778,25.343495936220076,67.91951219133979,-45.00349593622008,186.1434959362201,101.82048780866022,183.44853657401933,-155.73,-2.163495936220074,122.93,2025-05-14 14:36:15.306
/home/najo/NAS/DIP/datasets/meca_insertion/vla_dataset3_hand2/front/zed_41182735_right_1747200975.307.jpg,1747200975.307,1747200975.306,0.0009999275207519531,1747200975.306,21.16,34.553495936220074,-17.449512191339778,25.343495936220076,67.91951219133979,-45.00349593622008,186.1434959362201,101.82048780866022,183.44853657401933,-155.73,-2.163495936220074,122.93,2025-05-14 14:36:15.306
/home/najo/NAS/DIP/datasets/meca_insertion/vla_dataset3_hand2/top/zed_49045152_left_1747200975.352.jpg,1747200975.352,1747200975.349,0.003000020980834961,1747200975.349,21.16,34.55,-17.46,25.34,67.93,-45.0,186.14,101.81,183.48,-155.73,-2.16,122.93,2025-05-14 14:36:15.349
/home/najo/NAS/DIP/datasets/meca_insertion/vla_dataset3_hand2/top/zed_49045152_right_1747200975.352.jpg,1747200975.352,1747200975.349,0.003000020980834961,1747200975.349,21.16,34.55,-17.46,25.34,67.93,-45.0,186.14,101.81,183.48,-155.73,-2.16,122.93,2025-05-14 14:36:15.349
/home/najo/NAS/DIP/datasets/meca_insertion/vla_dataset3_hand2/left/zed_44377151_left_1747200975.378.jpg,1747200975.378,1747200975.379,0.0009999275207519531,1747200975.379,21.13623766302744,34.5202970787843,-17.566930516376512,25.310297078784306,68.06069285334908,-44.955445618176455,186.11623766302745,101.70603977574504,183.81861330185896,-155.73594058424314,-2.15702970787843,122.93297029212157,2025-05-14 14:36:15.379
/home/najo/NAS/DIP/datasets/meca_insertion/vla_dataset3_hand2/left/zed_44377151_right_1747200975.378.jpg,1747200975.378,1747200975.379,0.0009999275207519531,1747200975.379,21.13623766302744,34.5202970787843,-17.566930516376512,25.310297078784306,68.06069285334908,-44.955445618176455,186.11623766302745,101.70603977574504,183.81861330185896,-155.73594058424314,-2.15702970787843,122.93297029212157,2025-05-14 14:36:15.379
/home/najo/NAS/DIP/datasets/meca_insertion/vla_dataset3_hand2/right/zed_49429257_right_1747200975.567.jpg,1747200975.567,1747200975.57,0.003000020980834961,1747200975.57,21.038095240257764,34.39809524025776,-18.005714279226705,25.198095240257764,68.59761903896894,-44.768095240257765,186.01809524025776,101.27428572077328,185.19904759742235,-155.76,-2.1480952402577644,122.94,2025-05-14 14:36:15.570
/home/najo/NAS/DIP/datasets/meca_insertion/vla_dataset3_hand2/right/zed_49429257_left_1747200975.567.jpg,1747200975.567,1747200975.57,0.003000020980834961,1747200975.57,21.038095240257764,34.39809524025776,-18.005714279226705,25.198095240257764,68.59761903896894,-44.768095240257765,186.01809524025776,101.27428572077328,185.19904759742235,-155.76,-2.1480952402577644,122.94,2025-05-14 14:36:15.570
/home/najo/NAS/DIP/datasets/meca_insertion/vla_dataset3_hand2/top/zed_49045152_left_1747200975.626.jpg,1747200975.626,1747200975.63,0.004000186920166016,1747200975.63,21.032380938324533,34.39238093832453,-18.02285718502641,25.192380938324533,68.62047624670187,-44.76238093832453,186.01238093832453,101.2571428149736,185.2561906167547,-155.76,-2.1423809383245307,122.94,2025-05-14 14:36:15.630
/home/najo/NAS/DIP/datasets/meca_insertion/vla_dataset3_hand2/top/zed_49045152_right_1747200975.626.jpg,1747200975.626,1747200975.63,0.004000186920166016,1747200975.63,21.032380938324533,34.39238093832453,-18.02285718502641,25.192380938324533,68.62047624670187,-44.76238093832453,186.01238093832453,101.2571428149736,185.2561906167547,-155.76,-2.1423809383245307,122.94,2025-05-14 14:36:15.630
/home/najo/NAS/DIP/datasets/meca_insertion/vla_dataset3_hand2/front/zed_41182735_left_1747200975.690.jpg,1747200975.69,1747200975.695,0.004999876022338867,1747200975.695,20.999523844124237,34.35190480515529,-18.16714270144096,25.15190480515529,68.79761885731672,-44.70285720773293,185.97952384412423,101.11285729855904,185.7104757017452,-155.76761903896897,-2.136190480515529,122.94,2025-05-14 14:36:15.695
/home/najo/NAS/DIP/datasets/meca_insertion/vla_dataset3_hand2/front/zed_41182735_right_1747200975.690.jpg,1747200975.69,1747200975.695,0.004999876022338867,1747200975.695,20.999523844124237,34.35190480515529,-18.16714270144096,25.15190480515529,68.79761885731672,-44.70285720773293,185.97952384412423,101.11285729855904,185.7104757017452,-155.76761903896897,-2.136190480515529,122.94,2025-05-14 14:36:15.695
/home/najo/NAS/DIP/datasets/meca_insertion/vla_dataset3_hand2/left/zed_44377151_right_1747200975.706.jpg,1747200975.706,1747200975.705,0.0010001659393310547,1747200975.705,20.99190480515529,34.342381006444114,-18.2014283768012,25.14238100644411,68.8395235716459,-44.68857150966617,185.97190480515528,101.0785716231988,185.81809462718152,-155.76952379871116,-2.135238100644411,122.94,2025-05-14 14:36:15.705
/home/najo/NAS/DIP/datasets/meca_insertion/vla_dataset3_hand2/left/zed_44377151_left_1747200975.706.jpg,1747200975.706,1747200975.705,0.0010001659393310547,1747200975.705,20.99190480515529,34.342381006444114,-18.2014283768012,25.14238100644411,68.8395235716459,-44.68857150966617,185.97190480515528,101.0785716231988,185.81809462718152,-155.76952379871116,-2.135238100644411,122.94,2025-05-14 14:36:15.705
/home/najo/NAS/DIP/datasets/meca_insertion/vla_dataset3_hand2/right/zed_49429257_right_1747200975.906.jpg,1747200975.906,1747200975.91,0.004000186920166016,1747200975.91,20.912063472240355,34.236031736120175,-18.593809583278933,25.04206347224036,69.31777784715875,-44.52809520836053,185.8720634722404,100.68619041672106,187.0514287498368,-155.79396826387983,-2.12,122.94396826387982,2025-05-14 14:36:15.910
/home/najo/NAS/DIP/datasets/meca_insertion/vla_dataset3_hand2/right/zed_49429257_left_1747200975.906.jpg,1747200975.906,1747200975.91,0.004000186920166016,1747200975.91,20.912063472240355,34.236031736120175,-18.593809583278933,25.04206347224036,69.31777784715875,-44.52809520836053,185.8720634722404,100.68619041672106,187.0514287498368,-155.79396826387983,-2.12,122.94396826387982,2025-05-14 14:36:15.910
/home/najo/NAS/DIP/datasets/meca_insertion/vla_dataset3_hand2/left/zed_44377151_left_1747200975.986.jpg,1747200975.986,1747200975.986,0.0,1747200975.986,20.9,34.23,-18.63,25.03,69.36,-44.51,185.86,100.65,187.16,-155.8,-2.12,122.95,2025-05-14 14:36:15.986
/home/najo/NAS/DIP/datasets/meca_insertion/vla_dataset3_hand2/left/zed_44377151_right_1747200975.986.jpg,1747200975.986,1747200975.986,0.0,1747200975.986,20.9,34.23,-18.63,25.03,69.36,-44.51,185.86,100.65,187.16,-155.8,-2.12,122.95,2025-05-14 14:36:15.986
/home/najo/NAS/DIP/datasets/meca_insertion/vla_dataset3_hand2/top/zed_49045152_right_1747200976.028.jpg,1747200976.028,1747200976.026,0.002000093460083008,1747200976.026,20.87538461538461,34.19615384615384,-18.75,24.99923076923077,69.50769230769231,-44.46076923076923,185.82615384615383,100.52692307692308,187.53846153846152,-155.80615384615385,-2.113846153846154,122.95,2025-05-14 14:36:16.026
/home/najo/NAS/DIP/datasets/meca_insertion/vla_dataset3_hand2/top/zed_49045152_left_1747200976.028.jpg,1747200976.028,1747200976.026,0.002000093460083008,1747200976.026,20.87538461538461,34.19615384615384,-18.75,24.99923076923077,69.50769230769231,-44.46076923076923,185.82615384615383,100.52692307692308,187.53846153846152,-155.80615384615385,-2.113846153846154,122.95,2025-05-14 14:36:16.026
/home/najo/NAS/DIP/datasets/meca_insertion/vla_dataset3_hand2/front/zed_41182735_right_1747200976.044.jpg,1747200976.044,1747200976.046,0.002000093460083008,1747200976.046,20.86307692307692,34.17923076923076,-18.81,24.983846153846155,69.58153846153846,-44.43615384615384,185.8092307692308,100.46538461538462,187.7276923076923,-155.80923076923077,-2.1107692307692307,122.95,2025-05-14 14:36:16.046
/home/najo/NAS/DIP/datasets/meca_insertion/vla_dataset3_hand2/front/zed_41182735_left_1747200976.044.jpg,1747200976.044,1747200976.046,0.002000093460083008,1747200976.046,20.86307692307692,34.17923076923076,-18.81,24.983846153846155,69.58153846153846,-44.43615384615384,185.8092307692308,100.46538461538462,187.7276923076923,-155.80923076923077,-2.1107692307692307,122.95,2025-05-14 14:36:16.046
/home/najo/NAS/DIP/datasets/meca_insertion/vla_dataset3_hand2/right/zed_49429257_left_1747200976.205.jpg,1747200976.205,1747200976.206,0.0010001659393310547,1747200976.206,20.789999980131807,34.0899999801318,-19.13250007450573,24.89999998013181,69.97500008940688,-44.304999970197706,185.7199999801318,100.13749992549428,188.73500022848424,-155.82750000496705,-2.1,122.95,2025-05-14 14:36:16.206
/home/najo/NAS/DIP/datasets/meca_insertion/vla_dataset3_hand2/right/zed_49429257_right_1747200976.205.jpg,1747200976.205,1747200976.206,0.0010001659393310547,1747200976.206,20.789999980131807,34.0899999801318,-19.13250007450573,24.89999998013181,69.97500008940688,-44.304999970197706,185.7199999801318,100.13749992549428,188.73500022848424,-155.82750000496705,-2.1,122.95,2025-05-14 14:36:16.206
/home/najo/NAS/DIP/datasets/meca_insertion/vla_dataset3_hand2/top/zed_49045152_right_1747200976.274.jpg,1747200976.274,1747200976.276,0.002000093460083008,1747200976.276,20.77238096103106,34.06476192206212,-19.215714233813653,24.87476192206212,70.07333327278259,-44.27095240257764,185.69476192206213,100.05047624670188,188.9947617404099,-155.83380951948448,-2.096190480515529,122.95380951948448,2025-05-14 14:36:16.276
/home/najo/NAS/DIP/datasets/meca_insertion/vla_dataset3_hand2/top/zed_49045152_left_1747200976.274.jpg,1747200976.274,1747200976.276,0.002000093460083008,1747200976.276,20.77238096103106,34.06476192206212,-19.215714233813653,24.87476192206212,70.07333327278259,-44.27095240257764,185.69476192206213,100.05047624670188,188.9947617404099,-155.83380951948448,-2.096190480515529,122.95380951948448,2025-05-14 14:36:16.276
/home/najo/NAS/DIP/datasets/meca_insertion/vla_dataset3_hand2/left/zed_44377151_right_1747200976.316.jpg,1747200976.316,1747200976.316,0.0,1747200976.316,20.76476192206212,34.04952384412423,-19.261428467627304,24.859523844124237,70.12666654556519,-44.25190480515529,185.67952384412425,100.00095249340376,189.13952348081975,-155.83761903896894,-2.0923809610310578,122.95761903896894,2025-05-14 14:36:16.316
/home/najo/NAS/DIP/datasets/meca_insertion/vla_dataset3_hand2/left/zed_44377151_left_1747200976.316.jpg,1747200976.316,1747200976.316,0.0,1747200976.316,20.76476192206212,34.04952384412423,-19.261428467627304,24.859523844124237,70.12666654556519,-44.25190480515529,185.67952384412425,100.00095249340376,189.13952348081975,-155.83761903896894,-2.0923809610310578,122.95761903896894,2025-05-14 14:36:16.316
/home/najo/NAS/DIP/datasets/meca_insertion/vla_dataset3_hand2/front/zed_41182735_right_1747200976.353.jpg,1747200976.353,1747200976.351,0.0019998550415039062,1747200976.351,20.753617028831734,34.03219859079434,-19.31765954172916,24.84290780981304,70.19404251289743,-44.22794327668216,185.66148937177564,99.94163123925216,189.3165247202809,-155.8421276570561,-2.0892907809813037,122.96,2025-05-14 14:36:16.351
/home/najo/NAS/DIP/datasets/meca_insertion/vla_dataset3_hand2/front/zed_41182735_left_1747200976.353.jpg,1747200976.353,1747200976.351,0.0019998550415039062,1747200976.351,20.753617028831734,34.03219859079434,-19.31765954172916,24.84290780981304,70.19404251289743,-44.22794327668216,185.66148937177564,99.94163123925216,189.3165247202809,-155.8421276570561,-2.0892907809813037,122.96,2025-05-14 14:36:16.351
/home/najo/NAS/DIP/datasets/meca_insertion/vla_dataset3_hand2/right/zed_49429257_left_1747200976.517.jpg,1747200976.517,1747200976.512,0.004999876022338867,1747200976.512,20.66104477293269,33.91880596616587,-19.720298521802874,24.738805966165867,70.68925374887019,-44.05432835263222,185.53432835263223,99.5274626714303,190.57537317894227,-155.87447761353366,-2.0777611932331737,122.96223880676682,2025-05-14 14:36:16.512
/home/najo/NAS/DIP/datasets/meca_insertion/vla_dataset3_hand2/right/zed_49429257_right_1747200976.517.jpg,1747200976.517,1747200976.512,0.004999876022338867,1747200976.512,20.66104477293269,33.91880596616587,-19.720298521802874,24.738805966165867,70.68925374887019,-44.05432835263222,185.53432835263223,99.5274626714303,190.57537317894227,-155.87447761353366,-2.0777611932331737,122.96223880676682,2025-05-14 14:36:16.512
/home/najo/NAS/DIP/datasets/meca_insertion/vla_dataset3_hand2/top/zed_49045152_left_1747200976.578.jpg,1747200976.578,1747200976.582,0.003999948501586914,1747200976.582,20.640149243108983,33.89268655388623,-19.81432840600958,24.71268655388623,70.8041791629006,-44.01776117544072,185.4977611754407,99.42820890476766,190.86791059647425,-155.8849253784455,-2.0725373107772453,122.96746268922276,2025-05-14 14:36:16.582
/home/najo/NAS/DIP/datasets/meca_insertion/vla_dataset3_hand2/top/zed_49045152_right_1747200976.578.jpg,1747200976.578,1747200976.582,0.003999948501586914,1747200976.582,20.640149243108983,33.89268655388623,-19.81432840600958,24.71268655388623,70.8041791629006,-44.01776117544072,185.4977611754407,99.42820890476766,190.86791059647425,-155.8849253784455,-2.0725373107772453,122.96746268922276,2025-05-14 14:36:16.582
/home/najo/NAS/DIP/datasets/meca_insertion/vla_dataset3_hand2/front/zed_41182735_right_1747200976.637.jpg,1747200976.637,1747200976.636,0.0010001659393310547,1747200976.636,20.620099026261432,33.868118831513726,-19.907524673945115,24.68811883151372,70.91742564768369,-43.98019805252287,185.4641584420183,99.32851493655946,191.15851460607848,-155.89396038949542,-2.066039610504573,122.97,2025-05-14 14:36:16.636
/home/najo/NAS/DIP/datasets/meca_insertion/vla_dataset3_hand2/front/zed_41182735_left_1747200976.637.jpg,1747200976.637,1747200976.636,0.0010001659393310547,1747200976.636,20.620099026261432,33.868118831513726,-19.907524673945115,24.68811883151372,70.91742564768369,-43.98019805252287,185.4641584420183,99.32851493655946,191.15851460607848,-155.89396038949542,-2.066039610504573,122.97,2025-05-14 14:36:16.636
/home/najo/NAS/DIP/datasets/meca_insertion/vla_dataset3_hand2/left/zed_44377151_right_1747200976.687.jpg,1747200976.687,1747200976.686,0.0009999275207519531,1747200976.686,20.5953464738861,33.838415768663324,-20.026336925346712,24.65841576866332,71.06099045146061,-43.9306929477722,185.42455435821776,99.19980166420773,191.52980289170847,-155.90386141044556,-2.0561385895544406,122.97,2025-05-14 14:36:16.686
/home/najo/NAS/DIP/datasets/meca_insertion/vla_dataset3_hand2/left/zed_44377151_left_1747200976.687.jpg,1747200976.687,1747200976.686,0.0009999275207519531,1747200976.686,20.5953464738861,33.838415768663324,-20.026336925346712,24.65841576866332,71.06099045146061,-43.9306929477722,185.42455435821776,99.19980166420773,191.52980289170847,-155.90386141044556,-2.0561385895544406,122.97,2025-05-14 14:36:16.686
/home/najo/NAS/DIP/datasets/meca_insertion/vla_dataset3_hand2/right/zed_49429257_right_1747200976.867.jpg,1747200976.867,1747200976.867,0.0,1747200976.867,20.534152024605916,33.76122803690887,-20.3063158892734,24.584152024605917,71.40216386466749,-43.81122803690887,185.32830404921185,98.90368411072662,192.40187165551723,-155.92292398769703,-2.047076012302956,122.98,2025-05-14 14:36:16.867
/home/najo/NAS/DIP/datasets/meca_insertion/vla_dataset3_hand2/right/zed_49429257_left_1747200976.867.jpg,1747200976.867,1747200976.867,0.0,1747200976.867,20.534152024605916,33.76122803690887,-20.3063158892734,24.584152024605917,71.40216386466749,-43.81122803690887,185.32830404921185,98.90368411072662,192.40187165551723,-155.92292398769703,-2.047076012302956,122.98,2025-05-14 14:36:16.867
/home/najo/NAS/DIP/datasets/meca_insertion/vla_dataset3_hand2/left/zed_44377151_right_1747200976.940.jpg,1747200976.94,1747200976.937,0.003000020980834961,1747200976.937,20.525964898093488,33.74894734714024,-20.343157958579305,24.57596489809349,71.44719306048582,-43.79894734714024,185.31192979618697,98.8668420414207,192.5164914266912,-155.92701755095325,-2.042982449046744,122.98,2025-05-14 14:36:16.937
/home/najo/NAS/DIP/datasets/meca_insertion/vla_dataset3_hand2/left/zed_44377151_left_1747200976.940.jpg,1747200976.94,1747200976.937,0.003000020980834961,1747200976.937,20.525964898093488,33.74894734714024,-20.343157958579305,24.57596489809349,71.44719306048582,-43.79894734714024,185.31192979618697,98.8668420414207,192.5164914266912,-155.92701755095325,-2.042982449046744,122.98,2025-05-14 14:36:16.937
/home/najo/NAS/DIP/datasets/meca_insertion/vla_dataset3_hand2/front/zed_41182735_right_1747200976.988.jpg,1747200976.988,1747200976.988,0.0,1747200976.988,20.52,33.74,-20.37,24.57,71.48,-43.79,185.3,98.84,192.6,-155.93,-2.04,122.98,2025-05-14 14:36:16.988
/home/najo/NAS/DIP/datasets/meca_insertion/vla_dataset3_hand2/front/zed_41182735_left_1747200976.988.jpg,1747200976.988,1747200976.988,0.0,1747200976.988,20.52,33.74,-20.37,24.57,71.48,-43.79,185.3,98.84,192.6,-155.93,-2.04,122.98,2025-05-14 14:36:16.988
/home/najo/NAS/DIP/datasets/meca_insertion/vla_dataset3_hand2/top/zed_49045152_left_1747200977.007.jpg,1747200977.007,1747200977.008,0.0009999275207519531,1747200977.008,20.50333335540912,33.71962965661115,-20.447777674757443,24.549629656611145,71.57444431934833,-43.75666671081824,185.27037040961625,98.7548149276466,192.84259227126725,-155.93740739759596,-2.0362963012020265,122.981851849399,2025-05-14 14:36:17.008
/home/najo/NAS/DIP/datasets/meca_insertion/vla_dataset3_hand2/top/zed_49045152_right_1747200977.007.jpg,1747200977.007,1747200977.008,0.0009999275207519531,1747200977.008,20.50333335540912,33.71962965661115,-20.447777674757443,24.549629656611145,71.57444431934833,-43.75666671081824,185.27037040961625,98.7548149276466,192.84259227126725,-155.93740739759596,-2.0362963012020265,122.981851849399,2025-05-14 14:36:17.008
/home/najo/NAS/DIP/datasets/meca_insertion/vla_dataset3_hand2/front/zed_41182735_left_1747200977.215.jpg,1747200977.215,1747200977.217,0.002000093460083008,1747200977.217,20.39,33.57819820090728,-20.975405397278163,24.40819820090728,72.21720719637088,-43.53639640181456,185.0681982009073,98.18279280362913,194.4862161918345,-155.98180179909272,-2.01,122.99180179909273,2025-05-14 14:36:17.217
/home/najo/NAS/DIP/datasets/meca_insertion/vla_dataset3_hand2/front/zed_41182735_right_1747200977.215.jpg,1747200977.215,1747200977.217,0.002000093460083008,1747200977.217,20.39,33.57819820090728,-20.975405397278163,24.40819820090728,72.21720719637088,-43.53639640181456,185.0681982009073,98.18279280362913,194.4862161918345,-155.98180179909272,-2.01,122.99180179909273,2025-05-14 14:36:17.217
/home/najo/NAS/DIP/datasets/meca_insertion/vla_dataset3_hand2/top/zed_49045152_left_1747200977.285.jpg,1747200977.285,1747200977.287,0.0019998550415039062,1747200977.287,20.39,33.571891904082754,-20.99432428775173,24.401891904082756,72.24243238366898,-43.52378380816551,185.0618919040828,98.15756761633102,194.5429728632552,-155.98810809591726,-2.01,122.99810809591725,2025-05-14 14:36:17.287
/home/najo/NAS/DIP/datasets/meca_insertion/vla_dataset3_hand2/top/zed_49045152_right_1747200977.285.jpg,1747200977.285,1747200977.287,0.0019998550415039062,1747200977.287,20.39,33.571891904082754,-20.99432428775173,24.401891904082756,72.24243238366898,-43.52378380816551,185.0618919040828,98.15756761633102,194.5429728632552,-155.98810809591726,-2.01,122.99810809591725,2025-05-14 14:36:17.287
/home/najo/NAS/DIP/datasets/meca_insertion/vla_dataset3_hand2/left/zed_44377151_right_1747200977.308.jpg,1747200977.308,1747200977.308,0.0,1747200977.308,20.39,33.57,-21.0,24.4,72.25,-43.52,185.06,98.15,194.56,-155.99,-2.01,123.0,2025-05-14 14:36:17.308
/home/najo/NAS/DIP/datasets/meca_insertion/vla_dataset3_hand2/left/zed_44377151_left_1747200977.308.jpg,1747200977.308,1747200977.308,0.0,1747200977.308,20.39,33.57,-21.0,24.4,72.25,-43.52,185.06,98.15,194.56,-155.99,-2.01,123.0,2025-05-14 14:36:17.308
/home/najo/NAS/DIP/datasets/meca_insertion/vla_dataset3_hand2/right/zed_49429257_left_1747200977.336.jpg,1747200977.336,1747200977.338,0.002000093460083008,1747200977.338,20.38352518318788,33.56136691091717,-21.02805753951918,24.39136691091717,72.2845323563313,-43.50920863864647,185.04705036637577,98.11978418821012,194.64848916309896,-155.9921582722707,-2.0078417277292933,123.0,2025-05-14 14:36:17.338
/home/najo/NAS/DIP/datasets/meca_insertion/vla_dataset3_hand2/right/zed_49429257_right_1747200977.336.jpg,1747200977.336,1747200977.338,0.002000093460083008,1747200977.338,20.38352518318788,33.56136691091717,-21.02805753951918,24.39136691091717,72.2845323563313,-43.50920863864647,185.04705036637577,98.11978418821012,194.64848916309896,-155.9921582722707,-2.0078417277292933,123.0,2025-05-14 14:36:17.338
/home/najo/NAS/DIP/datasets/meca_insertion/vla_dataset3_hand2/front/zed_41182735_right_1747200977.590.jpg,1747200977.59,1747200977.587,0.003000020980834961,1747200977.587,20.394878043107237,33.57487804310723,-20.9653658706783,24.412439021553617,72.20048782757107,-43.53731706466085,185.0748780431072,98.19707315087533,194.4460976120349,-155.98,-2.01,122.99,2025-05-14 14:36:17.587
/home/najo/NAS/DIP/datasets/meca_insertion/vla_dataset3_hand2/front/zed_41182735_left_1747200977.590.jpg,1747200977.59,1747200977.587,0.003000020980834961,1747200977.587,20.394878043107237,33.57487804310723,-20.9653658706783,24.412439021553617,72.20048782757107,-43.53731706466085,185.0748780431072,98.19707315087533,194.4460976120349,-155.98,-2.01,122.99,2025-05-14 14:36:17.587
/home/najo/NAS/DIP/datasets/meca_insertion/vla_dataset3_hand2/top/zed_49045152_right_1747200977.660.jpg,1747200977.66,1747200977.657,0.003000020980834961,1747200977.657,20.403414647620323,33.58341464762032,-20.93975605713904,24.41670732381016,72.16634140951871,-43.550121971430485,185.08341464762032,98.22695126667112,194.3692681714171,-155.98,-2.01,122.99,2025-05-14 14:36:17.657
/home/najo/NAS/DIP/datasets/meca_insertion/vla_dataset3_hand2/top/zed_49045152_left_1747200977.660.jpg,1747200977.66,1747200977.657,0.003000020980834961,1747200977.657,20.403414647620323,33.58341464762032,-20.93975605713904,24.41670732381016,72.16634140951871,-43.550121971430485,185.08341464762032,98.22695126667112,194.3692681714171,-155.98,-2.01,122.99,2025-05-14 14:36:17.657
/home/najo/NAS/DIP/datasets/meca_insertion/vla_dataset3_hand2/left/zed_44377151_right_1747200977.706.jpg,1747200977.706,1747200977.707,0.0009999275207519531,1747200977.707,20.409512201504363,33.58951220150436,-20.921463395486917,24.41975610075218,72.14195119398255,-43.55926830225655,185.0895122015044,98.24829270526529,194.31439018646077,-155.98,-2.01,122.99,2025-05-14 14:36:17.707
/home/najo/NAS/DIP/datasets/meca_insertion/vla_dataset3_hand2/left/zed_44377151_left_1747200977.706.jpg,1747200977.706,1747200977.707,0.0009999275207519531,1747200977.707,20.409512201504363,33.58951220150436,-20.921463395486917,24.41975610075218,72.14195119398255,-43.55926830225655,185.0895122015044,98.24829270526529,194.31439018646077,-155.98,-2.01,122.99,2025-05-14 14:36:17.707
/home/najo/NAS/DIP/datasets/meca_insertion/vla_dataset3_hand2/right/zed_49429257_right_1747200977.719.jpg,1747200977.719,1747200977.721,0.0019998550415039062,1747200977.721,20.417377043413687,33.599836057884914,-20.88311478293157,24.42983605788492,72.09573773951789,-43.57557375831778,185.10393441533697,98.29016390303006,194.1977050058139,-155.97590164254794,-2.011639342980819,122.9891803285096,2025-05-14 14:36:17.721
/home/najo/NAS/DIP/datasets/meca_insertion/vla_dataset3_hand2/right/zed_49429257_left_1747200977.719.jpg,1747200977.719,1747200977.721,0.0019998550415039062,1747200977.721,20.417377043413687,33.599836057884914,-20.88311478293157,24.42983605788492,72.09573773951789,-43.57557375831778,185.10393441533697,98.29016390303006,194.1977050058139,-155.97590164254794,-2.011639342980819,122.9891803285096,2025-05-14 14:36:17.721
/home/najo/NAS/DIP/datasets/meca_insertion/vla_dataset3_hand2/front/zed_41182735_right_1747200977.912.jpg,1747200977.912,1747200977.913,0.0010001659393310547,1747200977.913,20.52051284402548,33.73051284402548,-20.39307683490445,24.56564105503185,71.50256399087897,-43.78076926603822,185.28564105503185,98.82205137610192,192.70410229370697,-155.9248717889936,-2.03,122.97487178899362,2025-05-14 14:36:17.913
/home/najo/NAS/DIP/datasets/meca_insertion/vla_dataset3_hand2/front/zed_41182735_left_1747200977.912.jpg,1747200977.912,1747200977.913,0.0010001659393310547,1747200977.913,20.52051284402548,33.73051284402548,-20.39307683490445,24.56564105503185,71.50256399087897,-43.78076926603822,185.28564105503185,98.82205137610192,192.70410229370697,-155.9248717889936,-2.03,122.97487178899362,2025-05-14 14:36:17.913
/home/najo/NAS/DIP/datasets/meca_insertion/vla_dataset3_hand2/right/zed_49429257_left_1747200978.001.jpg,1747200978.001,1747200977.999,0.0019998550415039062,1747200977.999,20.54538922232628,33.75658682728768,-20.293053888368583,24.597185629768376,71.3770658635616,-43.82137724713326,185.31898203721047,98.9281437165928,192.39796406014435,-155.9170059875965,-2.031197604961396,122.9694011975193,2025-05-14 14:36:17.999
/home/najo/NAS/DIP/datasets/meca_insertion/vla_dataset3_hand2/right/zed_49429257_right_1747200978.001.jpg,1747200978.001,1747200977.999,0.0019998550415039062,1747200977.999,20.54538922232628,33.75658682728768,-20.293053888368583,24.597185629768376,71.3770658635616,-43.82137724713326,185.31898203721047,98.9281437165928,192.39796406014435,-155.9170059875965,-2.031197604961396,122.9694011975193,2025-05-14 14:36:17.999
/home/najo/NAS/DIP/datasets/meca_insertion/vla_dataset3_hand2/top/zed_49045152_left_1747200978.008.jpg,1747200978.008,1747200978.009,0.0010001659393310547,1747200978.009,20.550778444652565,33.763173654575354,-20.266107776737176,24.604371259536755,71.34413172712321,-43.83275449426653,185.32796407442092,98.95628743318562,192.31592812028876,-155.914011975193,-2.032395209922792,122.9688023950386,2025-05-14 14:36:18.009
/home/najo/NAS/DIP/datasets/meca_insertion/vla_dataset3_hand2/top/zed_49045152_right_1747200978.008.jpg,1747200978.008,1747200978.009,0.0010001659393310547,1747200978.009,20.550778444652565,33.763173654575354,-20.266107776737176,24.604371259536755,71.34413172712321,-43.83275449426653,185.32796407442092,98.95628743318562,192.31592812028876,-155.914011975193,-2.032395209922792,122.9688023950386,2025-05-14 14:36:18.009
/home/najo/NAS/DIP/datasets/meca_insertion/vla_dataset3_hand2/left/zed_44377151_left_1747200978.049.jpg,1747200978.049,1747200978.049,0.0,1747200978.049,20.572335333957696,33.78952096372607,-20.158323330211523,24.633113778610262,71.21239518136963,-43.87826348279958,185.36389222326284,99.06886229955686,191.9877843608662,-155.90203592557904,-2.0371856297683766,122.9664071851158,2025-05-14 14:36:18.049
/home/najo/NAS/DIP/datasets/meca_insertion/vla_dataset3_hand2/left/zed_44377151_right_1747200978.049.jpg,1747200978.049,1747200978.049,0.0,1747200978.049,20.572335333957696,33.78952096372607,-20.158323330211523,24.633113778610262,71.21239518136963,-43.87826348279958,185.36389222326284,99.06886229955686,191.9877843608662,-155.90203592557904,-2.0371856297683766,122.9664071851158,2025-05-14 14:36:18.049
/home/najo/NAS/DIP/datasets/meca_insertion/vla_dataset3_hand2/right/zed_49429257_left_1747200978.274.jpg,1747200978.274,1747200978.276,0.002000093460083008,1747200978.276,20.671818181818185,33.91181818181818,-19.684545454545457,24.751818181818184,70.63454545454546,-44.07363636363637,185.5218181818182,99.56545454545454,190.54181818181817,-155.86,-2.05,122.95,2025-05-14 14:36:18.276
/home/najo/NAS/DIP/datasets/meca_insertion/vla_dataset3_hand2/right/zed_49429257_right_1747200978.274.jpg,1747200978.274,1747200978.276,0.002000093460083008,1747200978.276,20.671818181818185,33.91181818181818,-19.684545454545457,24.751818181818184,70.63454545454546,-44.07363636363637,185.5218181818182,99.56545454545454,190.54181818181817,-155.86,-2.05,122.95,2025-05-14 14:36:18.276
/home/najo/NAS/DIP/datasets/meca_insertion/vla_dataset3_hand2/top/zed_49045152_left_1747200978.335.jpg,1747200978.335,1747200978.336,0.0009999275207519531,1747200978.336,20.67727272727273,33.917272727272724,-19.668181818181814,24.757272727272728,70.61818181818182,-44.084545454545456,185.52727272727276,99.58181818181818,190.48727272727277,-155.86,-2.05,122.95,2025-05-14 14:36:18.336
/home/najo/NAS/DIP/datasets/meca_insertion/vla_dataset3_hand2/top/zed_49045152_right_1747200978.335.jpg,1747200978.335,1747200978.336,0.0009999275207519531,1747200978.336,20.67727272727273,33.917272727272724,-19.668181818181814,24.757272727272728,70.61818181818182,-44.084545454545456,185.52727272727276,99.58181818181818,190.48727272727277,-155.86,-2.05,122.95,2025-05-14 14:36:18.336
/home/najo/NAS/DIP/datasets/meca_insertion/vla_dataset3_hand2/front/zed_41182735_left_1747200978.366.jpg,1747200978.366,1747200978.366,0.0,1747200978.366,20.68,33.92,-19.66,24.76,70.61,-44.09,185.53,99.59,190.46,-155.86,-2.05,122.95,2025-05-14 14:36:18.366
/home/najo/NAS/DIP/datasets/meca_insertion/vla_dataset3_hand2/front/zed_41182735_right_1747200978.366.jpg,1747200978.366,1747200978.366,0.0,1747200978.366,20.68,33.92,-19.66,24.76,70.61,-44.09,185.53,99.59,190.46,-155.86,-2.05,122.95,2025-05-14 14:36:18.366
/home/najo/NAS/DIP/datasets/meca_insertion/vla_dataset3_hand2/left/zed_44377151_right_1747200978.387.jpg,1747200978.387,1747200978.386,0.0010001659393310547,1747200978.386,20.6923287429638,33.93506846362243,-19.602465866168927,24.776438323951737,70.53876726287581,-44.113287625598296,185.54780818428105,99.6502738544897,190.28465787784816,-155.85452055868276,-2.0527397206586224,122.9486301396707,2025-05-14 14:36:18.386
/home/najo/NAS/DIP/datasets/meca_insertion/vla_dataset3_hand2/left/zed_44377151_left_1747200978.387.jpg,1747200978.387,1747200978.386,0.0010001659393310547,1747200978.386,20.6923287429638,33.93506846362243,-19.602465866168927,24.776438323951737,70.53876726287581,-44.113287625598296,185.54780818428105,99.6502738544897,190.28465787784816,-155.85452055868276,-2.0527397206586224,122.9486301396707,2025-05-14 14:36:18.386
/home/najo/NAS/DIP/datasets/meca_insertion/vla_dataset3_hand2/top/zed_49045152_right_1747200978.612.jpg,1747200978.612,1747200978.612,0.0,1747200978.612,20.79312138409678,34.05312138409678,-19.13595377156449,24.903121384096774,69.96861273349191,-44.30624276819356,185.688901730121,100.1340462284355,188.8620809686693,-155.8142196539758,-2.07,122.94,2025-05-14 14:36:18.612
/home/najo/NAS/DIP/datasets/meca_insertion/vla_dataset3_hand2/top/zed_49045152_left_1747200978.612.jpg,1747200978.612,1747200978.612,0.0,1747200978.612,20.79312138409678,34.05312138409678,-19.13595377156449,24.903121384096774,69.96861273349191,-44.30624276819356,185.688901730121,100.1340462284355,188.8620809686693,-155.8142196539758,-2.07,122.94,2025-05-14 14:36:18.612
/home/najo/NAS/DIP/datasets/meca_insertion/vla_dataset3_hand2/front/zed_41182735_right_1747200978.652.jpg,1747200978.652,1747200978.652,0.0,1747200978.652,20.802369937735488,34.06236993773549,-19.094335280190293,24.91236993773549,69.92005782688868,-44.32473987547098,185.70046242216935,100.1756647198097,188.734913356137,-155.81190751556613,-2.07,122.94,2025-05-14 14:36:18.652
/home/najo/NAS/DIP/datasets/meca_insertion/vla_dataset3_hand2/front/zed_41182735_left_1747200978.652.jpg,1747200978.652,1747200978.652,0.0,1747200978.652,20.802369937735488,34.06236993773549,-19.094335280190293,24.91236993773549,69.92005782688868,-44.32473987547098,185.70046242216935,100.1756647198097,188.734913356137,-155.81190751556613,-2.07,122.94,2025-05-14 14:36:18.652
/home/najo/NAS/DIP/datasets/meca_insertion/vla_dataset3_hand2/right/zed_49429257_right_1747200978.715.jpg,1747200978.715,1747200978.715,0.0,1747200978.715,20.829999977293472,34.09571425652018,-18.96571439275934,24.94571425652018,69.76285727585251,-44.3771428149736,185.7357142565202,100.307142746854,188.338571759438,-155.80142858115994,-2.0728571396133533,122.93714286038664,2025-05-14 14:36:18.715
/home/najo/NAS/DIP/datasets/meca_insertion/vla_dataset3_hand2/right/zed_49429257_left_1747200978.715.jpg,1747200978.715,1747200978.715,0.0,1747200978.715,20.829999977293472,34.09571425652018,-18.96571439275934,24.94571425652018,69.76285727585251,-44.3771428149736,185.7357142565202,100.307142746854,188.338571759438,-155.80142858115994,-2.0728571396133533,122.93714286038664,2025-05-14 14:36:18.715
/home/najo/NAS/DIP/datasets/meca_insertion/vla_dataset3_hand2/left/zed_44377151_right_1747200978.738.jpg,1747200978.738,1747200978.735,0.003000020980834961,1747200978.735,20.84333329548912,34.1128570942003,-18.90285732126557,24.9628570942003,69.68476212642086,-44.401904691622654,185.7528570942003,100.37190457809,188.14428626573,-155.79571430193323,-2.0747618993555887,122.9352381006444,2025-05-14 14:36:18.735
/home/najo/NAS/DIP/datasets/meca_insertion/vla_dataset3_hand2/left/zed_44377151_left_1747200978.738.jpg,1747200978.738,1747200978.735,0.003000020980834961,1747200978.735,20.84333329548912,34.1128570942003,-18.90285732126557,24.9628570942003,69.68476212642086,-44.401904691622654,185.7528570942003,100.37190457809,188.14428626573,-155.79571430193323,-2.0747618993555887,122.9352381006444,2025-05-14 14:36:18.735
/home/najo/NAS/DIP/datasets/meca_insertion/vla_dataset3_hand2/left/zed_44377151_left_1747200978.954.jpg,1747200978.954,1747200978.951,0.003000020980834961,1747200978.951,20.931428558453412,34.22142855845341,-18.49857148695964,25.07714283768012,69.18714292850623,-44.572857116906825,185.8614285584534,100.78142851304035,186.90000018165225,-155.7642857207733,-2.09,122.93,2025-05-14 14:36:18.951
/home/najo/NAS/DIP/datasets/meca_insertion/vla_dataset3_hand2/left/zed_44377151_right_1747200978.954.jpg,1747200978.954,1747200978.951,0.003000020980834961,1747200978.951,20.931428558453412,34.22142855845341,-18.49857148695964,25.07714283768012,69.18714292850623,-44.572857116906825,185.8614285584534,100.78142851304035,186.90000018165225,-155.7642857207733,-2.09,122.93,2025-05-14 14:36:18.951
/home/najo/NAS/DIP/datasets/meca_insertion/vla_dataset3_hand2/top/zed_49045152_right_1747200979.015.jpg,1747200979.015,1747200979.016,0.0009999275207519531,1747200979.016,20.9502272699564,34.24249999661337,-18.4122727402035,25.10249999661337,69.0820454702471,-44.6093181765843,185.88136363328488,100.8677272597965,186.633409130625,-155.75659091001452,-2.0911363633284883,122.92886363667152,2025-05-14 14:36:19.016
/home/najo/NAS/DIP/datasets/meca_insertion/vla_dataset3_hand2/top/zed_49045152_left_1747200979.015.jpg,1747200979.015,1747200979.016,0.0009999275207519531,1747200979.016,20.9502272699564,34.24249999661337,-18.4122727402035,25.10249999661337,69.0820454702471,-44.6093181765843,185.88136363328488,100.8677272597965,186.633409130625,-155.75659091001452,-2.0911363633284883,122.92886363667152,2025-05-14 14:36:19.016
/home/najo/NAS/DIP/datasets/meca_insertion/vla_dataset3_hand2/right/zed_49429257_left_1747200979.043.jpg,1747200979.043,1747200979.046,0.003000020980834961,1747200979.046,20.965568174890983,34.261249991533425,-18.34068185050874,25.121249991533425,68.99511367561776,-44.63829544146075,185.8984090832122,100.93931814949126,186.41352282656257,-155.75147727503634,-2.0928409083212203,122.9271590916788,2025-05-14 14:36:19.046
/home/najo/NAS/DIP/datasets/meca_insertion/vla_dataset3_hand2/right/zed_49429257_right_1747200979.043.jpg,1747200979.043,1747200979.046,0.003000020980834961,1747200979.046,20.965568174890983,34.261249991533425,-18.34068185050874,25.121249991533425,68.99511367561776,-44.63829544146075,185.8984090832122,100.93931814949126,186.41352282656257,-155.75147727503634,-2.0928409083212203,122.9271590916788,2025-05-14 14:36:19.046
/home/najo/NAS/DIP/datasets/meca_insertion/vla_dataset3_hand2/front/zed_41182735_left_1747200979.076.jpg,1747200979.076,1747200979.076,0.0,1747200979.076,20.980909079825576,34.27999998645348,-18.269090960813983,25.13999998645348,68.90818188098841,-44.6672727063372,185.91545453313952,101.010909039186,186.1936365225001,-155.74636364005812,-2.0945454533139527,122.92545454668604,2025-05-14 14:36:19.076
/home/najo/NAS/DIP/datasets/meca_insertion/vla_dataset3_hand2/front/zed_41182735_right_1747200979.076.jpg,1747200979.076,1747200979.076,0.0,1747200979.076,20.980909079825576,34.27999998645348,-18.269090960813983,25.13999998645348,68.90818188098841,-44.6672727063372,185.91545453313952,101.010909039186,186.1936365225001,-155.74636364005812,-2.0945454533139527,122.92545454668604,2025-05-14 14:36:19.076
/home/najo/NAS/DIP/datasets/meca_insertion/vla_dataset3_hand2/top/zed_49045152_left_1747200979.352.jpg,1747200979.352,1747200979.353,0.0009999275207519531,1747200979.353,21.09,34.406666666666666,-17.779999999999998,25.27,68.31666666666666,-44.873333333333335,186.03,101.5,184.69,-155.71333333333334,-2.1066666666666665,122.91333333333333,2025-05-14 14:36:19.353
/home/najo/NAS/DIP/datasets/meca_insertion/vla_dataset3_hand2/top/zed_49045152_right_1747200979.352.jpg,1747200979.352,1747200979.353,0.0009999275207519531,1747200979.353,21.09,34.406666666666666,-17.779999999999998,25.27,68.31666666666666,-44.873333333333335,186.03,101.5,184.69,-155.71333333333334,-2.1066666666666665,122.91333333333333,2025-05-14 14:36:19.353
/home/najo/NAS/DIP/datasets/meca_insertion/vla_dataset3_hand2/right/zed_49429257_left_1747200979.384.jpg,1747200979.384,1747200979.383,0.0010001659393310547,1747200979.383,21.0975,34.41666666666667,-17.75,25.2775,68.28166666666667,-44.88583333333334,186.0375,101.53,184.6,-155.71083333333334,-2.1091666666666664,122.91083333333331,2025-05-14 14:36:19.383
/home/najo/NAS/DIP/datasets/meca_insertion/vla_dataset3_hand2/right/zed_49429257_right_1747200979.384.jpg,1747200979.384,1747200979.383,0.0010001659393310547,1747200979.383,21.0975,34.41666666666667,-17.75,25.2775,68.28166666666667,-44.88583333333334,186.0375,101.53,184.6,-155.71083333333334,-2.1091666666666664,122.91083333333331,2025-05-14 14:36:19.383
/home/najo/NAS/DIP/datasets/meca_insertion/vla_dataset3_hand2/front/zed_41182735_right_1747200979.393.jpg,1747200979.393,1747200979.393,0.0,1747200979.393,21.1,34.42,-17.74,25.28,68.27,-44.89,186.04,101.54,184.57,-155.71,-2.11,122.91,2025-05-14 14:36:19.393
/home/najo/NAS/DIP/datasets/meca_insertion/vla_dataset3_hand2/front/zed_41182735_left_1747200979.393.jpg,1747200979.393,1747200979.393,0.0,1747200979.393,21.1,34.42,-17.74,25.28,68.27,-44.89,186.04,101.54,184.57,-155.71,-2.11,122.91,2025-05-14 14:36:19.393
/home/najo/NAS/DIP/datasets/meca_insertion/vla_dataset3_hand2/left/zed_44377151_left_1747200979.404.jpg,1747200979.404,1747200979.403,0.0009999275207519531,1747200979.403,21.105042123885298,34.42588247786618,-17.714789380573524,25.28672283184706,68.23890690270734,-44.90008424777059,186.04504212388528,101.5643702654456,184.49184707977795,-155.70915964601912,-2.11,122.91,2025-05-14 14:36:19.403
/home/najo/NAS/DIP/datasets/meca_insertion/vla_dataset3_hand2/left/zed_44377151_right_1747200979.404.jpg,1747200979.404,1747200979.403,0.0009999275207519531,1747200979.403,21.105042123885298,34.42588247786618,-17.714789380573524,25.28672283184706,68.23890690270734,-44.90008424777059,186.04504212388528,101.5643702654456,184.49184707977795,-155.70915964601912,-2.11,122.91,2025-05-14 14:36:19.403
/home/najo/NAS/DIP/datasets/meca_insertion/vla_dataset3_hand2/front/zed_41182735_right_1747200979.648.jpg,1747200979.648,1747200979.644,0.003999948501586914,1747200979.644,21.20447761353365,34.54447761353365,-17.246567159399042,25.41447761353365,67.66432835263223,-45.094477613533655,186.1322388067668,102.02119403383412,183.0474626714303,-155.68776119323317,-2.12,122.91,2025-05-14 14:36:19.644
/home/najo/NAS/DIP/datasets/meca_insertion/vla_dataset3_hand2/front/zed_41182735_left_1747200979.648.jpg,1747200979.648,1747200979.644,0.003999948501586914,1747200979.644,21.20447761353365,34.54447761353365,-17.246567159399042,25.41447761353365,67.66432835263223,-45.094477613533655,186.1322388067668,102.02119403383412,183.0474626714303,-155.68776119323317,-2.12,122.91,2025-05-14 14:36:19.644
/home/najo/NAS/DIP/datasets/meca_insertion/vla_dataset3_hand2/right/zed_49429257_left_1747200979.712.jpg,1747200979.712,1747200979.714,0.002000093460083008,1747200979.714,21.214925378445507,34.55492537844551,-17.215223864663475,25.424925378445508,67.62776117544072,-45.10492537844551,186.13746268922276,102.04731344611378,182.94820890476768,-155.68253731077726,-2.12,122.91,2025-05-14 14:36:19.714
/home/najo/NAS/DIP/datasets/meca_insertion/vla_dataset3_hand2/right/zed_49429257_right_1747200979.712.jpg,1747200979.712,1747200979.714,0.002000093460083008,1747200979.714,21.214925378445507,34.55492537844551,-17.215223864663475,25.424925378445508,67.62776117544072,-45.10492537844551,186.13746268922276,102.04731344611378,182.94820890476768,-155.68253731077726,-2.12,122.91,2025-05-14 14:36:19.714
/home/najo/NAS/DIP/datasets/meca_insertion/vla_dataset3_hand2/left/zed_44377151_left_1747200979.722.jpg,1747200979.722,1747200979.724,0.002000093460083008,1747200979.724,21.21641791629006,34.55641791629006,-17.21074625112982,25.42641791629006,67.62253729298479,-45.10641791629006,186.138208958145,102.05104479072516,182.93402979524444,-155.68179104185498,-2.12,122.91,2025-05-14 14:36:19.724
/home/najo/NAS/DIP/datasets/meca_insertion/vla_dataset3_hand2/left/zed_44377151_right_1747200979.722.jpg,1747200979.722,1747200979.724,0.002000093460083008,1747200979.724,21.21641791629006,34.55641791629006,-17.21074625112982,25.42641791629006,67.62253729298479,-45.10641791629006,186.138208958145,102.05104479072516,182.93402979524444,-155.68179104185498,-2.12,122.91,2025-05-14 14:36:19.724
/home/najo/NAS/DIP/datasets/meca_insertion/vla_dataset3_hand2/top/zed_49045152_left_1747200979.758.jpg,1747200979.758,1747200979.758,0.0,1747200979.758,21.227619038968943,34.56952379871118,-17.162857185026407,25.43952379871118,67.56428576618634,-45.126190457809,186.1466666590978,102.09619043510249,182.78476203559475,-155.6790476201289,-2.12,122.90904762012887,2025-05-14 14:36:19.758
/home/najo/NAS/DIP/datasets/meca_insertion/vla_dataset3_hand2/top/zed_49045152_right_1747200979.758.jpg,1747200979.758,1747200979.758,0.0,1747200979.758,21.227619038968943,34.56952379871118,-17.162857185026407,25.43952379871118,67.56428576618634,-45.126190457809,186.1466666590978,102.09619043510249,182.78476203559475,-155.6790476201289,-2.12,122.90904762012887,2025-05-14 14:36:19.758
/home/najo/NAS/DIP/datasets/meca_insertion/vla_dataset3_hand2/front/zed_41182735_right_1747200979.969.jpg,1747200979.969,1747200979.974,0.004999876022338867,1747200979.974,21.34,34.7,-16.63,25.58,66.91,-45.35,186.23,102.6,181.14,-155.66,-2.13,122.9,2025-05-14 14:36:19.974
/home/najo/NAS/DIP/datasets/meca_insertion/vla_dataset3_hand2/front/zed_41182735_left_1747200979.969.jpg,1747200979.969,1747200979.974,0.004999876022338867,1747200979.974,21.34,34.7,-16.63,25.58,66.91,-45.35,186.23,102.6,181.14,-155.66,-2.13,122.9,2025-05-14 14:36:19.974
/home/najo/NAS/DIP/datasets/meca_insertion/vla_dataset3_hand2/right/zed_49429257_left_1747200980.032.jpg,1747200980.032,1747200980.034,0.0019998550415039062,1747200980.034,21.34,34.7,-16.63,25.58,66.91,-45.35,186.23,102.6,181.14,-155.66,-2.13,122.9,2025-05-14 14:36:20.034
/home/najo/NAS/DIP/datasets/meca_insertion/vla_dataset3_hand2/right/zed_49429257_right_1747200980.032.jpg,1747200980.032,1747200980.034,0.0019998550415039062,1747200980.034,21.34,34.7,-16.63,25.58,66.91,-45.35,186.23,102.6,181.14,-155.66,-2.13,122.9,2025-05-14 14:36:20.034
/home/najo/NAS/DIP/datasets/meca_insertion/vla_dataset3_hand2/top/zed_49045152_right_1747200980.085.jpg,1747200980.085,1747200980.088,0.003000020980834961,1747200980.088,21.347619038968944,34.7104761785823,-16.592857185026407,25.589523798711177,66.86523814605746,-45.366190457809004,186.2357142792267,102.63523805523135,181.02476203559476,-155.65809524025775,-2.13,122.9,2025-05-14 14:36:20.088
/home/najo/NAS/DIP/datasets/meca_insertion/vla_dataset3_hand2/top/zed_49045152_left_1747200980.085.jpg,1747200980.085,1747200980.088,0.003000020980834961,1747200980.088,21.347619038968944,34.7104761785823,-16.592857185026407,25.589523798711177,66.86523814605746,-45.366190457809004,186.2357142792267,102.63523805523135,181.02476203559476,-155.65809524025775,-2.13,122.9,2025-05-14 14:36:20.088
/home/najo/NAS/DIP/datasets/meca_insertion/vla_dataset3_hand2/left/zed_44377151_left_1747200980.093.jpg,1747200980.093,1747200980.088,0.004999876022338867,1747200980.088,21.347619038968944,34.7104761785823,-16.592857185026407,25.589523798711177,66.86523814605746,-45.366190457809004,186.2357142792267,102.63523805523135,181.02476203559476,-155.65809524025775,-2.13,122.9,2025-05-14 14:36:20.088
/home/najo/NAS/DIP/datasets/meca_insertion/vla_dataset3_hand2/left/zed_44377151_right_1747200980.093.jpg,1747200980.093,1747200980.088,0.004999876022338867,1747200980.088,21.347619038968944,34.7104761785823,-16.592857185026407,25.589523798711177,66.86523814605746,-45.366190457809004,186.2357142792267,102.63523805523135,181.02476203559476,-155.65809524025775,-2.13,122.9,2025-05-14 14:36:20.088
/home/najo/NAS/DIP/datasets/meca_insertion/vla_dataset3_hand2/front/zed_41182735_right_1747200980.319.jpg,1747200980.319,1747200980.324,0.004999876022338867,1747200980.324,21.465263146337065,34.855263146337066,-16.04421056098881,25.735263146337065,66.19894741465174,-45.5978947195056,186.31263157316852,103.14578943901118,179.33000010979788,-155.63,-2.13,122.9,2025-05-14 14:36:20.324
/home/najo/NAS/DIP/datasets/meca_insertion/vla_dataset3_hand2/front/zed_41182735_left_1747200980.319.jpg,1747200980.319,1747200980.324,0.004999876022338867,1747200980.324,21.465263146337065,34.855263146337066,-16.04421056098881,25.735263146337065,66.19894741465174,-45.5978947195056,186.31263157316852,103.14578943901118,179.33000010979788,-155.63,-2.13,122.9,2025-05-14 14:36:20.324
/home/najo/NAS/DIP/datasets/meca_insertion/vla_dataset3_hand2/top/zed_49045152_left_1747200980.391.jpg,1747200980.391,1747200980.394,0.003000020980834961,1747200980.394,21.474473683797758,34.86447368379775,-16.016578948606742,25.744473683797757,66.16210526480899,-45.61171052569663,186.31723684189888,103.17342105139323,179.24250000392135,-155.63,-2.13,122.9,2025-05-14 14:36:20.394
/home/najo/NAS/DIP/datasets/meca_insertion/vla_dataset3_hand2/top/zed_49045152_right_1747200980.391.jpg,1747200980.391,1747200980.394,0.003000020980834961,1747200980.394,21.474473683797758,34.86447368379775,-16.016578948606742,25.744473683797757,66.16210526480899,-45.61171052569663,186.31723684189888,103.17342105139323,179.24250000392135,-155.63,-2.13,122.9,2025-05-14 14:36:20.394
/home/najo/NAS/DIP/datasets/meca_insertion/vla_dataset3_hand2/left/zed_44377151_left_1747200980.436.jpg,1747200980.436,1747200980.436,0.0,1747200980.436,21.48,34.87,-16.0,25.75,66.14,-45.62,186.32,103.19,179.19,-155.63,-2.13,122.9,2025-05-14 14:36:20.436
/home/najo/NAS/DIP/datasets/meca_insertion/vla_dataset3_hand2/left/zed_44377151_right_1747200980.436.jpg,1747200980.436,1747200980.436,0.0,1747200980.436,21.48,34.87,-16.0,25.75,66.14,-45.62,186.32,103.19,179.19,-155.63,-2.13,122.9,2025-05-14 14:36:20.436
/home/najo/NAS/DIP/datasets/meca_insertion/vla_dataset3_hand2/right/zed_49429257_right_1747200980.444.jpg,1747200980.444,1747200980.446,0.002000093460083008,1747200980.446,21.487758617500344,34.87948275472264,-15.963793118331727,25.759482754722644,66.09603450083138,-45.634655166389535,186.3234482744446,103.22275860722368,179.07793108055057,-155.62913793138884,-2.130862068611149,122.89913793138884,2025-05-14 14:36:20.446
