Najongs/Meca500_3D_Pose_Estimation/synchronized_robot_camera_data_1.csv
image_path,image_timestamp,robot_timestamp,time_difference_s,timestamp,j1,j2,j3,j4,j5,j6,x,y,z,rx,ry,rz,datetime
/home/najo/NAS/DIP/datasets/meca_insertion/vla_dataset_insertion_250514/left/zed_44377151_right_1747201050.492.jpg,1747201050.492,1747201050.534,0.04199981689453125,1747201050.534,23.47,37.47,-6.84,28.19,54.98,-49.43,185.12,109.88,149.74,-156.09,-2.21,123.08,2025-05-14 14:37:30.534
/home/najo/NAS/DIP/datasets/meca_insertion/vla_dataset_insertion_250514/left/zed_44377151_left_1747201050.492.jpg,1747201050.492,1747201050.534,0.04199981689453125,1747201050.534,23.47,37.47,-6.84,28.19,54.98,-49.43,185.12,109.88,149.74,-156.09,-2.21,123.08,2025-05-14 14:37:30.534
/home/najo/NAS/DIP/datasets/meca_insertion/vla_dataset_insertion_250514/top/zed_49045152_left_1747201050.620.jpg,1747201050.62,1747201050.624,0.004000186920166016,1747201050.624,23.43052627726388,37.42263153271665,-7.017631752312554,28.142631532716653,55.19710547504867,-49.35499992680137,185.1871053286514,109.7852630654333,150.30447423512655,-156.07026313863193,-2.2139473722736125,123.07605262772638,2025-05-14 14:37:30.624
/home/najo/NAS/DIP/datasets/meca_insertion/vla_dataset_insertion_250514/top/zed_49045152_right_1747201050.620.jpg,1747201050.62,1747201050.624,0.004000186920166016,1747201050.624,23.43052627726388,37.42263153271665,-7.017631752312554,28.142631532716653,55.19710547504867,-49.35499992680137,185.1871053286514,109.7852630654333,150.30447423512655,-156.07026313863193,-2.2139473722736125,123.07605262772638,2025-05-14 14:37:30.624
/home/najo/NAS/DIP/datasets/meca_insertion/vla_dataset_insertion_250514/right/zed_49429257_left_1747201050.834.jpg,1747201050.834,1747201050.832,0.002000093460083008,1747201050.832,23.35073395759648,37.33073395759648,-7.36706416961409,28.05073395759648,55.62633021201761,-49.207889929327465,185.315688056538,109.59504590105844,151.4204585512458,-156.027155971731,-2.22,123.07,2025-05-14 14:37:30.832
/home/najo/NAS/DIP/datasets/meca_insertion/vla_dataset_insertion_250514/right/zed_49429257_right_1747201050.834.jpg,1747201050.834,1747201050.832,0.002000093460083008,1747201050.832,23.35073395759648,37.33073395759648,-7.36706416961409,28.05073395759648,55.62633021201761,-49.207889929327465,185.315688056538,109.59504590105844,151.4204585512458,-156.027155971731,-2.22,123.07,2025-05-14 14:37:30.832
/home/najo/NAS/DIP/datasets/meca_insertion/vla_dataset_insertion_250514/front/zed_41182735_left_1747201050.893.jpg,1747201050.893,1747201050.891,0.0019998550415039062,1747201050.891,23.328,37.304,-7.464,28.024,55.744,-49.168,185.35,109.54,151.732,-156.014,-2.222,123.068,2025-05-14 14:37:30.891
/home/najo/NAS/DIP/datasets/meca_insertion/vla_dataset_insertion_250514/front/zed_41182735_right_1747201050.893.jpg,1747201050.893,1747201050.891,0.0019998550415039062,1747201050.891,23.328,37.304,-7.464,28.024,55.744,-49.168,185.35,109.54,151.732,-156.014,-2.222,123.068,2025-05-14 14:37:30.891
/home/najo/NAS/DIP/datasets/meca_insertion/vla_dataset_insertion_250514/left/zed_44377151_right_1747201050.916.jpg,1747201050.916,1747201050.911,0.004999876022338867,1747201050.911,23.316,37.288,-7.518,28.008,55.808,-49.146,185.37,109.51,151.904,-156.008,-2.224,123.066,2025-05-14 14:37:30.911
/home/najo/NAS/DIP/datasets/meca_insertion/vla_dataset_insertion_250514/left/zed_44377151_left_1747201050.916.jpg,1747201050.916,1747201050.911,0.004999876022338867,1747201050.911,23.316,37.288,-7.518,28.008,55.808,-49.146,185.37,109.51,151.904,-156.008,-2.224,123.066,2025-05-14 14:37:30.911
/home/najo/NAS/DIP/datasets/meca_insertion/vla_dataset_insertion_250514/top/zed_49045152_left_1747201050.935.jpg,1747201050.935,1747201050.931,0.003999948501586914,1747201050.931,23.304,37.272,-7.572,27.992,55.872,-49.124,185.39,109.48,152.076,-156.002,-2.226,123.064,2025-05-14 14:37:30.931
/home/najo/NAS/DIP/datasets/meca_insertion/vla_dataset_insertion_250514/top/zed_49045152_right_1747201050.935.jpg,1747201050.935,1747201050.931,0.003999948501586914,1747201050.931,23.304,37.272,-7.572,27.992,55.872,-49.124,185.39,109.48,152.076,-156.002,-2.226,123.064,2025-05-14 14:37:30.931
/home/najo/NAS/DIP/datasets/meca_insertion/vla_dataset_insertion_250514/front/zed_41182735_left_1747201051.140.jpg,1747201051.14,1747201051.142,0.0019998550415039062,1747201051.142,23.231812873487574,37.17771931023136,-7.909122759074546,27.903625746975152,56.28140344884318,-48.989532183718936,185.5063742530249,109.29134505720651,153.14555540373607,-155.97181287348758,-2.23,123.05590643674378,2025-05-14 14:37:31.142
/home/najo/NAS/DIP/datasets/meca_insertion/vla_dataset_insertion_250514/front/zed_41182735_right_1747201051.140.jpg,1747201051.14,1747201051.142,0.0019998550415039062,1747201051.142,23.231812873487574,37.17771931023136,-7.909122759074546,27.903625746975152,56.28140344884318,-48.989532183718936,185.5063742530249,109.29134505720651,153.14555540373607,-155.97181287348758,-2.23,123.05590643674378,2025-05-14 14:37:31.142
/home/najo/NAS/DIP/datasets/meca_insertion/vla_dataset_insertion_250514/right/zed_49429257_left_1747201051.200.jpg,1747201051.2,1747201051.202,0.0019998550415039062,1747201051.202,23.224795336476927,37.16719300471539,-7.951227981138442,27.88959067295385,56.33403497642305,-48.97198834119232,185.5204093270461,109.26678367766924,153.2788886069384,-155.96479533647693,-2.23,123.05239766823846,2025-05-14 14:37:31.202
/home/najo/NAS/DIP/datasets/meca_insertion/vla_dataset_insertion_250514/right/zed_49429257_right_1747201051.200.jpg,1747201051.2,1747201051.202,0.0019998550415039062,1747201051.202,23.224795336476927,37.16719300471539,-7.951227981138442,27.88959067295385,56.33403497642305,-48.97198834119232,185.5204093270461,109.26678367766924,153.2788886069384,-155.96479533647693,-2.23,123.05239766823846,2025-05-14 14:37:31.202
/home/najo/NAS/DIP/datasets/meca_insertion/vla_dataset_insertion_250514/left/zed_44377151_right_1747201051.237.jpg,1747201051.237,1747201051.232,0.004999876022338867,1747201051.232,23.221286540086385,37.16192981012958,-7.97228075948167,27.882573080172776,56.36035094935208,-48.96321635021597,185.52742691982723,109.25450289030236,153.34555573835863,-155.9612865400864,-2.23,123.0506432700432,2025-05-14 14:37:31.232
/home/najo/NAS/DIP/datasets/meca_insertion/vla_dataset_insertion_250514/left/zed_44377151_left_1747201051.237.jpg,1747201051.237,1747201051.232,0.004999876022338867,1747201051.232,23.221286540086385,37.16192981012958,-7.97228075948167,27.882573080172776,56.36035094935208,-48.96321635021597,185.52742691982723,109.25450289030236,153.34555573835863,-155.9612865400864,-2.23,123.0506432700432,2025-05-14 14:37:31.232
/home/najo/NAS/DIP/datasets/meca_insertion/vla_dataset_insertion_250514/top/zed_49045152_right_1747201051.259.jpg,1747201051.259,1747201051.263,0.003999948501586914,1747201051.263,23.206046519364584,37.14139535915278,-8.045116242965264,27.86294574589005,56.44906972360067,-48.93209303872917,185.55015502758448,109.21124033156828,153.57775182279394,-155.95379845305092,-2.2315503867372684,123.04844961326272,2025-05-14 14:37:31.263
/home/najo/NAS/DIP/datasets/meca_insertion/vla_dataset_insertion_250514/top/zed_49045152_left_1747201051.259.jpg,1747201051.259,1747201051.263,0.003999948501586914,1747201051.263,23.206046519364584,37.14139535915278,-8.045116242965264,27.86294574589005,56.44906972360067,-48.93209303872917,185.55015502758448,109.21124033156828,153.57775182279394,-155.95379845305092,-2.2315503867372684,123.04844961326272,2025-05-14 14:37:31.263
/home/najo/NAS/DIP/datasets/meca_insertion/vla_dataset_insertion_250514/front/zed_41182735_right_1747201051.467.jpg,1747201051.467,1747201051.472,0.004999876022338867,1747201051.472,23.09825398026801,37.008253980268016,-8.519047573994952,27.738253980268013,57.02285708879394,-48.73238097040202,185.691746019732,108.92857145560302,155.09095223678383,-155.912063495067,-2.24,123.04,2025-05-14 14:37:31.472
/home/najo/NAS/DIP/datasets/meca_insertion/vla_dataset_insertion_250514/front/zed_41182735_left_1747201051.467.jpg,1747201051.467,1747201051.472,0.004999876022338867,1747201051.472,23.09825398026801,37.008253980268016,-8.519047573994952,27.738253980268013,57.02285708879394,-48.73238097040202,185.691746019732,108.92857145560302,155.09095223678383,-155.912063495067,-2.24,123.04,2025-05-14 14:37:31.472
/home/najo/NAS/DIP/datasets/meca_insertion/vla_dataset_insertion_250514/top/zed_49045152_left_1747201051.558.jpg,1747201051.558,1747201051.558,0.0,1747201051.558,23.062020652228966,36.96580301939096,-8.68057028959816,27.69580301939096,57.2216584537882,-48.66404130445793,185.73730579702803,108.8291707731059,155.6065814001465,-155.897564734324,-2.243108816419004,123.036891183581,2025-05-14 14:37:31.558
/home/najo/NAS/DIP/datasets/meca_insertion/vla_dataset_insertion_250514/top/zed_49045152_right_1747201051.558.jpg,1747201051.558,1747201051.558,0.0,1747201051.558,23.062020652228966,36.96580301939096,-8.68057028959816,27.69580301939096,57.2216584537882,-48.66404130445793,185.73730579702803,108.8291707731059,155.6065814001465,-155.897564734324,-2.243108816419004,123.036891183581,2025-05-14 14:37:31.558
/home/najo/NAS/DIP/datasets/meca_insertion/vla_dataset_insertion_250514/right/zed_49429257_left_1747201051.563.jpg,1747201051.563,1747201051.558,0.004999876022338867,1747201051.558,23.062020652228966,36.96580301939096,-8.68057028959816,27.69580301939096,57.2216584537882,-48.66404130445793,185.73730579702803,108.8291707731059,155.6065814001465,-155.897564734324,-2.243108816419004,123.036891183581,2025-05-14 14:37:31.558
/home/najo/NAS/DIP/datasets/meca_insertion/vla_dataset_insertion_250514/right/zed_49429257_right_1747201051.563.jpg,1747201051.563,1747201051.558,0.004999876022338867,1747201051.558,23.062020652228966,36.96580301939096,-8.68057028959816,27.69580301939096,57.2216584537882,-48.66404130445793,185.73730579702803,108.8291707731059,155.6065814001465,-155.897564734324,-2.243108816419004,123.036891183581,2025-05-14 14:37:31.558
/home/najo/NAS/DIP/datasets/meca_insertion/vla_dataset_insertion_250514/left/zed_44377151_right_1747201051.573.jpg,1747201051.573,1747201051.568,0.004999876022338867,1747201051.568,23.057357446130396,36.960103545270485,-8.702331918058162,27.69010354527048,57.24860142235772,-48.65471489226079,185.74352340515944,108.81569928882114,155.67601135761413,-155.89549219828018,-2.2436269504299564,123.03637304957005,2025-05-14 14:37:31.568
/home/najo/NAS/DIP/datasets/meca_insertion/vla_dataset_insertion_250514/left/zed_44377151_left_1747201051.573.jpg,1747201051.573,1747201051.568,0.004999876022338867,1747201051.568,23.057357446130396,36.960103545270485,-8.702331918058162,27.69010354527048,57.24860142235772,-48.65471489226079,185.74352340515944,108.81569928882114,155.67601135761413,-155.89549219828018,-2.2436269504299564,123.03637304957005,2025-05-14 14:37:31.568
/home/najo/NAS/DIP/datasets/meca_insertion/vla_dataset_insertion_250514/right/zed_49429257_right_1747201051.812.jpg,1747201051.812,1747201051.816,0.003999948501586914,1747201051.816,22.95267016347277,36.82952880496111,-9.187696302140026,27.559528804961104,57.84502613866725,-48.45429320744166,185.879424075535,108.51591625141054,157.2204187429473,-155.85685864148834,-2.25,123.0289528804961,2025-05-14 14:37:31.816
/home/najo/NAS/DIP/datasets/meca_insertion/vla_dataset_insertion_250514/right/zed_49429257_left_1747201051.812.jpg,1747201051.812,1747201051.816,0.003999948501586914,1747201051.816,22.95267016347277,36.82952880496111,-9.187696302140026,27.559528804961104,57.84502613866725,-48.45429320744166,185.879424075535,108.51591625141054,157.2204187429473,-155.85685864148834,-2.25,123.0289528804961,2025-05-14 14:37:31.816
/home/najo/NAS/DIP/datasets/meca_insertion/vla_dataset_insertion_250514/left/zed_44377151_right_1747201051.865.jpg,1747201051.865,1747201051.866,0.0009999275207519531,1747201051.866,22.934345572154704,36.80335081736386,-9.281937057490088,27.533350817363864,57.95759148533538,-48.4150262260458,185.9029842643725,108.4557068799369,157.52146560031557,-155.84900524520918,-2.25,123.0263350817364,2025-05-14 14:37:31.866
/home/najo/NAS/DIP/datasets/meca_insertion/vla_dataset_insertion_250514/left/zed_44377151_left_1747201051.865.jpg,1747201051.865,1747201051.866,0.0009999275207519531,1747201051.866,22.934345572154704,36.80335081736386,-9.281937057490088,27.533350817363864,57.95759148533538,-48.4150262260458,185.9029842643725,108.4557068799369,157.52146560031557,-155.84900524520918,-2.25,123.0263350817364,2025-05-14 14:37:31.866
/home/najo/NAS/DIP/datasets/meca_insertion/vla_dataset_insertion_250514/top/zed_49045152_left_1747201051.887.jpg,1747201051.887,1747201051.886,0.0010001659393310547,1747201051.886,22.92701573562748,36.79287962232497,-9.319633359630114,27.522879622324968,58.00261762400263,-48.39931943348745,185.91240833990756,108.43162313134744,157.64188434326286,-155.84586388669751,-2.25,123.0252879622325,2025-05-14 14:37:31.886
/home/najo/NAS/DIP/datasets/meca_insertion/vla_dataset_insertion_250514/top/zed_49045152_right_1747201051.887.jpg,1747201051.887,1747201051.886,0.0010001659393310547,1747201051.886,22.92701573562748,36.79287962232497,-9.319633359630114,27.522879622324968,58.00261762400263,-48.39931943348745,185.91240833990756,108.43162313134744,157.64188434326286,-155.84586388669751,-2.25,123.0252879622325,2025-05-14 14:37:31.886
/home/najo/NAS/DIP/datasets/meca_insertion/vla_dataset_insertion_250514/front/zed_41182735_left_1747201051.908.jpg,1747201051.908,1747201051.906,0.002000093460083008,1747201051.906,22.91968589910025,36.78240842728607,-9.35732966177014,27.512408427286072,58.047643762669885,-48.38361264092911,185.9218324154425,108.40753938275796,157.76230308621015,-155.84272252818585,-2.25,123.0242408427286,2025-05-14 14:37:31.906
/home/najo/NAS/DIP/datasets/meca_insertion/vla_dataset_insertion_250514/front/zed_41182735_right_1747201051.908.jpg,1747201051.908,1747201051.906,0.002000093460083008,1747201051.906,22.91968589910025,36.78240842728607,-9.35732966177014,27.512408427286072,58.047643762669885,-48.38361264092911,185.9218324154425,108.40753938275796,157.76230308621015,-155.84272252818585,-2.25,123.0242408427286,2025-05-14 14:37:31.906
/home/najo/NAS/DIP/datasets/meca_insertion/vla_dataset_insertion_250514/left/zed_44377151_right_1747201052.114.jpg,1747201052.114,1747201052.118,0.003999948501586914,1747201052.118,22.84779411842048,36.68779411842048,-9.696617644738572,27.42779411842048,58.4588235263181,-48.23779411842048,186.01,108.18558823684096,158.84985293421573,-155.81,-2.25,123.01,2025-05-14 14:37:32.118
/home/najo/NAS/DIP/datasets/meca_insertion/vla_dataset_insertion_250514/left/zed_44377151_left_1747201052.114.jpg,1747201052.114,1747201052.118,0.003999948501586914,1747201052.118,22.84779411842048,36.68779411842048,-9.696617644738572,27.42779411842048,58.4588235263181,-48.23779411842048,186.01,108.18558823684096,158.84985293421573,-155.81,-2.25,123.01,2025-05-14 14:37:32.118
/home/najo/NAS/DIP/datasets/meca_insertion/vla_dataset_insertion_250514/top/zed_49045152_left_1747201052.180.jpg,1747201052.18,1747201052.178,0.002000093460083008,1747201052.178,22.84338235526143,36.68338235526143,-9.709852934215716,27.423382355261428,58.47647057895429,-48.23338235526143,186.01,108.17676471052286,158.88955880264714,-155.81,-2.25,123.01,2025-05-14 14:37:32.178
/home/najo/NAS/DIP/datasets/meca_insertion/vla_dataset_insertion_250514/top/zed_49045152_right_1747201052.180.jpg,1747201052.18,1747201052.178,0.002000093460083008,1747201052.178,22.84338235526143,36.68338235526143,-9.709852934215716,27.423382355261428,58.47647057895429,-48.23338235526143,186.01,108.17676471052286,158.88955880264714,-155.81,-2.25,123.01,2025-05-14 14:37:32.178
/home/najo/NAS/DIP/datasets/meca_insertion/vla_dataset_insertion_250514/front/zed_41182735_left_1747201052.216.jpg,1747201052.216,1747201052.218,0.0019998550415039062,1747201052.218,22.84044117982206,36.68044117982206,-9.718676460533812,27.420441179822063,58.48823528071175,-48.23044117982206,186.01,108.17088235964412,158.91602938160142,-155.81,-2.25,123.01,2025-05-14 14:37:32.218
/home/najo/NAS/DIP/datasets/meca_insertion/vla_dataset_insertion_250514/front/zed_41182735_right_1747201052.216.jpg,1747201052.216,1747201052.218,0.0019998550415039062,1747201052.218,22.84044117982206,36.68044117982206,-9.718676460533812,27.420441179822063,58.48823528071175,-48.23044117982206,186.01,108.17088235964412,158.91602938160142,-155.81,-2.25,123.01,2025-05-14 14:37:32.218
/home/najo/NAS/DIP/datasets/meca_insertion/vla_dataset_insertion_250514/right/zed_49429257_left_1747201052.236.jpg,1747201052.236,1747201052.234,0.002000093460083008,1747201052.234,22.83207922100915,36.66910892888757,-9.758613797580407,27.40910892888758,58.53752467394512,-48.214158442018295,186.0189108763647,108.14425746827972,159.04376217173206,-155.80702970787843,-2.2509900973738564,123.00900990262616,2025-05-14 14:37:32.234
/home/najo/NAS/DIP/datasets/meca_insertion/vla_dataset_insertion_250514/right/zed_49429257_right_1747201052.236.jpg,1747201052.236,1747201052.234,0.002000093460083008,1747201052.234,22.83207922100915,36.66910892888757,-9.758613797580407,27.40910892888758,58.53752467394512,-48.214158442018295,186.0189108763647,108.14425746827972,159.04376217173206,-155.80702970787843,-2.2509900973738564,123.00900990262616,2025-05-14 14:37:32.234
/home/najo/NAS/DIP/datasets/meca_insertion/vla_dataset_insertion_250514/top/zed_49045152_right_1747201052.472.jpg,1747201052.472,1747201052.476,0.004000186920166016,1747201052.476,22.71130433881213,36.51130433881214,-10.329130475345396,27.2569565082182,59.23782613653326,-47.97260867762427,186.14869566118784,107.7539130164364,160.86608708722406,-155.77,-2.26,123.0,2025-05-14 14:37:32.476
/home/najo/NAS/DIP/datasets/meca_insertion/vla_dataset_insertion_250514/top/zed_49045152_left_1747201052.472.jpg,1747201052.472,1747201052.476,0.004000186920166016,1747201052.476,22.71130433881213,36.51130433881214,-10.329130475345396,27.2569565082182,59.23782613653326,-47.97260867762427,186.14869566118784,107.7539130164364,160.86608708722406,-155.77,-2.26,123.0,2025-05-14 14:37:32.476
/home/najo/NAS/DIP/datasets/meca_insertion/vla_dataset_insertion_250514/right/zed_49429257_left_1747201052.500.jpg,1747201052.5,1747201052.496,0.003999948501586914,1747201052.496,22.707826074336985,36.50782607433699,-10.344782665483557,27.25173911150548,59.25695659114656,-47.965652148673975,186.152173925663,107.74347822301095,160.91652192211367,-155.77,-2.26,123.0,2025-05-14 14:37:32.496
/home/najo/NAS/DIP/datasets/meca_insertion/vla_dataset_insertion_250514/right/zed_49429257_right_1747201052.500.jpg,1747201052.5,1747201052.496,0.003999948501586914,1747201052.496,22.707826074336985,36.50782607433699,-10.344782665483557,27.25173911150548,59.25695659114656,-47.965652148673975,186.152173925663,107.74347822301095,160.91652192211367,-155.77,-2.26,123.0,2025-05-14 14:37:32.496
/home/najo/NAS/DIP/datasets/meca_insertion/vla_dataset_insertion_250514/front/zed_41182735_left_1747201052.550.jpg,1747201052.55,1747201052.551,0.0010001659393310547,1747201052.551,22.69444432460457,36.49285698877731,-10.406191041149858,27.23285698877731,59.33174671654528,-47.93968231712279,186.16476200748176,107.70174563798646,161.11333513093138,-155.76841266417276,-2.26,122.99920633208636,2025-05-14 14:37:32.551
/home/najo/NAS/DIP/datasets/meca_insertion/vla_dataset_insertion_250514/front/zed_41182735_right_1747201052.550.jpg,1747201052.55,1747201052.551,0.0010001659393310547,1747201052.551,22.69444432460457,36.49285698877731,-10.406191041149858,27.23285698877731,59.33174671654528,-47.93968231712279,186.16476200748176,107.70174563798646,161.11333513093138,-155.76841266417276,-2.26,122.99920633208636,2025-05-14 14:37:32.551
/home/najo/NAS/DIP/datasets/meca_insertion/vla_dataset_insertion_250514/left/zed_44377151_right_1747201052.567.jpg,1747201052.567,1747201052.571,0.004000186920166016,1747201052.571,22.68333323872291,36.47857130692945,-10.458571874591993,27.21857130692945,59.39523863586908,-47.91904744334255,186.1742857953804,107.66523778437528,161.28000141915635,-155.76523806820654,-2.26,122.99761903410328,2025-05-14 14:37:32.571
/home/najo/NAS/DIP/datasets/meca_insertion/vla_dataset_insertion_250514/left/zed_44377151_left_1747201052.567.jpg,1747201052.567,1747201052.571,0.004000186920166016,1747201052.571,22.68333323872291,36.47857130692945,-10.458571874591993,27.21857130692945,59.39523863586908,-47.91904744334255,186.1742857953804,107.66523778437528,161.28000141915635,-155.76523806820654,-2.26,122.99761903410328,2025-05-14 14:37:32.571
/home/najo/NAS/DIP/datasets/meca_insertion/vla_dataset_insertion_250514/top/zed_49045152_left_1747201052.785.jpg,1747201052.785,1747201052.788,0.003000020980834961,1747201052.788,22.587014894037225,36.35552234105584,-10.903432976832487,27.10552234105584,59.936418082795264,-47.73402978807445,186.25149255298135,107.35104468211168,162.69328403646023,-155.7385074470186,-2.26,122.99,2025-05-14 14:37:32.788
/home/najo/NAS/DIP/datasets/meca_insertion/vla_dataset_insertion_250514/top/zed_49045152_right_1747201052.785.jpg,1747201052.785,1747201052.788,0.003000020980834961,1747201052.788,22.587014894037225,36.35552234105584,-10.903432976832487,27.10552234105584,59.936418082795264,-47.73402978807445,186.25149255298135,107.35104468211168,162.69328403646023,-155.7385074470186,-2.26,122.99,2025-05-14 14:37:32.788
/home/najo/NAS/DIP/datasets/meca_insertion/vla_dataset_insertion_250514/left/zed_44377151_left_1747201052.863.jpg,1747201052.863,1747201052.858,0.004999876022338867,1747201052.858,22.576567147714474,36.33985072157171,-10.950447835284866,27.08985072157171,59.9938806875704,-47.71313429542895,186.2567164261428,107.31970144314342,162.8447763581401,-155.73328357385722,-2.26,122.99,2025-05-14 14:37:32.858
/home/najo/NAS/DIP/datasets/meca_insertion/vla_dataset_insertion_250514/left/zed_44377151_right_1747201052.863.jpg,1747201052.863,1747201052.858,0.004999876022338867,1747201052.858,22.576567147714474,36.33985072157171,-10.950447835284866,27.08985072157171,59.9938806875704,-47.71313429542895,186.2567164261428,107.31970144314342,162.8447763581401,-155.73328357385722,-2.26,122.99,2025-05-14 14:37:32.858
/home/najo/NAS/DIP/datasets/meca_insertion/vla_dataset_insertion_250514/front/zed_41182735_left_1747201052.877.jpg,1747201052.877,1747201052.878,0.0009999275207519531,1747201052.878,22.573582077336543,36.33537311600482,-10.963880651985546,27.085373116004817,60.010298574649,-47.70716415467309,186.2582089613317,107.31074623200963,162.88805987862008,-155.73179103866826,-2.26,122.99,2025-05-14 14:37:32.878
/home/najo/NAS/DIP/datasets/meca_insertion/vla_dataset_insertion_250514/front/zed_41182735_right_1747201052.877.jpg,1747201052.877,1747201052.878,0.0009999275207519531,1747201052.878,22.573582077336543,36.33537311600482,-10.963880651985546,27.085373116004817,60.010298574649,-47.70716415467309,186.2582089613317,107.31074623200963,162.88805987862008,-155.73179103866826,-2.26,122.99,2025-05-14 14:37:32.878
/home/najo/NAS/DIP/datasets/meca_insertion/vla_dataset_insertion_250514/right/zed_49429257_right_1747201052.915.jpg,1747201052.915,1747201052.912,0.003000020980834961,1747201052.912,22.562079221009142,36.32108912363529,-11.012673213337267,27.07108912363529,60.06960389495426,-47.68712873413987,186.26495048686928,107.27623766302744,163.04396022425493,-155.72900990262613,-2.26,122.98900990262614,2025-05-14 14:37:32.912
/home/najo/NAS/DIP/datasets/meca_insertion/vla_dataset_insertion_250514/right/zed_49429257_left_1747201052.915.jpg,1747201052.915,1747201052.912,0.003000020980834961,1747201052.912,22.562079221009142,36.32108912363529,-11.012673213337267,27.07108912363529,60.06960389495426,-47.68712873413987,186.26495048686928,107.27623766302744,163.04396022425493,-155.72900990262613,-2.26,122.98900990262614,2025-05-14 14:37:32.912
/home/najo/NAS/DIP/datasets/meca_insertion/vla_dataset_insertion_250514/top/zed_49045152_left_1747201053.073.jpg,1747201053.073,1747201053.073,0.0,1747201053.073,22.47018868815734,36.21358491754312,-11.409056559213308,26.96358491754312,60.54886787105597,-47.523773605700455,186.32320754122844,106.98735852324356,164.30698098948258,-155.71339622938578,-2.26,122.98,2025-05-14 14:37:33.073
/home/najo/NAS/DIP/datasets/meca_insertion/vla_dataset_insertion_250514/top/zed_49045152_right_1747201053.073.jpg,1747201053.073,1747201053.073,0.0,1747201053.073,22.47018868815734,36.21358491754312,-11.409056559213308,26.96358491754312,60.54886787105597,-47.523773605700455,186.32320754122844,106.98735852324356,164.30698098948258,-155.71339622938578,-2.26,122.98,2025-05-14 14:37:33.073
/home/najo/NAS/DIP/datasets/meca_insertion/vla_dataset_insertion_250514/left/zed_44377151_right_1747201053.131.jpg,1747201053.131,1747201053.129,0.002000093460083008,1747201053.129,22.453150698353443,36.190410977694825,-11.49287664790347,26.941780838024133,60.65109580987934,-47.486301396706885,186.3354794413173,106.92671237440172,164.57547924535697,-155.7086301396707,-2.26,122.9786301396707,2025-05-14 14:37:33.129
/home/najo/NAS/DIP/datasets/meca_insertion/vla_dataset_insertion_250514/left/zed_44377151_left_1747201053.131.jpg,1747201053.131,1747201053.129,0.002000093460083008,1747201053.129,22.453150698353443,36.190410977694825,-11.49287664790347,26.941780838024133,60.65109580987934,-47.486301396706885,186.3354794413173,106.92671237440172,164.57547924535697,-155.7086301396707,-2.26,122.9786301396707,2025-05-14 14:37:33.129
/home/najo/NAS/DIP/datasets/meca_insertion/vla_dataset_insertion_250514/right/zed_49429257_right_1747201053.183.jpg,1747201053.183,1747201053.179,0.004000186920166016,1747201053.179,22.43602744423705,36.16643842193188,-11.575068267662145,26.921232933084465,60.75383533457768,-47.45205488847411,186.3491780446104,106.86849331040598,164.8391773587494,-155.7052054888474,-2.26,122.9752054888474,2025-05-14 14:37:33.179
/home/najo/NAS/DIP/datasets/meca_insertion/vla_dataset_insertion_250514/right/zed_49429257_left_1747201053.183.jpg,1747201053.183,1747201053.179,0.004000186920166016,1747201053.179,22.43602744423705,36.16643842193188,-11.575068267662145,26.921232933084465,60.75383533457768,-47.45205488847411,186.3491780446104,106.86849331040598,164.8391773587494,-155.7052054888474,-2.26,122.9752054888474,2025-05-14 14:37:33.179
/home/najo/NAS/DIP/datasets/meca_insertion/vla_dataset_insertion_250514/front/zed_41182735_left_1747201053.222.jpg,1747201053.222,1747201053.219,0.0029997825622558594,1747201053.219,22.422328759293823,36.14726026301136,-11.640821955389642,26.90479451115259,60.836027444237054,-47.42465751858765,186.36013699256492,106.821917781599,165.0501371068751,-155.70246575185877,-2.26,122.97246575185876,2025-05-14 14:37:33.219
/home/najo/NAS/DIP/datasets/meca_insertion/vla_dataset_insertion_250514/front/zed_41182735_right_1747201053.222.jpg,1747201053.222,1747201053.219,0.0029997825622558594,1747201053.219,22.422328759293823,36.14726026301136,-11.640821955389642,26.90479451115259,60.836027444237054,-47.42465751858765,186.36013699256492,106.821917781599,165.0501371068751,-155.70246575185877,-2.26,122.97246575185876,2025-05-14 14:37:33.219
/home/najo/NAS/DIP/datasets/meca_insertion/vla_dataset_insertion_250514/top/zed_49045152_left_1747201053.386.jpg,1747201053.386,1747201053.386,0.0,1747201053.386,22.341176478838012,36.051176478838016,-12.005294084647948,26.80823530511735,61.274117605809934,-47.27529413139669,186.40294117372068,106.54352943651404,166.21176460138517,-155.68705882627933,-2.26,122.97,2025-05-14 14:37:33.386
/home/najo/NAS/DIP/datasets/meca_insertion/vla_dataset_insertion_250514/top/zed_49045152_right_1747201053.386.jpg,1747201053.386,1747201053.386,0.0,1747201053.386,22.341176478838012,36.051176478838016,-12.005294084647948,26.80823530511735,61.274117605809934,-47.27529413139669,186.40294117372068,106.54352943651404,166.21176460138517,-155.68705882627933,-2.26,122.97,2025-05-14 14:37:33.386
/home/najo/NAS/DIP/datasets/meca_insertion/vla_dataset_insertion_250514/right/zed_49429257_left_1747201053.436.jpg,1747201053.436,1747201053.436,0.0,1747201053.436,22.32647054011159,36.0364705401116,-12.064117839553644,26.788627386815453,61.34764729944205,-47.25078423351932,186.4078431532961,106.49941162033475,166.3980398252532,-155.68215684670386,-2.26,122.97,2025-05-14 14:37:33.436
/home/najo/NAS/DIP/datasets/meca_insertion/vla_dataset_insertion_250514/right/zed_49429257_right_1747201053.436.jpg,1747201053.436,1747201053.436,0.0,1747201053.436,22.32647054011159,36.0364705401116,-12.064117839553644,26.788627386815453,61.34764729944205,-47.25078423351932,186.4078431532961,106.49941162033475,166.3980398252532,-155.68215684670386,-2.26,122.97,2025-05-14 14:37:33.436
/home/najo/NAS/DIP/datasets/meca_insertion/vla_dataset_insertion_250514/left/zed_44377151_left_1747201053.465.jpg,1747201053.465,1747201053.468,0.003000020980834961,1747201053.468,22.315098043798898,36.02313726131845,-12.113529389765295,26.77411765255868,61.408431345966406,-47.2301960875978,186.41196078248043,106.46235295767605,166.55450973425675,-155.68,-2.26,122.96901960875978,2025-05-14 14:37:33.468
/home/najo/NAS/DIP/datasets/meca_insertion/vla_dataset_insertion_250514/left/zed_44377151_right_1747201053.465.jpg,1747201053.465,1747201053.468,0.003000020980834961,1747201053.468,22.315098043798898,36.02313726131845,-12.113529389765295,26.77411765255868,61.408431345966406,-47.2301960875978,186.41196078248043,106.46235295767605,166.55450973425675,-155.68,-2.26,122.96901960875978,2025-05-14 14:37:33.468
/home/najo/NAS/DIP/datasets/meca_insertion/vla_dataset_insertion_250514/front/zed_41182735_right_1747201053.522.jpg,1747201053.522,1747201053.518,0.004000186920166016,1747201053.518,22.290588262793374,35.98882356791073,-12.231176338591789,26.744705915352053,61.55058807579841,-47.18117652558676,186.42176469488265,106.37411774605616,166.92705840554066,-155.68,-2.26,122.96411765255868,2025-05-14 14:37:33.518
/home/najo/NAS/DIP/datasets/meca_insertion/vla_dataset_insertion_250514/front/zed_41182735_left_1747201053.522.jpg,1747201053.522,1747201053.518,0.004000186920166016,1747201053.518,22.290588262793374,35.98882356791073,-12.231176338591789,26.744705915352053,61.55058807579841,-47.18117652558676,186.42176469488265,106.37411774605616,166.92705840554066,-155.68,-2.26,122.96411765255868,2025-05-14 14:37:33.518
/home/najo/NAS/DIP/datasets/meca_insertion/vla_dataset_insertion_250514/top/zed_49045152_right_1747201053.725.jpg,1747201053.725,1747201053.72,0.004999876022338867,1747201053.72,22.220476194080405,35.895714291120605,-12.567142835517576,26.655714291120606,61.96142854439697,-47.04619048520101,186.45,106.112380970402,167.99571421543212,-155.67,-2.26,122.96,2025-05-14 14:37:33.720
/home/najo/NAS/DIP/datasets/meca_insertion/vla_dataset_insertion_250514/top/zed_49045152_left_1747201053.725.jpg,1747201053.725,1747201053.72,0.004999876022338867,1747201053.72,22.220476194080405,35.895714291120605,-12.567142835517576,26.655714291120606,61.96142854439697,-47.04619048520101,186.45,106.112380970402,167.99571421543212,-155.67,-2.26,122.96,2025-05-14 14:37:33.720
/home/najo/NAS/DIP/datasets/meca_insertion/vla_dataset_insertion_250514/left/zed_44377151_right_1747201053.746.jpg,1747201053.746,1747201053.75,0.003999948501586914,1747201053.75,22.215714291120605,35.88857143668091,-12.595714253276366,26.64857143668091,61.997142816595456,-47.03428572780152,186.45,106.08857145560305,168.0885713231482,-155.67,-2.26,122.96,2025-05-14 14:37:33.750
/home/najo/NAS/DIP/datasets/meca_insertion/vla_dataset_insertion_250514/left/zed_44377151_left_1747201053.746.jpg,1747201053.746,1747201053.75,0.003999948501586914,1747201053.75,22.215714291120605,35.88857143668091,-12.595714253276366,26.64857143668091,61.997142816595456,-47.03428572780152,186.45,106.08857145560305,168.0885713231482,-155.67,-2.26,122.96,2025-05-14 14:37:33.750
/home/najo/NAS/DIP/datasets/meca_insertion/vla_dataset_insertion_250514/front/zed_41182735_left_1747201053.787.jpg,1747201053.787,1747201053.786,0.0009999275207519531,1747201053.786,22.21,35.88,-12.63,26.64,62.04,-47.02,186.45,106.06,168.2,-155.67,-2.26,122.96,2025-05-14 14:37:33.786
/home/najo/NAS/DIP/datasets/meca_insertion/vla_dataset_insertion_250514/front/zed_41182735_right_1747201053.787.jpg,1747201053.787,1747201053.786,0.0009999275207519531,1747201053.786,22.21,35.88,-12.63,26.64,62.04,-47.02,186.45,106.06,168.2,-155.67,-2.26,122.96,2025-05-14 14:37:33.786
/home/najo/NAS/DIP/datasets/meca_insertion/vla_dataset_insertion_250514/right/zed_49429257_left_1747201053.839.jpg,1747201053.839,1747201053.836,0.003000020980834961,1747201053.836,22.18058826279338,35.84078435039117,-12.762352817429802,26.60568630659228,62.20176455463642,-46.96117652558676,186.4598039124022,105.9570589197768,168.6215682332949,-155.66509804379888,-2.26,122.9550980437989,2025-05-14 14:37:33.836
/home/najo/NAS/DIP/datasets/meca_insertion/vla_dataset_insertion_250514/right/zed_49429257_right_1747201053.839.jpg,1747201053.839,1747201053.836,0.003000020980834961,1747201053.836,22.18058826279338,35.84078435039117,-12.762352817429802,26.60568630659228,62.20176455463642,-46.96117652558676,186.4598039124022,105.9570589197768,168.6215682332949,-155.66509804379888,-2.26,122.9550980437989,2025-05-14 14:37:33.836
/home/najo/NAS/DIP/datasets/meca_insertion/vla_dataset_insertion_250514/top/zed_49045152_right_1747201054.024.jpg,1747201054.024,1747201054.019,0.004999876022338867,1747201054.019,22.09181819068499,35.73772728602748,-13.150909046575062,26.49909092091332,62.67045449077591,-46.80227274648414,186.48136363488584,105.64727276273996,169.8509089490402,-155.65863636511415,-2.25,122.95,2025-05-14 14:37:34.019
/home/najo/NAS/DIP/datasets/meca_insertion/vla_dataset_insertion_250514/top/zed_49045152_left_1747201054.024.jpg,1747201054.024,1747201054.019,0.004999876022338867,1747201054.019,22.09181819068499,35.73772728602748,-13.150909046575062,26.49909092091332,62.67045449077591,-46.80227274648414,186.48136363488584,105.64727276273996,169.8509089490402,-155.65863636511415,-2.25,122.95,2025-05-14 14:37:34.019
/home/najo/NAS/DIP/datasets/meca_insertion/vla_dataset_insertion_250514/left/zed_44377151_left_1747201054.084.jpg,1747201054.084,1747201054.089,0.004999876022338867,1747201054.089,22.07272730228329,35.70909095342493,-13.246363488583544,26.473636403044388,62.788181635919706,-46.76090915494713,186.48454544961945,105.57090920913316,170.15636316346735,-155.65545455038054,-2.25,122.95,2025-05-14 14:37:34.089
/home/najo/NAS/DIP/datasets/meca_insertion/vla_dataset_insertion_250514/left/zed_44377151_right_1747201054.084.jpg,1747201054.084,1747201054.089,0.004999876022338867,1747201054.089,22.07272730228329,35.70909095342493,-13.246363488583544,26.473636403044388,62.788181635919706,-46.76090915494713,186.48454544961945,105.57090920913316,170.15636316346735,-155.65545455038054,-2.25,122.95,2025-05-14 14:37:34.089
/home/najo/NAS/DIP/datasets/meca_insertion/vla_dataset_insertion_250514/front/zed_41182735_right_1747201054.125.jpg,1747201054.125,1747201054.129,0.003999948501586914,1747201054.129,22.061818223196607,35.69272733479491,-13.300908884016962,26.459090964262145,62.85545429028759,-46.73727281692598,186.48636362946723,105.52727289278644,170.3309084288543,-155.65363637053278,-2.25,122.95,2025-05-14 14:37:34.129
/home/najo/NAS/DIP/datasets/meca_insertion/vla_dataset_insertion_250514/front/zed_41182735_left_1747201054.125.jpg,1747201054.125,1747201054.129,0.003999948501586914,1747201054.129,22.061818223196607,35.69272733479491,-13.300908884016962,26.459090964262145,62.85545429028759,-46.73727281692598,186.48636362946723,105.52727289278644,170.3309084288543,-155.65363637053278,-2.25,122.95,2025-05-14 14:37:34.129
/home/najo/NAS/DIP/datasets/meca_insertion/vla_dataset_insertion_250514/right/zed_49429257_right_1747201054.170.jpg,1747201054.17,1747201054.169,0.0010001659393310547,1747201054.169,22.050909144109923,35.676363716164886,-13.35545427945038,26.4445455254799,62.92272694465547,-46.71363647890483,186.48818180931505,105.4836365764397,170.50545369424125,-155.651818190685,-2.25,122.95,2025-05-14 14:37:34.169
/home/najo/NAS/DIP/datasets/meca_insertion/vla_dataset_insertion_250514/right/zed_49429257_left_1747201054.170.jpg,1747201054.17,1747201054.169,0.0010001659393310547,1747201054.169,22.050909144109923,35.676363716164886,-13.35545427945038,26.4445455254799,62.92272694465547,-46.71363647890483,186.48818180931505,105.4836365764397,170.50545369424125,-155.651818190685,-2.25,122.95,2025-05-14 14:37:34.169
/home/najo/NAS/DIP/datasets/meca_insertion/vla_dataset_insertion_250514/top/zed_49045152_left_1747201054.363.jpg,1747201054.363,1747201054.362,0.0009999275207519531,1747201054.362,21.963600006103515,35.57040000915527,-13.748399963378906,26.340400009155275,63.404799957275394,-46.5540000152588,186.5,105.15800003051758,171.7515998840332,-155.65,-2.25,122.94,2025-05-14 14:37:34.362
/home/najo/NAS/DIP/datasets/meca_insertion/vla_dataset_insertion_250514/top/zed_49045152_right_1747201054.363.jpg,1747201054.363,1747201054.362,0.0009999275207519531,1747201054.362,21.963600006103515,35.57040000915527,-13.748399963378906,26.340400009155275,63.404799957275394,-46.5540000152588,186.5,105.15800003051758,171.7515998840332,-155.65,-2.25,122.94,2025-05-14 14:37:34.362
/home/najo/NAS/DIP/datasets/meca_insertion/vla_dataset_insertion_250514/front/zed_41182735_right_1747201054.407.jpg,1747201054.407,1747201054.412,0.004999876022338867,1747201054.412,21.95560001373291,35.558400020599365,-13.79639991760254,26.328400020599364,63.46079990386963,-46.53400003433228,186.5,105.11800006866456,171.9035997390747,-155.65,-2.25,122.94,2025-05-14 14:37:34.412
/home/najo/NAS/DIP/datasets/meca_insertion/vla_dataset_insertion_250514/front/zed_41182735_left_1747201054.407.jpg,1747201054.407,1747201054.412,0.004999876022338867,1747201054.412,21.95560001373291,35.558400020599365,-13.79639991760254,26.328400020599364,63.46079990386963,-46.53400003433228,186.5,105.11800006866456,171.9035997390747,-155.65,-2.25,122.94,2025-05-14 14:37:34.412
/home/najo/NAS/DIP/datasets/meca_insertion/vla_dataset_insertion_250514/left/zed_44377151_left_1747201054.447.jpg,1747201054.447,1747201054.447,0.0,1747201054.447,21.95,35.55,-13.83,26.32,63.5,-46.52,186.5,105.09,172.01,-155.65,-2.25,122.94,2025-05-14 14:37:34.447
/home/najo/NAS/DIP/datasets/meca_insertion/vla_dataset_insertion_250514/left/zed_44377151_right_1747201054.447.jpg,1747201054.447,1747201054.447,0.0,1747201054.447,21.95,35.55,-13.83,26.32,63.5,-46.52,186.5,105.09,172.01,-155.65,-2.25,122.94,2025-05-14 14:37:34.447
/home/najo/NAS/DIP/datasets/meca_insertion/vla_dataset_insertion_250514/right/zed_49429257_left_1747201054.503.jpg,1747201054.503,1747201054.507,0.003999948501586914,1747201054.507,21.91756759891552,35.5094594986444,-13.97594580488017,26.2794594986444,63.67837820596465,-46.4591892479666,186.5,104.9683784959332,172.47216171545386,-155.65,-2.24594594986444,122.94,2025-05-14 14:37:34.507
/home/najo/NAS/DIP/datasets/meca_insertion/vla_dataset_insertion_250514/right/zed_49429257_right_1747201054.503.jpg,1747201054.503,1747201054.507,0.003999948501586914,1747201054.507,21.91756759891552,35.5094594986444,-13.97594580488017,26.2794594986444,63.67837820596465,-46.4591892479666,186.5,104.9683784959332,172.47216171545386,-155.65,-2.24594594986444,122.94,2025-05-14 14:37:34.507
/home/najo/NAS/DIP/datasets/meca_insertion/vla_dataset_insertion_250514/top/zed_49045152_right_1747201054.683.jpg,1747201054.683,1747201054.685,0.0019998550415039062,1747201054.685,21.84731093800714,35.41974791734285,-14.303445309964298,26.189747917342853,64.08369739262145,-46.31705885534999,186.4924369793357,104.69168073136429,173.51302499188574,-155.65,-2.24,122.94,2025-05-14 14:37:34.685
/home/najo/NAS/DIP/datasets/meca_insertion/vla_dataset_insertion_250514/top/zed_49045152_left_1747201054.683.jpg,1747201054.683,1747201054.685,0.0019998550415039062,1747201054.685,21.84731093800714,35.41974791734285,-14.303445309964298,26.189747917342853,64.08369739262145,-46.31705885534999,186.4924369793357,104.69168073136429,173.51302499188574,-155.65,-2.24,122.94,2025-05-14 14:37:34.685
/home/najo/NAS/DIP/datasets/meca_insertion/vla_dataset_insertion_250514/left/zed_44377151_right_1747201054.727.jpg,1747201054.727,1747201054.724,0.003000020980834961,1747201054.724,21.8368253980268,35.4068253980268,-14.351904757399495,26.1768253980268,64.1442857088794,-46.2952380970402,186.49,104.6504761940804,173.6680952236784,-155.65,-2.24,122.94,2025-05-14 14:37:34.724
/home/najo/NAS/DIP/datasets/meca_insertion/vla_dataset_insertion_250514/left/zed_44377151_left_1747201054.727.jpg,1747201054.727,1747201054.724,0.003000020980834961,1747201054.724,21.8368253980268,35.4068253980268,-14.351904757399495,26.1768253980268,64.1442857088794,-46.2952380970402,186.49,104.6504761940804,173.6680952236784,-155.65,-2.24,122.94,2025-05-14 14:37:34.724
/home/najo/NAS/DIP/datasets/meca_insertion/vla_dataset_insertion_250514/right/zed_49429257_right_1747201054.771.jpg,1747201054.771,1747201054.774,0.003000020980834961,1747201054.774,21.82095238816081,35.390952388160805,-14.411428544396973,26.16095238816081,64.21571425327636,-46.271428582241214,186.49,104.60285716448244,173.85857134207032,-155.65,-2.24,122.94,2025-05-14 14:37:34.774
/home/najo/NAS/DIP/datasets/meca_insertion/vla_dataset_insertion_250514/right/zed_49429257_left_1747201054.771.jpg,1747201054.771,1747201054.774,0.003000020980834961,1747201054.774,21.82095238816081,35.390952388160805,-14.411428544396973,26.16095238816081,64.21571425327636,-46.271428582241214,186.49,104.60285716448244,173.85857134207032,-155.65,-2.24,122.94,2025-05-14 14:37:34.774
/home/najo/NAS/DIP/datasets/meca_insertion/vla_dataset_insertion_250514/front/zed_41182735_right_1747201054.840.jpg,1747201054.84,1747201054.84,0.0,1747201054.84,21.8,35.37,-14.49,26.14,64.31,-46.24,186.49,104.54,174.11,-155.65,-2.24,122.94,2025-05-14 14:37:34.840
/home/najo/NAS/DIP/datasets/meca_insertion/vla_dataset_insertion_250514/front/zed_41182735_left_1747201054.840.jpg,1747201054.84,1747201054.84,0.0,1747201054.84,21.8,35.37,-14.49,26.14,64.31,-46.24,186.49,104.54,174.11,-155.65,-2.24,122.94,2025-05-14 14:37:34.840
/home/najo/NAS/DIP/datasets/meca_insertion/vla_dataset_insertion_250514/top/zed_49045152_right_1747201054.995.jpg,1747201054.995,1747201054.996,0.0010001659393310547,1747201054.996,21.71111111896028,35.25518519826714,-14.894444405198584,26.038148158613712,64.8033332862383,-46.07222223792057,186.46703703965343,104.18148151549455,175.3892591362889,-155.65,-2.23,122.93,2025-05-14 14:37:34.996
/home/najo/NAS/DIP/datasets/meca_insertion/vla_dataset_insertion_250514/top/zed_49045152_left_1747201054.995.jpg,1747201054.995,1747201054.996,0.0010001659393310547,1747201054.996,21.71111111896028,35.25518519826714,-14.894444405198584,26.038148158613712,64.8033332862383,-46.07222223792057,186.46703703965343,104.18148151549455,175.3892591362889,-155.65,-2.23,122.93,2025-05-14 14:37:34.996
/home/najo/NAS/DIP/datasets/meca_insertion/vla_dataset_insertion_250514/right/zed_49429257_right_1747201055.048.jpg,1747201055.048,1747201055.046,0.002000093460083008,1747201055.046,21.70000001766064,35.23666669610106,-14.949999911696816,26.02333335688085,64.86999989403618,-46.05000003532128,186.4633333392202,104.13333340986276,175.56333305665004,-155.65,-2.23,122.93,2025-05-14 14:37:35.046
/home/najo/NAS/DIP/datasets/meca_insertion/vla_dataset_insertion_250514/right/zed_49429257_left_1747201055.048.jpg,1747201055.048,1747201055.046,0.002000093460083008,1747201055.046,21.70000001766064,35.23666669610106,-14.949999911696816,26.02333335688085,64.86999989403618,-46.05000003532128,186.4633333392202,104.13333340986276,175.56333305665004,-155.65,-2.23,122.93,2025-05-14 14:37:35.046
/home/najo/NAS/DIP/datasets/meca_insertion/vla_dataset_insertion_250514/front/zed_41182735_left_1747201055.107.jpg,1747201055.107,1747201055.111,0.003999948501586914,1747201055.111,21.67974358765357,35.20632478353809,-15.051282061732143,25.996324783538096,64.99153847407858,-46.00777777324941,186.45658119588447,104.04555554649882,175.88239319548512,-155.65170940205775,-2.228290597942262,122.93,2025-05-14 14:37:35.111
/home/najo/NAS/DIP/datasets/meca_insertion/vla_dataset_insertion_250514/front/zed_41182735_right_1747201055.107.jpg,1747201055.107,1747201055.111,0.003999948501586914,1747201055.111,21.67974358765357,35.20632478353809,-15.051282061732143,25.996324783538096,64.99153847407858,-46.00777777324941,186.45658119588447,104.04555554649882,175.88239319548512,-155.65170940205775,-2.228290597942262,122.93,2025-05-14 14:37:35.111
/home/najo/NAS/DIP/datasets/meca_insertion/vla_dataset_insertion_250514/left/zed_44377151_right_1747201055.155.jpg,1747201055.155,1747201055.151,0.003999948501586914,1747201055.151,21.659230762960718,35.17897435061428,-15.15384618519643,25.968974350614285,65.11461542223573,-45.963333319748216,186.4497435876536,103.95666663949643,176.20717958645537,-155.6551282061732,-2.224871793826786,122.93,2025-05-14 14:37:35.151
/home/najo/NAS/DIP/datasets/meca_insertion/vla_dataset_insertion_250514/left/zed_44377151_left_1747201055.155.jpg,1747201055.155,1747201055.151,0.003999948501586914,1747201055.151,21.659230762960718,35.17897435061428,-15.15384618519643,25.968974350614285,65.11461542223573,-45.963333319748216,186.4497435876536,103.95666663949643,176.20717958645537,-155.6551282061732,-2.224871793826786,122.93,2025-05-14 14:37:35.151
/home/najo/NAS/DIP/datasets/meca_insertion/vla_dataset_insertion_250514/top/zed_49045152_left_1747201055.316.jpg,1747201055.316,1747201055.316,0.0,1747201055.316,21.59,35.09,-15.48,25.88,65.51,-45.83,186.43,103.67,177.24,-155.66,-2.22,122.93,2025-05-14 14:37:35.316
/home/najo/NAS/DIP/datasets/meca_insertion/vla_dataset_insertion_250514/top/zed_49045152_right_1747201055.316.jpg,1747201055.316,1747201055.316,0.0,1747201055.316,21.59,35.09,-15.48,25.88,65.51,-45.83,186.43,103.67,177.24,-155.66,-2.22,122.93,2025-05-14 14:37:35.316
/home/najo/NAS/DIP/datasets/meca_insertion/vla_dataset_insertion_250514/right/zed_49429257_right_1747201055.359.jpg,1747201055.359,1747201055.356,0.003000020980834961,1747201055.356,21.587037039653428,35.08703703965343,-15.488888881039715,25.877037039653427,65.5218518413863,-45.82703703965343,186.42703703965344,103.66111111896028,177.26666664311915,-155.66,-2.22,122.93,2025-05-14 14:37:35.356
/home/najo/NAS/DIP/datasets/meca_insertion/vla_dataset_insertion_250514/right/zed_49429257_left_1747201055.359.jpg,1747201055.359,1747201055.356,0.003000020980834961,1747201055.356,21.587037039653428,35.08703703965343,-15.488888881039715,25.877037039653427,65.5218518413863,-45.82703703965343,186.42703703965344,103.66111111896028,177.26666664311915,-155.66,-2.22,122.93,2025-05-14 14:37:35.356
/home/najo/NAS/DIP/datasets/meca_insertion/vla_dataset_insertion_250514/left/zed_44377151_right_1747201055.412.jpg,1747201055.412,1747201055.416,0.003999948501586914,1747201055.416,21.58259259913357,35.08259259913357,-15.502222202599292,25.87259259913357,65.53962960346573,-45.82259259913357,186.4225925991336,103.6477777974007,177.3066666077979,-155.66,-2.22,122.93,2025-05-14 14:37:35.416
/home/najo/NAS/DIP/datasets/meca_insertion/vla_dataset_insertion_250514/left/zed_44377151_left_1747201055.412.jpg,1747201055.412,1747201055.416,0.003999948501586914,1747201055.416,21.58259259913357,35.08259259913357,-15.502222202599292,25.87259259913357,65.53962960346573,-45.82259259913357,186.4225925991336,103.6477777974007,177.3066666077979,-155.66,-2.22,122.93,2025-05-14 14:37:35.416
/home/najo/NAS/DIP/datasets/meca_insertion/vla_dataset_insertion_250514/front/zed_41182735_right_1747201055.460.jpg,1747201055.46,1747201055.461,0.0009999275207519531,1747201055.461,21.571743124684204,35.06990826350292,-15.548532084807045,25.85990826350292,65.59678896012284,-45.80348624936841,186.4163302776374,103.60513763755552,177.4529356991463,-155.66091743059064,-2.2190825694093563,122.93,2025-05-14 14:37:35.461
/home/najo/NAS/DIP/datasets/meca_insertion/vla_dataset_insertion_250514/front/zed_41182735_left_1747201055.460.jpg,1747201055.46,1747201055.461,0.0009999275207519531,1747201055.461,21.571743124684204,35.06990826350292,-15.548532084807045,25.85990826350292,65.59678896012284,-45.80348624936841,186.4163302776374,103.60513763755552,177.4529356991463,-155.66091743059064,-2.2190825694093563,122.93,2025-05-14 14:37:35.461
/home/najo/NAS/DIP/datasets/meca_insertion/vla_dataset_insertion_250514/right/zed_49429257_left_1747201055.669.jpg,1747201055.669,1747201055.67,0.0010001659393310547,1747201055.67,21.45,34.92,-16.11,25.71,66.28,-45.56,186.36,103.09,179.23,-155.67,-2.2,122.93,2025-05-14 14:37:35.670
/home/najo/NAS/DIP/datasets/meca_insertion/vla_dataset_insertion_250514/right/zed_49429257_right_1747201055.669.jpg,1747201055.669,1747201055.67,0.0010001659393310547,1747201055.67,21.45,34.92,-16.11,25.71,66.28,-45.56,186.36,103.09,179.23,-155.67,-2.2,122.93,2025-05-14 14:37:35.670
/home/najo/NAS/DIP/datasets/meca_insertion/vla_dataset_insertion_250514/left/zed_44377151_left_1747201055.736.jpg,1747201055.736,1747201055.74,0.003999948501586914,1747201055.74,21.45,34.92,-16.11,25.71,66.28,-45.56,186.36,103.09,179.23,-155.67,-2.2,122.93,2025-05-14 14:37:35.740
/home/najo/NAS/DIP/datasets/meca_insertion/vla_dataset_insertion_250514/left/zed_44377151_right_1747201055.736.jpg,1747201055.736,1747201055.74,0.003999948501586914,1747201055.74,21.45,34.92,-16.11,25.71,66.28,-45.56,186.36,103.09,179.23,-155.67,-2.2,122.93,2025-05-14 14:37:35.740
/home/najo/NAS/DIP/datasets/meca_insertion/vla_dataset_insertion_250514/top/zed_49045152_left_1747201055.774.jpg,1747201055.774,1747201055.769,0.004999876022338867,1747201055.769,21.45,34.92,-16.11,25.71,66.28,-45.56,186.36,103.09,179.23,-155.67,-2.2,122.93,2025-05-14 14:37:35.769
/home/najo/NAS/DIP/datasets/meca_insertion/vla_dataset_insertion_250514/top/zed_49045152_right_1747201055.774.jpg,1747201055.774,1747201055.769,0.004999876022338867,1747201055.769,21.45,34.92,-16.11,25.71,66.28,-45.56,186.36,103.09,179.23,-155.67,-2.2,122.93,2025-05-14 14:37:35.769
/home/najo/NAS/DIP/datasets/meca_insertion/vla_dataset_insertion_250514/front/zed_41182735_right_1747201055.813.jpg,1747201055.813,1747201055.809,0.003999948501586914,1747201055.809,21.42037039653428,34.88148151549456,-16.243333215595754,25.67444447584113,66.44296281906148,-45.5066667137617,186.34222223792057,102.96851862579054,179.65074036921325,-155.67592592069315,-2.197037039653428,122.93,2025-05-14 14:37:35.809
/home/najo/NAS/DIP/datasets/meca_insertion/vla_dataset_insertion_250514/front/zed_41182735_left_1747201055.813.jpg,1747201055.813,1747201055.809,0.003999948501586914,1747201055.809,21.42037039653428,34.88148151549456,-16.243333215595754,25.67444447584113,66.44296281906148,-45.5066667137617,186.34222223792057,102.96851862579054,179.65074036921325,-155.67592592069315,-2.197037039653428,122.93,2025-05-14 14:37:35.809
/home/najo/NAS/DIP/datasets/meca_insertion/vla_dataset_insertion_250514/left/zed_44377151_right_1747201055.996.jpg,1747201055.996,1747201055.994,0.002000093460083008,1747201055.994,21.327868869758944,34.76049182634526,-16.670655651205283,25.56049182634526,66.96278678144634,-45.328360696104205,186.27786886975892,102.5767213922084,181.0040980838569,-155.69,-2.19,122.93,2025-05-14 14:37:35.994
/home/najo/NAS/DIP/datasets/meca_insertion/vla_dataset_insertion_250514/left/zed_44377151_left_1747201055.996.jpg,1747201055.996,1747201055.994,0.002000093460083008,1747201055.994,21.327868869758944,34.76049182634526,-16.670655651205283,25.56049182634526,66.96278678144634,-45.328360696104205,186.27786886975892,102.5767213922084,181.0040980838569,-155.69,-2.19,122.93,2025-05-14 14:37:35.994
/home/najo/NAS/DIP/datasets/meca_insertion/vla_dataset_insertion_250514/top/zed_49045152_right_1747201056.049.jpg,1747201056.049,1747201056.046,0.003000020980834961,1747201056.046,21.312052988915905,34.74072848706856,-16.745761549878424,25.54072848706856,67.05370856096252,-45.29543047967916,186.2647019926106,102.50556295196893,181.24258265702463,-155.69132450184733,-2.188675498152651,122.93,2025-05-14 14:37:36.046
/home/najo/NAS/DIP/datasets/meca_insertion/vla_dataset_insertion_250514/top/zed_49045152_left_1747201056.049.jpg,1747201056.049,1747201056.046,0.003000020980834961,1747201056.046,21.312052988915905,34.74072848706856,-16.745761549878424,25.54072848706856,67.05370856096252,-45.29543047967916,186.2647019926106,102.50556295196893,181.24258265702463,-155.69132450184733,-2.188675498152651,122.93,2025-05-14 14:37:36.046
/home/najo/NAS/DIP/datasets/meca_insertion/vla_dataset_insertion_250514/right/zed_49429257_left_1747201056.086.jpg,1747201056.086,1747201056.086,0.0,1747201056.086,21.29615896674772,34.72218546120567,-16.81728464963527,25.522185461205677,67.14112568288755,-45.26629143903749,186.2541059778318,102.43668885590678,181.467747971074,-155.69397350554203,-2.1860264944579533,122.93,2025-05-14 14:37:36.086
/home/najo/NAS/DIP/datasets/meca_insertion/vla_dataset_insertion_250514/right/zed_49429257_right_1747201056.086.jpg,1747201056.086,1747201056.086,0.0,1747201056.086,21.29615896674772,34.72218546120567,-16.81728464963527,25.522185461205677,67.14112568288755,-45.26629143903749,186.2541059778318,102.43668885590678,181.467747971074,-155.69397350554203,-2.1860264944579533,122.93,2025-05-14 14:37:36.086
/home/najo/NAS/DIP/datasets/meca_insertion/vla_dataset_insertion_250514/front/zed_41182735_right_1747201056.143.jpg,1747201056.143,1747201056.146,0.003000020980834961,1747201056.146,21.27231793349544,34.694370922411345,-16.924569299270534,25.494370922411346,67.2722513657751,-45.222582878074974,186.2382119556636,102.33337771181355,181.805495942148,-155.6979470110841,-2.182052988915906,122.93,2025-05-14 14:37:36.146
/home/najo/NAS/DIP/datasets/meca_insertion/vla_dataset_insertion_250514/front/zed_41182735_left_1747201056.143.jpg,1747201056.143,1747201056.146,0.003000020980834961,1747201056.146,21.27231793349544,34.694370922411345,-16.924569299270534,25.494370922411346,67.2722513657751,-45.222582878074974,186.2382119556636,102.33337771181355,181.805495942148,-155.6979470110841,-2.182052988915906,122.93,2025-05-14 14:37:36.146
/home/najo/NAS/DIP/datasets/meca_insertion/vla_dataset_insertion_250514/left/zed_44377151_right_1747201056.326.jpg,1747201056.326,1747201056.328,0.002000093460083008,1747201056.328,21.201304338812136,34.601304338812135,-17.259130475345394,25.401304338812132,67.67782613653326,-45.08260867762427,186.17565216940608,102.0108695246546,182.8517392566301,-155.71434783059394,-2.17,122.93,2025-05-14 14:37:36.328
/home/najo/NAS/DIP/datasets/meca_insertion/vla_dataset_insertion_250514/left/zed_44377151_left_1747201056.326.jpg,1747201056.326,1747201056.328,0.002000093460083008,1747201056.328,21.201304338812136,34.601304338812135,-17.259130475345394,25.401304338812132,67.67782613653326,-45.08260867762427,186.17565216940608,102.0108695246546,182.8517392566301,-155.71434783059394,-2.17,122.93,2025-05-14 14:37:36.328
/home/najo/NAS/DIP/datasets/meca_insertion/vla_dataset_insertion_250514/right/zed_49429257_left_1747201056.414.jpg,1747201056.414,1747201056.413,0.0009999275207519531,1747201056.413,21.178333217435533,34.57499985098855,-17.365000546375345,25.374999850988544,67.8083340121633,-45.03833311809456,186.1583332174355,101.90666613684814,183.185001738467,-155.7216666832235,-2.1683333167765046,122.9316666832235,2025-05-14 14:37:36.413
/home/najo/NAS/DIP/datasets/meca_insertion/vla_dataset_insertion_250514/right/zed_49429257_right_1747201056.414.jpg,1747201056.414,1747201056.413,0.0009999275207519531,1747201056.413,21.178333217435533,34.57499985098855,-17.365000546375345,25.374999850988544,67.8083340121633,-45.03833311809456,186.1583332174355,101.90666613684814,183.185001738467,-155.7216666832235,-2.1683333167765046,122.9316666832235,2025-05-14 14:37:36.413
/home/najo/NAS/DIP/datasets/meca_insertion/vla_dataset_insertion_250514/top/zed_49045152_left_1747201056.437.jpg,1747201056.437,1747201056.433,0.003999948501586914,1747201056.433,21.166666573948422,34.55999988079083,-17.420000437100278,25.359999880790834,67.87666720973064,-45.01666649447565,186.1466665739484,101.85333290947852,183.3600013907736,-155.72333334657878,-2.166666653421204,122.9333333465788,2025-05-14 14:37:36.433
/home/najo/NAS/DIP/datasets/meca_insertion/vla_dataset_insertion_250514/top/zed_49045152_right_1747201056.437.jpg,1747201056.437,1747201056.433,0.003999948501586914,1747201056.433,21.166666573948422,34.55999988079083,-17.420000437100278,25.359999880790834,67.87666720973064,-45.01666649447565,186.1466665739484,101.85333290947852,183.3600013907736,-155.72333334657878,-2.166666653421204,122.9333333465788,2025-05-14 14:37:36.433
/home/najo/NAS/DIP/datasets/meca_insertion/vla_dataset_insertion_250514/front/zed_41182735_left_1747201056.442.jpg,1747201056.442,1747201056.443,0.0010001659393310547,1747201056.443,21.160833252204878,34.55249989569198,-17.447500382462742,25.35249989569198,67.91083380851431,-45.005833182666194,186.14083325220489,101.8266662957937,183.4475012169269,-155.72416667825644,-2.1658333217435533,122.93416667825645,2025-05-14 14:37:36.443
/home/najo/NAS/DIP/datasets/meca_insertion/vla_dataset_insertion_250514/front/zed_41182735_right_1747201056.442.jpg,1747201056.442,1747201056.443,0.0010001659393310547,1747201056.443,21.160833252204878,34.55249989569198,-17.447500382462742,25.35249989569198,67.91083380851431,-45.005833182666194,186.14083325220489,101.8266662957937,183.4475012169269,-155.72416667825644,-2.1658333217435533,122.93416667825645,2025-05-14 14:37:36.443
/home/najo/NAS/DIP/datasets/meca_insertion/vla_dataset_insertion_250514/left/zed_44377151_right_1747201056.637.jpg,1747201056.637,1747201056.634,0.003000020980834961,1747201056.634,21.076774192307912,34.445161288461875,-17.834516134614386,25.246774192307917,68.38774194230648,-44.84354838461583,186.05677419230796,101.45548386538562,184.6651613076892,-155.74161290384606,-2.15,122.94,2025-05-14 14:37:36.634
/home/najo/NAS/DIP/datasets/meca_insertion/vla_dataset_insertion_250514/left/zed_44377151_left_1747201056.637.jpg,1747201056.637,1747201056.634,0.003000020980834961,1747201056.634,21.076774192307912,34.445161288461875,-17.834516134614386,25.246774192307917,68.38774194230648,-44.84354838461583,186.05677419230796,101.45548386538562,184.6651613076892,-155.74161290384606,-2.15,122.94,2025-05-14 14:37:36.634
/home/najo/NAS/DIP/datasets/meca_insertion/vla_dataset_insertion_250514/front/zed_41182735_left_1747201056.682.jpg,1747201056.682,1747201056.684,0.002000093460083008,1747201056.684,21.0687096730777,34.43306450961655,-17.870806471150352,25.2387096730777,68.43209679807266,-44.8274193461554,186.0487096730777,101.41919352884965,184.7780645769122,-155.74564516346115,-2.15,122.94,2025-05-14 14:37:36.684
/home/najo/NAS/DIP/datasets/meca_insertion/vla_dataset_insertion_250514/front/zed_41182735_right_1747201056.682.jpg,1747201056.682,1747201056.684,0.002000093460083008,1747201056.684,21.0687096730777,34.43306450961655,-17.870806471150352,25.2387096730777,68.43209679807266,-44.8274193461554,186.0487096730777,101.41919352884965,184.7780645769122,-155.74564516346115,-2.15,122.94,2025-05-14 14:37:36.684
/home/najo/NAS/DIP/datasets/meca_insertion/vla_dataset_insertion_250514/right/zed_49429257_right_1747201056.748.jpg,1747201056.748,1747201056.748,0.0,1747201056.748,21.053000016689275,34.411000021457646,-17.94299992132198,25.22100002145764,68.51999990463271,-44.797000030994376,186.03200001907345,101.347000078678,185.00399975204505,-155.75199999523164,-2.149000002384182,122.94,2025-05-14 14:37:36.748
/home/najo/NAS/DIP/datasets/meca_insertion/vla_dataset_insertion_250514/right/zed_49429257_left_1747201056.748.jpg,1747201056.748,1747201056.748,0.0,1747201056.748,21.053000016689275,34.411000021457646,-17.94299992132198,25.22100002145764,68.51999990463271,-44.797000030994376,186.03200001907345,101.347000078678,185.00399975204505,-155.75199999523164,-2.149000002384182,122.94,2025-05-14 14:37:36.748
/home/najo/NAS/DIP/datasets/meca_insertion/vla_dataset_insertion_250514/top/zed_49045152_right_1747201056.789.jpg,1747201056.789,1747201056.788,0.0009999275207519531,1747201056.788,21.02499991655361,34.37499989271179,-18.07500039339009,25.184999892711797,68.68000047683648,-44.74499984502815,185.99999990463272,101.21499960660992,185.42000123977485,-155.76000002384183,-2.144999988079088,122.94,2025-05-14 14:37:36.788
/home/najo/NAS/DIP/datasets/meca_insertion/vla_dataset_insertion_250514/top/zed_49045152_left_1747201056.789.jpg,1747201056.789,1747201056.788,0.0009999275207519531,1747201056.788,21.02499991655361,34.37499989271179,-18.07500039339009,25.184999892711797,68.68000047683648,-44.74499984502815,185.99999990463272,101.21499960660992,185.42000123977485,-155.76000002384183,-2.144999988079088,122.94,2025-05-14 14:37:36.788
/home/najo/NAS/DIP/datasets/meca_insertion/vla_dataset_insertion_250514/left/zed_44377151_right_1747201057.009.jpg,1747201057.009,1747201057.008,0.0010001659393310547,1747201057.008,20.938429768024733,34.26842976802473,-18.472066043888702,25.078429768024733,69.16363627586396,-44.57685953604947,185.89842976802476,100.8179339561113,186.66198324765372,-155.78,-2.1242148840123662,122.94,2025-05-14 14:37:37.008
/home/najo/NAS/DIP/datasets/meca_insertion/vla_dataset_insertion_250514/left/zed_44377151_left_1747201057.009.jpg,1747201057.009,1747201057.008,0.0010001659393310547,1747201057.008,20.938429768024733,34.26842976802473,-18.472066043888702,25.078429768024733,69.16363627586396,-44.57685953604947,185.89842976802476,100.8179339561113,186.66198324765372,-155.78,-2.1242148840123662,122.94,2025-05-14 14:37:37.008
/home/najo/NAS/DIP/datasets/meca_insertion/vla_dataset_insertion_250514/front/zed_41182735_right_1747201057.030.jpg,1747201057.03,1747201057.028,0.0019998550415039062,1747201057.028,20.93512394805236,34.26512394805236,-18.486942233764392,25.07512394805236,69.18181828571203,-44.57024789610472,185.89512394805237,100.8030577662356,186.708264727267,-155.78,-2.122561974026179,122.94,2025-05-14 14:37:37.028
/home/najo/NAS/DIP/datasets/meca_insertion/vla_dataset_insertion_250514/front/zed_41182735_left_1747201057.030.jpg,1747201057.03,1747201057.028,0.0019998550415039062,1747201057.028,20.93512394805236,34.26512394805236,-18.486942233764392,25.07512394805236,69.18181828571203,-44.57024789610472,185.89512394805237,100.8030577662356,186.708264727267,-155.78,-2.122561974026179,122.94,2025-05-14 14:37:37.028
/home/najo/NAS/DIP/datasets/meca_insertion/vla_dataset_insertion_250514/right/zed_49429257_right_1747201057.068.jpg,1747201057.068,1747201057.069,0.0009999275207519531,1747201057.069,20.924285714285716,34.25285714285714,-18.53571428571429,25.062857142857144,69.24142857142857,-44.54928571428572,185.88285714285712,100.75357142857143,186.8607142857143,-155.78214285714284,-2.119285714285714,122.94071428571428,2025-05-14 14:37:37.069
/home/najo/NAS/DIP/datasets/meca_insertion/vla_dataset_insertion_250514/right/zed_49429257_left_1747201057.068.jpg,1747201057.068,1747201057.069,0.0009999275207519531,1747201057.069,20.924285714285716,34.25285714285714,-18.53571428571429,25.062857142857144,69.24142857142857,-44.54928571428572,185.88285714285712,100.75357142857143,186.8607142857143,-155.78214285714284,-2.119285714285714,122.94071428571428,2025-05-14 14:37:37.069
/home/najo/NAS/DIP/datasets/meca_insertion/vla_dataset_insertion_250514/top/zed_49045152_right_1747201057.135.jpg,1747201057.135,1747201057.139,0.003999948501586914,1747201057.139,20.884285714285717,34.20285714285714,-18.715714285714288,25.012857142857143,69.46142857142857,-44.47428571428571,185.83285714285716,100.56857142857145,187.4257142857143,-155.79714285714286,-2.1142857142857143,122.94571428571427,2025-05-14 14:37:37.139
/home/najo/NAS/DIP/datasets/meca_insertion/vla_dataset_insertion_250514/top/zed_49045152_left_1747201057.135.jpg,1747201057.135,1747201057.139,0.003999948501586914,1747201057.139,20.884285714285717,34.20285714285714,-18.715714285714288,25.012857142857143,69.46142857142857,-44.47428571428571,185.83285714285716,100.56857142857145,187.4257142857143,-155.79714285714286,-2.1142857142857143,122.94571428571427,2025-05-14 14:37:37.139
/home/najo/NAS/DIP/datasets/meca_insertion/vla_dataset_insertion_250514/left/zed_44377151_left_1747201057.285.jpg,1747201057.285,1747201057.289,0.003999948501586914,1747201057.289,20.825675647810847,34.12756753041446,-18.99162176094577,24.937567530414466,69.79594611313492,-44.361351295621695,185.7575675304145,100.28837823905424,188.2910815176301,-155.81810811739638,-2.1018918826036157,122.95,2025-05-14 14:37:37.289
/home/najo/NAS/DIP/datasets/meca_insertion/vla_dataset_insertion_250514/left/zed_44377151_right_1747201057.285.jpg,1747201057.285,1747201057.289,0.003999948501586914,1747201057.289,20.825675647810847,34.12756753041446,-18.99162176094577,24.937567530414466,69.79594611313492,-44.361351295621695,185.7575675304145,100.28837823905424,188.2910815176301,-155.81810811739638,-2.1018918826036157,122.95,2025-05-14 14:37:37.289
/home/najo/NAS/DIP/datasets/meca_insertion/vla_dataset_insertion_250514/front/zed_41182735_right_1747201057.351.jpg,1747201057.351,1747201057.35,0.0010001659393310547,1747201057.35,20.810839706326643,34.10778627510219,-19.05664117469342,24.92083970632664,69.87580146836677,-44.33473284387774,185.7377862751022,100.22335882530658,188.4960303865292,-155.82305343122445,-2.1,122.95,2025-05-14 14:37:37.350
/home/najo/NAS/DIP/datasets/meca_insertion/vla_dataset_insertion_250514/front/zed_41182735_left_1747201057.351.jpg,1747201057.351,1747201057.35,0.0010001659393310547,1747201057.35,20.810839706326643,34.10778627510219,-19.05664117469342,24.92083970632664,69.87580146836677,-44.33473284387774,185.7377862751022,100.22335882530658,188.4960303865292,-155.82305343122445,-2.1,122.95,2025-05-14 14:37:37.350
/home/najo/NAS/DIP/datasets/meca_insertion/vla_dataset_insertion_250514/top/zed_49045152_left_1747201057.407.jpg,1747201057.407,1747201057.41,0.003000020980834961,1747201057.41,20.797099211216956,34.089465614955934,-19.111603155132187,24.907099211216952,69.94450394391524,-44.31183201869492,185.71946561495596,100.1683968448678,188.67007665791857,-155.82763359626102,-2.1,122.95,2025-05-14 14:37:37.410
/home/najo/NAS/DIP/datasets/meca_insertion/vla_dataset_insertion_250514/top/zed_49045152_right_1747201057.407.jpg,1747201057.407,1747201057.41,0.003000020980834961,1747201057.41,20.797099211216956,34.089465614955934,-19.111603155132187,24.907099211216952,69.94450394391524,-44.31183201869492,185.71946561495596,100.1683968448678,188.67007665791857,-155.82763359626102,-2.1,122.95,2025-05-14 14:37:37.410
/home/najo/NAS/DIP/datasets/meca_insertion/vla_dataset_insertion_250514/right/zed_49429257_right_1747201057.443.jpg,1747201057.443,1747201057.441,0.002000093460083008,1747201057.441,20.79,34.08,-19.14,24.9,69.98,-44.3,185.71,100.14,188.76,-155.83,-2.1,122.95,2025-05-14 14:37:37.441
/home/najo/NAS/DIP/datasets/meca_insertion/vla_dataset_insertion_250514/right/zed_49429257_left_1747201057.443.jpg,1747201057.443,1747201057.441,0.002000093460083008,1747201057.441,20.79,34.08,-19.14,24.9,69.98,-44.3,185.71,100.14,188.76,-155.83,-2.1,122.95,2025-05-14 14:37:37.441
/home/najo/NAS/DIP/datasets/meca_insertion/vla_dataset_insertion_250514/left/zed_44377151_left_1747201057.598.jpg,1747201057.598,1747201057.603,0.004999876022338867,1747201057.603,20.69019805252287,33.955247565653586,-19.61910876364709,24.77019805252287,70.55891071112423,-44.10039610504574,185.56029707878432,99.63594074948362,190.25722726467984,-155.8649504868693,-2.075049513130717,122.96,2025-05-14 14:37:37.603
/home/najo/NAS/DIP/datasets/meca_insertion/vla_dataset_insertion_250514/left/zed_44377151_right_1747201057.598.jpg,1747201057.598,1747201057.603,0.004999876022338867,1747201057.603,20.69019805252287,33.955247565653586,-19.61910876364709,24.77019805252287,70.55891071112423,-44.10039610504574,185.56029707878432,99.63594074948362,190.25722726467984,-155.8649504868693,-2.075049513130717,122.96,2025-05-14 14:37:37.603
/home/najo/NAS/DIP/datasets/meca_insertion/vla_dataset_insertion_250514/right/zed_49429257_right_1747201057.751.jpg,1747201057.751,1747201057.754,0.003000020980834961,1747201057.754,20.650392159918223,33.903856213224294,-19.78843136032712,24.72385621322429,70.7680392004089,-44.02732026653037,185.5038562132243,99.46156863967288,190.78183002767528,-155.8765359466939,-2.07,122.96653594669392,2025-05-14 14:37:37.754
/home/najo/NAS/DIP/datasets/meca_insertion/vla_dataset_insertion_250514/right/zed_49429257_left_1747201057.751.jpg,1747201057.751,1747201057.754,0.003000020980834961,1747201057.754,20.650392159918223,33.903856213224294,-19.78843136032712,24.72385621322429,70.7680392004089,-44.02732026653037,185.5038562132243,99.46156863967288,190.78183002767528,-155.8765359466939,-2.07,122.96653594669392,2025-05-14 14:37:37.754
/home/najo/NAS/DIP/datasets/meca_insertion/vla_dataset_insertion_250514/top/zed_49045152_left_1747201057.793.jpg,1747201057.793,1747201057.794,0.0009999275207519531,1747201057.794,20.64254902388551,33.89339869851401,-19.819803904457963,24.713398698514013,70.80725488057244,-44.014248373142514,185.49339869851403,99.43019609554204,190.87856203874537,-155.87915032537148,-2.07,122.9691503253715,2025-05-14 14:37:37.794
/home/najo/NAS/DIP/datasets/meca_insertion/vla_dataset_insertion_250514/top/zed_49045152_right_1747201057.793.jpg,1747201057.793,1747201057.794,0.0009999275207519531,1747201057.794,20.64254902388551,33.89339869851401,-19.819803904457963,24.713398698514013,70.80725488057244,-44.014248373142514,185.49339869851403,99.43019609554204,190.87856203874537,-155.87915032537148,-2.07,122.9691503253715,2025-05-14 14:37:37.794
/home/najo/NAS/DIP/datasets/meca_insertion/vla_dataset_insertion_250514/front/zed_41182735_left_1747201057.812.jpg,1747201057.812,1747201057.817,0.004999876022338867,1747201057.817,20.63363637742916,33.88181819955177,-19.859999934976827,24.702727288490465,70.85636355754767,-43.99727275485832,185.4800000216744,99.3881818871458,191.0036361606853,-155.88272726681606,-2.0681818221226163,122.97,2025-05-14 14:37:37.817
/home/najo/NAS/DIP/datasets/meca_insertion/vla_dataset_insertion_250514/front/zed_41182735_right_1747201057.812.jpg,1747201057.812,1747201057.817,0.004999876022338867,1747201057.817,20.63363637742916,33.88181819955177,-19.859999934976827,24.702727288490465,70.85636355754767,-43.99727275485832,185.4800000216744,99.3881818871458,191.0036361606853,-155.88272726681606,-2.0681818221226163,122.97,2025-05-14 14:37:37.817
/home/najo/NAS/DIP/datasets/meca_insertion/vla_dataset_insertion_250514/left/zed_44377151_left_1747201057.843.jpg,1747201057.843,1747201057.847,0.003999948501586914,1747201057.847,20.61454550971663,33.85727279820709,-19.94999973990732,24.680909153961863,70.96545423019069,-43.95909101943326,185.4500000866976,99.29272754858314,191.28454464274105,-155.8909090672643,-2.062727288490465,122.97,2025-05-14 14:37:37.847
/home/najo/NAS/DIP/datasets/meca_insertion/vla_dataset_insertion_250514/left/zed_44377151_right_1747201057.843.jpg,1747201057.843,1747201057.847,0.003999948501586914,1747201057.847,20.61454550971663,33.85727279820709,-19.94999973990732,24.680909153961863,70.96545423019069,-43.95909101943326,185.4500000866976,99.29272754858314,191.28454464274105,-155.8909090672643,-2.062727288490465,122.97,2025-05-14 14:37:37.847
/home/najo/NAS/DIP/datasets/meca_insertion/vla_dataset_insertion_250514/right/zed_49429257_left_1747201058.072.jpg,1747201058.072,1747201058.068,0.003999948501586914,1747201058.068,20.525283009107124,33.745283009107126,-20.354150972678628,24.575283009107125,71.4588679635715,-43.79528300910712,185.30528300910717,98.85584902732136,192.54245291803588,-155.92471699089288,-2.04,122.98,2025-05-14 14:37:38.068
/home/najo/NAS/DIP/datasets/meca_insertion/vla_dataset_insertion_250514/right/zed_49429257_right_1747201058.072.jpg,1747201058.072,1747201058.068,0.003999948501586914,1747201058.068,20.525283009107124,33.745283009107126,-20.354150972678628,24.575283009107125,71.4588679635715,-43.79528300910712,185.30528300910717,98.85584902732136,192.54245291803588,-155.92471699089288,-2.04,122.98,2025-05-14 14:37:38.068
/home/najo/NAS/DIP/datasets/meca_insertion/vla_dataset_insertion_250514/front/zed_41182735_left_1747201058.110.jpg,1747201058.11,1747201058.108,0.0019998550415039062,1747201058.108,20.521509434386648,33.74150943438665,-20.36547169684006,24.57150943438665,71.47396226245341,-43.79150943438665,185.30150943438665,98.84452830315996,192.5764150905202,-155.92849056561334,-2.04,122.98,2025-05-14 14:37:38.108
/home/najo/NAS/DIP/datasets/meca_insertion/vla_dataset_insertion_250514/front/zed_41182735_right_1747201058.110.jpg,1747201058.11,1747201058.108,0.0019998550415039062,1747201058.108,20.521509434386648,33.74150943438665,-20.36547169684006,24.57150943438665,71.47396226245341,-43.79150943438665,185.30150943438665,98.84452830315996,192.5764150905202,-155.92849056561334,-2.04,122.98,2025-05-14 14:37:38.108
/home/najo/NAS/DIP/datasets/meca_insertion/vla_dataset_insertion_250514/left/zed_44377151_left_1747201058.124.jpg,1747201058.124,1747201058.124,0.0,1747201058.124,20.52,33.74,-20.37,24.57,71.48,-43.79,185.3,98.84,192.59,-155.93,-2.04,122.98,2025-05-14 14:37:38.124
/home/najo/NAS/DIP/datasets/meca_insertion/vla_dataset_insertion_250514/left/zed_44377151_right_1747201058.124.jpg,1747201058.124,1747201058.124,0.0,1747201058.124,20.52,33.74,-20.37,24.57,71.48,-43.79,185.3,98.84,192.59,-155.93,-2.04,122.98,2025-05-14 14:37:38.124
/home/najo/NAS/DIP/datasets/meca_insertion/vla_dataset_insertion_250514/top/zed_49045152_left_1747201058.143.jpg,1747201058.143,1747201058.144,0.0010001659393310547,1747201058.144,20.506259559489965,33.72320612826552,-20.43412205571349,24.553206128265515,71.55786249622352,-43.76251911897993,185.2755725502044,98.77129779744983,192.7899997452016,-155.93610686244892,-2.036946568775548,122.98152671561223,2025-05-14 14:37:38.144
/home/najo/NAS/DIP/datasets/meca_insertion/vla_dataset_insertion_250514/top/zed_49045152_right_1747201058.143.jpg,1747201058.143,1747201058.144,0.0010001659393310547,1747201058.144,20.506259559489965,33.72320612826552,-20.43412205571349,24.553206128265515,71.55786249622352,-43.76251911897993,185.2755725502044,98.77129779744983,192.7899997452016,-155.93610686244892,-2.036946568775548,122.98152671561223,2025-05-14 14:37:38.144
/home/najo/NAS/DIP/datasets/meca_insertion/vla_dataset_insertion_250514/right/zed_49429257_left_1747201058.366.jpg,1747201058.366,1747201058.366,0.0,1747201058.366,20.39,33.58,-20.97,24.41,72.21,-43.54,185.07,98.19,194.46,-155.98,-2.01,122.99,2025-05-14 14:37:38.366
/home/najo/NAS/DIP/datasets/meca_insertion/vla_dataset_insertion_250514/right/zed_49429257_right_1747201058.366.jpg,1747201058.366,1747201058.366,0.0,1747201058.366,20.39,33.58,-20.97,24.41,72.21,-43.54,185.07,98.19,194.46,-155.98,-2.01,122.99,2025-05-14 14:37:38.366
/home/najo/NAS/DIP/datasets/meca_insertion/vla_dataset_insertion_250514/left/zed_44377151_right_1747201058.462.jpg,1747201058.462,1747201058.466,0.004000186920166016,1747201058.466,20.39,33.58,-20.97,24.41,72.21,-43.54,185.07,98.19,194.46,-155.98,-2.01,122.99,2025-05-14 14:37:38.466
/home/najo/NAS/DIP/datasets/meca_insertion/vla_dataset_insertion_250514/left/zed_44377151_left_1747201058.462.jpg,1747201058.462,1747201058.466,0.004000186920166016,1747201058.466,20.39,33.58,-20.97,24.41,72.21,-43.54,185.07,98.19,194.46,-155.98,-2.01,122.99,2025-05-14 14:37:38.466
/home/najo/NAS/DIP/datasets/meca_insertion/vla_dataset_insertion_250514/top/zed_49045152_right_1747201058.472.jpg,1747201058.472,1747201058.476,0.004000186920166016,1747201058.476,20.39,33.58,-20.97,24.41,72.21,-43.54,185.07,98.19,194.46,-155.98,-2.01,122.99,2025-05-14 14:37:38.476
/home/najo/NAS/DIP/datasets/meca_insertion/vla_dataset_insertion_250514/top/zed_49045152_left_1747201058.472.jpg,1747201058.472,1747201058.476,0.004000186920166016,1747201058.476,20.39,33.58,-20.97,24.41,72.21,-43.54,185.07,98.19,194.46,-155.98,-2.01,122.99,2025-05-14 14:37:38.476
/home/najo/NAS/DIP/datasets/meca_insertion/vla_dataset_insertion_250514/front/zed_41182735_right_1747201058.493.jpg,1747201058.493,1747201058.496,0.003000020980834961,1747201058.496,20.39,33.58,-20.97,24.41,72.21,-43.54,185.07,98.19,194.46,-155.98,-2.01,122.99,2025-05-14 14:37:38.496
/home/najo/NAS/DIP/datasets/meca_insertion/vla_dataset_insertion_250514/front/zed_41182735_left_1747201058.493.jpg,1747201058.493,1747201058.496,0.003000020980834961,1747201058.496,20.39,33.58,-20.97,24.41,72.21,-43.54,185.07,98.19,194.46,-155.98,-2.01,122.99,2025-05-14 14:37:38.496
/home/najo/NAS/DIP/datasets/meca_insertion/vla_dataset_insertion_250514/left/zed_44377151_left_1747201058.711.jpg,1747201058.711,1747201058.711,0.0,1747201058.711,20.391470587719684,33.57220588157953,-20.97338235526143,24.411470587719684,72.21191176754175,-43.53294117543937,185.06294117543936,98.18735293859842,194.48014706578428,-155.97926470614016,-2.01,122.99,2025-05-14 14:37:38.711
/home/najo/NAS/DIP/datasets/meca_insertion/vla_dataset_insertion_250514/left/zed_44377151_right_1747201058.711.jpg,1747201058.711,1747201058.711,0.0,1747201058.711,20.391470587719684,33.57220588157953,-20.97338235526143,24.411470587719684,72.21191176754175,-43.53294117543937,185.06294117543936,98.18735293859842,194.48014706578428,-155.97926470614016,-2.01,122.99,2025-05-14 14:37:38.711
/home/najo/NAS/DIP/datasets/meca_insertion/vla_dataset_insertion_250514/top/zed_49045152_left_1747201058.786.jpg,1747201058.786,1747201058.791,0.004999876022338867,1747201058.791,20.403235289477145,33.58985293421572,-20.92044119735285,24.423235289477145,72.1472059078757,-43.55647057895429,185.08647057895428,98.24617644738572,194.32132359205852,-155.97338235526144,-2.01,122.99,2025-05-14 14:37:38.791
/home/najo/NAS/DIP/datasets/meca_insertion/vla_dataset_insertion_250514/top/zed_49045152_right_1747201058.786.jpg,1747201058.786,1747201058.791,0.004999876022338867,1747201058.791,20.403235289477145,33.58985293421572,-20.92044119735285,24.423235289477145,72.1472059078757,-43.55647057895429,185.08647057895428,98.24617644738572,194.32132359205852,-155.97338235526144,-2.01,122.99,2025-05-14 14:37:38.791
/home/najo/NAS/DIP/datasets/meca_insertion/vla_dataset_insertion_250514/front/zed_41182735_left_1747201058.802.jpg,1747201058.802,1747201058.801,0.0009999275207519531,1747201058.801,20.404705912258404,33.5920588683876,-20.913823394837184,24.424705912258403,72.13911748257878,-43.55941182451681,185.0894118245168,98.25352956129204,194.30147018451157,-155.9726470438708,-2.01,122.99,2025-05-14 14:37:38.801
/home/najo/NAS/DIP/datasets/meca_insertion/vla_dataset_insertion_250514/front/zed_41182735_right_1747201058.802.jpg,1747201058.802,1747201058.801,0.0009999275207519531,1747201058.801,20.404705912258404,33.5920588683876,-20.913823394837184,24.424705912258403,72.13911748257878,-43.55941182451681,185.0894118245168,98.25352956129204,194.30147018451157,-155.9726470438708,-2.01,122.99,2025-05-14 14:37:38.801
/home/najo/NAS/DIP/datasets/meca_insertion/vla_dataset_insertion_250514/right/zed_49429257_left_1747201058.840.jpg,1747201058.84,1747201058.837,0.003000020980834961,1747201058.837,20.41,33.6,-20.89,24.43,72.11,-43.57,185.1,98.28,194.23,-155.97,-2.01,122.99,2025-05-14 14:37:38.837
/home/najo/NAS/DIP/datasets/meca_insertion/vla_dataset_insertion_250514/right/zed_49429257_right_1747201058.840.jpg,1747201058.84,1747201058.837,0.003000020980834961,1747201058.837,20.41,33.6,-20.89,24.43,72.11,-43.57,185.1,98.28,194.23,-155.97,-2.01,122.99,2025-05-14 14:37:38.837
/home/najo/NAS/DIP/datasets/meca_insertion/vla_dataset_insertion_250514/front/zed_41182735_right_1747201059.106.jpg,1747201059.106,1747201059.109,0.003000020980834961,1747201059.109,20.53,33.74,-20.35,24.58,71.45,-43.8,185.3,98.86,192.58,-155.92,-2.03,122.97,2025-05-14 14:37:39.109
/home/najo/NAS/DIP/datasets/meca_insertion/vla_dataset_insertion_250514/front/zed_41182735_left_1747201059.106.jpg,1747201059.106,1747201059.109,0.003000020980834961,1747201059.109,20.53,33.74,-20.35,24.58,71.45,-43.8,185.3,98.86,192.58,-155.92,-2.03,122.97,2025-05-14 14:37:39.109
/home/najo/NAS/DIP/datasets/meca_insertion/vla_dataset_insertion_250514/right/zed_49429257_right_1747201059.142.jpg,1747201059.142,1747201059.139,0.003000020980834961,1747201059.139,20.53,33.74,-20.35,24.58,71.45,-43.8,185.3,98.86,192.58,-155.92,-2.03,122.97,2025-05-14 14:37:39.139
/home/najo/NAS/DIP/datasets/meca_insertion/vla_dataset_insertion_250514/right/zed_49429257_left_1747201059.142.jpg,1747201059.142,1747201059.139,0.003000020980834961,1747201059.139,20.53,33.74,-20.35,24.58,71.45,-43.8,185.3,98.86,192.58,-155.92,-2.03,122.97,2025-05-14 14:37:39.139
/home/najo/NAS/DIP/datasets/meca_insertion/vla_dataset_insertion_250514/left/zed_44377151_right_1747201059.149.jpg,1747201059.149,1747201059.149,0.0,1747201059.149,20.53,33.74,-20.35,24.58,71.45,-43.8,185.3,98.86,192.58,-155.92,-2.03,122.97,2025-05-14 14:37:39.149
/home/najo/NAS/DIP/datasets/meca_insertion/vla_dataset_insertion_250514/left/zed_44377151_left_1747201059.149.jpg,1747201059.149,1747201059.149,0.0,1747201059.149,20.53,33.74,-20.35,24.58,71.45,-43.8,185.3,98.86,192.58,-155.92,-2.03,122.97,2025-05-14 14:37:39.149
/home/najo/NAS/DIP/datasets/meca_insertion/vla_dataset_insertion_250514/top/zed_49045152_right_1747201059.172.jpg,1747201059.172,1747201059.169,0.003000020980834961,1747201059.169,20.53,33.74,-20.35,24.58,71.45,-43.8,185.3,98.86,192.58,-155.92,-2.03,122.97,2025-05-14 14:37:39.169
/home/najo/NAS/DIP/datasets/meca_insertion/vla_dataset_insertion_250514/top/zed_49045152_left_1747201059.172.jpg,1747201059.172,1747201059.169,0.003000020980834961,1747201059.169,20.53,33.74,-20.35,24.58,71.45,-43.8,185.3,98.86,192.58,-155.92,-2.03,122.97,2025-05-14 14:37:39.169
/home/najo/NAS/DIP/datasets/meca_insertion/vla_dataset_insertion_250514/front/zed_41182735_left_1747201059.382.jpg,1747201059.382,1747201059.379,0.003000020980834961,1747201059.379,20.649197085373093,33.87919708537309,-19.79861311582109,24.726496356716364,70.779416030448,-44.02839417074618,185.4837956280596,99.44868615552218,190.89854007612,-155.86540145731345,-2.05,122.96,2025-05-14 14:37:39.379
/home/najo/NAS/DIP/datasets/meca_insertion/vla_dataset_insertion_250514/front/zed_41182735_right_1747201059.382.jpg,1747201059.382,1747201059.379,0.003000020980834961,1747201059.379,20.649197085373093,33.87919708537309,-19.79861311582109,24.726496356716364,70.779416030448,-44.02839417074618,185.4837956280596,99.44868615552218,190.89854007612,-155.86540145731345,-2.05,122.96,2025-05-14 14:37:39.379
/home/najo/NAS/DIP/datasets/meca_insertion/vla_dataset_insertion_250514/right/zed_49429257_right_1747201059.432.jpg,1747201059.432,1747201059.436,0.004000186920166016,1747201059.436,20.667547239410077,33.89943404926259,-19.716037422654672,24.74943404926259,70.6784901832446,-44.06320766896762,185.5113208591151,99.53396257734532,190.6462254581115,-155.8581131901475,-2.051886809852518,122.95811319014749,2025-05-14 14:37:39.436
/home/najo/NAS/DIP/datasets/meca_insertion/vla_dataset_insertion_250514/right/zed_49429257_left_1747201059.432.jpg,1747201059.432,1747201059.436,0.004000186920166016,1747201059.436,20.667547239410077,33.89943404926259,-19.716037422654672,24.74943404926259,70.6784901832446,-44.06320766896762,185.5113208591151,99.53396257734532,190.6462254581115,-155.8581131901475,-2.051886809852518,122.95811319014749,2025-05-14 14:37:39.436
/home/najo/NAS/DIP/datasets/meca_insertion/vla_dataset_insertion_250514/top/zed_49045152_left_1747201059.488.jpg,1747201059.488,1747201059.486,0.0019998550415039062,1747201059.486,20.68641511301246,33.92301889126557,-19.631131991443937,24.77301889126557,70.57471687843147,-44.0962264477718,185.53962266951868,99.61886800855606,190.3867921960787,-155.8533962217469,-2.056603778253115,122.95339622174689,2025-05-14 14:37:39.486
/home/najo/NAS/DIP/datasets/meca_insertion/vla_dataset_insertion_250514/top/zed_49045152_right_1747201059.488.jpg,1747201059.488,1747201059.486,0.0019998550415039062,1747201059.486,20.68641511301246,33.92301889126557,-19.631131991443937,24.77301889126557,70.57471687843147,-44.0962264477718,185.53962266951868,99.61886800855606,190.3867921960787,-155.8533962217469,-2.056603778253115,122.95339622174689,2025-05-14 14:37:39.486
/home/najo/NAS/DIP/datasets/meca_insertion/vla_dataset_insertion_250514/left/zed_44377151_right_1747201059.527.jpg,1747201059.527,1747201059.522,0.004999876022338867,1747201059.522,20.7,33.94,-19.57,24.79,70.5,-44.12,185.56,99.68,190.2,-155.85,-2.06,122.95,2025-05-14 14:37:39.522
/home/najo/NAS/DIP/datasets/meca_insertion/vla_dataset_insertion_250514/left/zed_44377151_left_1747201059.527.jpg,1747201059.527,1747201059.522,0.004999876022338867,1747201059.522,20.7,33.94,-19.57,24.79,70.5,-44.12,185.56,99.68,190.2,-155.85,-2.06,122.95,2025-05-14 14:37:39.522
/home/najo/NAS/DIP/datasets/meca_insertion/vla_dataset_insertion_250514/front/zed_41182735_left_1747201059.677.jpg,1747201059.677,1747201059.673,0.003999948501586914,1747201059.673,20.767894789677232,34.027894789677234,-19.236841883355627,24.87789478967723,70.09052605161384,-44.26421062141902,185.65947374761268,100.03315811664436,189.177367734196,-155.81842104206456,-2.07,122.94,2025-05-14 14:37:39.673
/home/najo/NAS/DIP/datasets/meca_insertion/vla_dataset_insertion_250514/front/zed_41182735_right_1747201059.677.jpg,1747201059.677,1747201059.673,0.003999948501586914,1747201059.673,20.767894789677232,34.027894789677234,-19.236841883355627,24.87789478967723,70.09052605161384,-44.26421062141902,185.65947374761268,100.03315811664436,189.177367734196,-155.81842104206456,-2.07,122.94,2025-05-14 14:37:39.673
/home/najo/NAS/DIP/datasets/meca_insertion/vla_dataset_insertion_250514/top/zed_49045152_right_1747201059.764.jpg,1747201059.764,1747201059.763,0.0009999275207519531,1747201059.763,20.791578970483787,34.05157897048379,-19.137368323968087,24.90157897048379,69.97210514758105,-44.30684214687082,185.68789476458056,100.1326316760319,188.86947338371075,-155.81368420590323,-2.07,122.94,2025-05-14 14:37:39.763
/home/najo/NAS/DIP/datasets/meca_insertion/vla_dataset_insertion_250514/top/zed_49045152_left_1747201059.764.jpg,1747201059.764,1747201059.763,0.0009999275207519531,1747201059.763,20.791578970483787,34.05157897048379,-19.137368323968087,24.90157897048379,69.97210514758105,-44.30684214687082,185.68789476458056,100.1326316760319,188.86947338371075,-155.81368420590323,-2.07,122.94,2025-05-14 14:37:39.763
/home/najo/NAS/DIP/datasets/meca_insertion/vla_dataset_insertion_250514/right/zed_49429257_right_1747201059.800.jpg,1747201059.8,1747201059.803,0.003000020980834961,1747201059.803,20.80210527306448,34.06210527306448,-19.093157853129178,24.912105273064483,69.91947363467759,-44.32578949151607,185.70052632767735,100.1768421468708,188.73263145016173,-155.8115789453871,-2.07,122.94,2025-05-14 14:37:39.803
/home/najo/NAS/DIP/datasets/meca_insertion/vla_dataset_insertion_250514/right/zed_49429257_left_1747201059.800.jpg,1747201059.8,1747201059.803,0.003000020980834961,1747201059.803,20.80210527306448,34.06210527306448,-19.093157853129178,24.912105273064483,69.91947363467759,-44.32578949151607,185.70052632767735,100.1768421468708,188.73263145016173,-155.8115789453871,-2.07,122.94,2025-05-14 14:37:39.803
/home/najo/NAS/DIP/datasets/meca_insertion/vla_dataset_insertion_250514/left/zed_44377151_right_1747201059.811.jpg,1747201059.811,1747201059.813,0.0019998550415039062,1747201059.813,20.80473684870965,34.06473684870966,-19.08210523541945,24.91473684870965,69.90631575645173,-44.33052632767738,185.7036842184516,100.18789476458052,188.6984209667745,-155.81105263025808,-2.07,122.94,2025-05-14 14:37:39.813
/home/najo/NAS/DIP/datasets/meca_insertion/vla_dataset_insertion_250514/left/zed_44377151_left_1747201059.811.jpg,1747201059.811,1747201059.813,0.0019998550415039062,1747201059.813,20.80473684870965,34.06473684870966,-19.08210523541945,24.91473684870965,69.90631575645173,-44.33052632767738,185.7036842184516,100.18789476458052,188.6984209667745,-155.81105263025808,-2.07,122.94,2025-05-14 14:37:39.813
/home/najo/NAS/DIP/datasets/meca_insertion/vla_dataset_insertion_250514/front/zed_41182735_right_1747201059.988.jpg,1747201059.988,1747201059.984,0.003999948501586914,1747201059.984,20.87952379871118,34.15952379871118,-18.717142905799705,25.014285698066768,69.45761910708853,-44.47904759742236,185.8042856980668,100.5628570942003,187.58142871739912,-155.78,-2.08,122.93,2025-05-14 14:37:39.984
/home/najo/NAS/DIP/datasets/meca_insertion/vla_dataset_insertion_250514/front/zed_41182735_left_1747201059.988.jpg,1747201059.988,1747201059.984,0.003999948501586914,1747201059.984,20.87952379871118,34.15952379871118,-18.717142905799705,25.014285698066768,69.45761910708853,-44.47904759742236,185.8042856980668,100.5628570942003,187.58142871739912,-155.78,-2.08,122.93,2025-05-14 14:37:39.984
/home/najo/NAS/DIP/datasets/meca_insertion/vla_dataset_insertion_250514/top/zed_49045152_right_1747201060.039.jpg,1747201060.039,1747201060.039,0.0,1747201060.039,20.89,34.17,-18.67,25.03,69.4,-44.5,185.82,100.61,187.44,-155.78,-2.08,122.93,2025-05-14 14:37:40.039
/home/najo/NAS/DIP/datasets/meca_insertion/vla_dataset_insertion_250514/top/zed_49045152_left_1747201060.039.jpg,1747201060.039,1747201060.039,0.0,1747201060.039,20.89,34.17,-18.67,25.03,69.4,-44.5,185.82,100.61,187.44,-155.78,-2.08,122.93,2025-05-14 14:37:40.039
/home/najo/NAS/DIP/datasets/meca_insertion/vla_dataset_insertion_250514/right/zed_49429257_left_1747201060.090.jpg,1747201060.09,1747201060.089,0.0009999275207519531,1747201060.089,20.92053431224452,34.20435110127509,-18.54404596199136,25.064351101275086,69.2473284387774,-44.55343504642791,185.8505343122445,100.73595403800864,187.0506875188824,-155.7685496329083,-2.083816789030565,122.92618321096944,2025-05-14 14:37:40.089
/home/najo/NAS/DIP/datasets/meca_insertion/vla_dataset_insertion_250514/right/zed_49429257_right_1747201060.090.jpg,1747201060.09,1747201060.089,0.0009999275207519531,1747201060.089,20.92053431224452,34.20435110127509,-18.54404596199136,25.064351101275086,69.2473284387774,-44.55343504642791,185.8505343122445,100.73595403800864,187.0506875188824,-155.7685496329083,-2.083816789030565,122.92618321096944,2025-05-14 14:37:40.089
/home/najo/NAS/DIP/datasets/meca_insertion/vla_dataset_insertion_250514/left/zed_44377151_left_1747201060.152.jpg,1747201060.152,1747201060.149,0.003000020980834961,1747201060.149,20.957175486937945,34.24557242280518,-18.39290111638099,25.105572422805185,69.06412256531029,-44.6175571021414,185.88717548693796,100.887098883619,186.58351254154124,-155.75480919239828,-2.0883969358672427,122.92160306413275,2025-05-14 14:37:40.149
/home/najo/NAS/DIP/datasets/meca_insertion/vla_dataset_insertion_250514/left/zed_44377151_right_1747201060.152.jpg,1747201060.152,1747201060.149,0.003000020980834961,1747201060.149,20.957175486937945,34.24557242280518,-18.39290111638099,25.105572422805185,69.06412256531029,-44.6175571021414,185.88717548693796,100.887098883619,186.58351254154124,-155.75480919239828,-2.0883969358672427,122.92160306413275,2025-05-14 14:37:40.149
/home/najo/NAS/DIP/datasets/meca_insertion/vla_dataset_insertion_250514/top/zed_49045152_right_1747201060.354.jpg,1747201060.354,1747201060.357,0.003000020980834961,1747201060.357,21.02769231978453,34.32769231978453,-18.065384560969605,25.1915384796768,68.66769224118507,-44.755384639569066,185.96769231978453,101.2146154390304,185.5761536829088,-155.73615384010773,-2.1,122.92,2025-05-14 14:37:40.357
/home/najo/NAS/DIP/datasets/meca_insertion/vla_dataset_insertion_250514/top/zed_49045152_left_1747201060.354.jpg,1747201060.354,1747201060.357,0.003000020980834961,1747201060.357,21.02769231978453,34.32769231978453,-18.065384560969605,25.1915384796768,68.66769224118507,-44.755384639569066,185.96769231978453,101.2146154390304,185.5761536829088,-155.73615384010773,-2.1,122.92,2025-05-14 14:37:40.357
/home/najo/NAS/DIP/datasets/meca_insertion/vla_dataset_insertion_250514/front/zed_41182735_left_1747201060.416.jpg,1747201060.416,1747201060.417,0.0010001659393310547,1747201060.417,21.034285714285712,34.33428571428572,-18.03571428571429,25.20142857142857,68.63142857142857,-44.76857142857143,185.9742857142857,101.24428571428572,185.48714285714289,-155.73285714285714,-2.1,122.92,2025-05-14 14:37:40.417
/home/najo/NAS/DIP/datasets/meca_insertion/vla_dataset_insertion_250514/front/zed_41182735_right_1747201060.416.jpg,1747201060.416,1747201060.417,0.0010001659393310547,1747201060.417,21.034285714285712,34.33428571428572,-18.03571428571429,25.20142857142857,68.63142857142857,-44.76857142857143,185.9742857142857,101.24428571428572,185.48714285714289,-155.73285714285714,-2.1,122.92,2025-05-14 14:37:40.417
/home/najo/NAS/DIP/datasets/meca_insertion/vla_dataset_insertion_250514/left/zed_44377151_right_1747201060.469.jpg,1747201060.469,1747201060.469,0.0,1747201060.469,21.04,34.34,-18.01,25.21,68.6,-44.78,185.98,101.27,185.41,-155.73,-2.1,122.92,2025-05-14 14:37:40.469
/home/najo/NAS/DIP/datasets/meca_insertion/vla_dataset_insertion_250514/left/zed_44377151_left_1747201060.469.jpg,1747201060.469,1747201060.469,0.0,1747201060.469,21.04,34.34,-18.01,25.21,68.6,-44.78,185.98,101.27,185.41,-155.73,-2.1,122.92,2025-05-14 14:37:40.469
/home/najo/NAS/DIP/datasets/meca_insertion/vla_dataset_insertion_250514/right/zed_49429257_right_1747201060.479.jpg,1747201060.479,1747201060.479,0.0,1747201060.479,21.048653850121617,34.350576927926426,-17.969615366099124,25.22057692792642,68.5499999770751,-44.79634616134084,185.9886538501216,101.30942309499848,185.28499994268776,-155.7280769221952,-2.100961538902402,122.9190384610976,2025-05-14 14:37:40.479
/home/najo/NAS/DIP/datasets/meca_insertion/vla_dataset_insertion_250514/right/zed_49429257_left_1747201060.479.jpg,1747201060.479,1747201060.479,0.0,1747201060.479,21.048653850121617,34.350576927926426,-17.969615366099124,25.22057692792642,68.5499999770751,-44.79634616134084,185.9886538501216,101.30942309499848,185.28499994268776,-155.7280769221952,-2.100961538902402,122.9190384610976,2025-05-14 14:37:40.479
/home/najo/NAS/DIP/datasets/meca_insertion/vla_dataset_insertion_250514/left/zed_44377151_right_1747201060.697.jpg,1747201060.697,1747201060.693,0.003999948501586914,1747201060.693,21.17132450393865,34.502649007877295,-17.402052976368108,25.37132450393865,67.85940396849081,-45.032649007877296,186.10132450393863,101.8679470236319,183.53483442516568,-155.69867549606133,-2.11,122.91,2025-05-14 14:37:40.693
/home/najo/NAS/DIP/datasets/meca_insertion/vla_dataset_insertion_250514/left/zed_44377151_left_1747201060.697.jpg,1747201060.697,1747201060.693,0.003999948501586914,1747201060.693,21.17132450393865,34.502649007877295,-17.402052976368108,25.37132450393865,67.85940396849081,-45.032649007877296,186.10132450393863,101.8679470236319,183.53483442516568,-155.69867549606133,-2.11,122.91,2025-05-14 14:37:40.693
/home/najo/NAS/DIP/datasets/meca_insertion/vla_dataset_insertion_250514/front/zed_41182735_left_1747201060.772.jpg,1747201060.772,1747201060.773,0.0009999275207519531,1747201060.773,21.176622519693247,34.51324503938649,-17.370264881840534,25.37662251969325,67.81701984245404,-45.04324503938649,186.10662251969325,101.89973511815948,183.43417212582835,-155.69337748030674,-2.11,122.91,2025-05-14 14:37:40.773
/home/najo/NAS/DIP/datasets/meca_insertion/vla_dataset_insertion_250514/front/zed_41182735_right_1747201060.772.jpg,1747201060.772,1747201060.773,0.0009999275207519531,1747201060.773,21.176622519693247,34.51324503938649,-17.370264881840534,25.37662251969325,67.81701984245404,-45.04324503938649,186.10662251969325,101.89973511815948,183.43417212582835,-155.69337748030674,-2.11,122.91,2025-05-14 14:37:40.773
/home/najo/NAS/DIP/datasets/meca_insertion/vla_dataset_insertion_250514/right/zed_49429257_left_1747201060.792.jpg,1747201060.792,1747201060.793,0.0009999275207519531,1747201060.793,21.17794702363189,34.51589404726379,-17.362317858208637,25.377947023631894,67.80642381094485,-45.045894047263786,186.1079470236319,101.90768214179135,183.409006550994,-155.6920529763681,-2.11,122.91,2025-05-14 14:37:40.793
/home/najo/NAS/DIP/datasets/meca_insertion/vla_dataset_insertion_250514/right/zed_49429257_right_1747201060.792.jpg,1747201060.792,1747201060.793,0.0009999275207519531,1747201060.793,21.17794702363189,34.51589404726379,-17.362317858208637,25.377947023631894,67.80642381094485,-45.045894047263786,186.1079470236319,101.90768214179135,183.409006550994,-155.6920529763681,-2.11,122.91,2025-05-14 14:37:40.793
/home/najo/NAS/DIP/datasets/meca_insertion/vla_dataset_insertion_250514/top/zed_49045152_left_1747201060.824.jpg,1747201060.824,1747201060.824,0.0,1747201060.824,21.18,34.52,-17.35,25.38,67.79,-45.05,186.11,101.92,183.37,-155.69,-2.11,122.91,2025-05-14 14:37:40.824
/home/najo/NAS/DIP/datasets/meca_insertion/vla_dataset_insertion_250514/top/zed_49045152_right_1747201060.824.jpg,1747201060.824,1747201060.824,0.0,1747201060.824,21.18,34.52,-17.35,25.38,67.79,-45.05,186.11,101.92,183.37,-155.69,-2.11,122.91,2025-05-14 14:37:40.824
/home/najo/NAS/DIP/datasets/meca_insertion/vla_dataset_insertion_250514/front/zed_41182735_left_1747201061.052.jpg,1747201061.052,1747201061.052,0.0,1747201061.052,21.31,34.66,-16.78,25.54,67.1,-45.29,186.21,102.46,181.61,-155.66,-2.12,122.9,2025-05-14 14:37:41.052
/home/najo/NAS/DIP/datasets/meca_insertion/vla_dataset_insertion_250514/front/zed_41182735_right_1747201061.052.jpg,1747201061.052,1747201061.052,0.0,1747201061.052,21.31,34.66,-16.78,25.54,67.1,-45.29,186.21,102.46,181.61,-155.66,-2.12,122.9,2025-05-14 14:37:41.052
/home/najo/NAS/DIP/datasets/meca_insertion/vla_dataset_insertion_250514/left/zed_44377151_left_1747201061.102.jpg,1747201061.102,1747201061.102,0.0,1747201061.102,21.332167459046044,34.68709356105627,-16.676551857785128,25.567093561056275,66.97192134773397,-45.33433491809209,186.22477830603071,102.55852204020464,181.2898033693349,-155.65753694899487,-2.122463051005116,122.9,2025-05-14 14:37:41.102
/home/najo/NAS/DIP/datasets/meca_insertion/vla_dataset_insertion_250514/left/zed_44377151_right_1747201061.102.jpg,1747201061.102,1747201061.102,0.0,1747201061.102,21.332167459046044,34.68709356105627,-16.676551857785128,25.567093561056275,66.97192134773397,-45.33433491809209,186.22477830603071,102.55852204020464,181.2898033693349,-155.65753694899487,-2.122463051005116,122.9,2025-05-14 14:37:41.102
/home/najo/NAS/DIP/datasets/meca_insertion/vla_dataset_insertion_250514/top/zed_49045152_right_1747201061.122.jpg,1747201061.122,1747201061.122,0.0,1747201061.122,21.341034442664466,34.697930985478784,-16.63517260089918,25.577930985478787,66.92068988682755,-45.352068885328926,186.23068962844297,102.5979308562865,181.1617247170689,-155.65655172859283,-2.1234482714071623,122.9,2025-05-14 14:37:41.122
/home/najo/NAS/DIP/datasets/meca_insertion/vla_dataset_insertion_250514/top/zed_49045152_left_1747201061.122.jpg,1747201061.122,1747201061.122,0.0,1747201061.122,21.341034442664466,34.697930985478784,-16.63517260089918,25.577930985478787,66.92068988682755,-45.352068885328926,186.23068962844297,102.5979308562865,181.1617247170689,-155.65655172859283,-2.1234482714071623,122.9,2025-05-14 14:37:41.122
/home/najo/NAS/DIP/datasets/meca_insertion/vla_dataset_insertion_250514/right/zed_49429257_left_1747201061.159.jpg,1747201061.159,1747201061.162,0.003000020980834961,1747201061.162,21.35876840990129,34.71960583432381,-16.552414087127282,25.599605834323807,66.81822696501473,-45.38753681980259,186.24251227326755,102.6767484884502,180.90556741253684,-155.65458128778874,-2.125418712211255,122.9,2025-05-14 14:37:41.162
/home/najo/NAS/DIP/datasets/meca_insertion/vla_dataset_insertion_250514/right/zed_49429257_right_1747201061.159.jpg,1747201061.159,1747201061.162,0.003000020980834961,1747201061.162,21.35876840990129,34.71960583432381,-16.552414087127282,25.599605834323807,66.81822696501473,-45.38753681980259,186.24251227326755,102.6767484884502,180.90556741253684,-155.65458128778874,-2.125418712211255,122.9,2025-05-14 14:37:41.162
